presets/luts/cool_cinema.cube
TITLE "Cool Cinematic"
LUT_3D_SIZE 5
0.025581 0.027385 0.043940
0.133649 0.027665 0.041376
0.475485 0.027948 0.038956
0.841947 0.028234 0.036672
0.969043 0.028522 0.034518
0.026625 0.141917 0.039043
0.138479 0.143197 0.036754
0.485741 0.144485 0.034595
0.847339 0.145784 0.032558
0.970252 0.147092 0.030637
0.027711 0.492773 0.034672
0.143454 0.495389 0.032631
0.496010 0.498005 0.030706
0.853513 0.500000 0.029101
0.972475 0.500000 0.028227
0.028840 0.850895 0.030775
0.149376 0.851953 0.029134
0.515701 0.851953 0.028259
0.865896 0.851953 0.027409
0.975095 0.851953 0.026584
0.031096 0.970688 0.028290
0.162904 0.970688 0.027440
0.541293 0.970688 0.026614
0.877383 0.970688 0.025813
0.977472 0.970688 0.025035
0.025780 0.027491 0.205227
0.134576 0.027772 0.195175
0.477475 0.028056 0.185500
0.843006 0.028343 0.176200
0.969282 0.028633 0.167270
0.026833 0.142404 0.185849
0.139434 0.143687 0.176535
0.487735 0.144979 0.167592
0.848368 0.146281 0.159014
0.970482 0.147593 0.150796
0.027927 0.493770 0.167915
0.144438 0.496386 0.159324
0.498005 0.499003 0.151092
0.855990 0.500000 0.145614
0.973004 0.500000 0.141751
0.029064 0.851400 0.151389
0.151929 0.851953 0.145758
0.520682 0.851953 0.141892
0.868196 0.851953 0.138112
0.975575 0.851953 0.134417
0.031702 0.970688 0.142033
0.165643 0.970688 0.138250
0.546242 0.970688 0.134552
0.879513 0.970688 0.130937
0.977907 0.970688 0.127406
0.025982 0.027598 0.591971
0.135508 0.027880 0.576722
0.479467 0.028165 0.561325
0.844060 0.028453 0.545809
0.969519 0.028744 0.530203
0.027042 0.142892 0.561893
0.140394 0.144178 0.546381
0.489729 0.145475 0.530779
0.849392 0.146780 0.515115
0.970742 0.148047 0.499711
0.028144 0.494768 0.531354
0.145427 0.497384 0.515692
0.500000 0.500000 0.500000
0.858432 0.500000 0.492152
0.973523 0.500000 0.484308
0.029290 0.851904 0.500577
0.154518 0.851953 0.492441
0.525659 0.851953 0.484596
0.870462 0.851953 0.476759
0.976046 0.851953 0.468934
0.032320 0.970688 0.484885
0.168419 0.970688 0.477047
0.551183 0.970688 0.469221
0.881611 0.970688 0.461411
0.978334 0.970688 0.453619
0.026184 0.027705 0.890726
0.136446 0.027989 0.884463
0.481459 0.028275 0.877890
0.845107 0.028564 0.870998
0.969753 0.028856 0.863777
0.027253 0.143381 0.878138
0.141360 0.144671 0.871257
0.491723 0.145971 0.864048
0.850410 0.147281 0.856503
0.971304 0.148047 0.850290
0.028363 0.495765 0.864320
0.146421 0.498381 0.856786
0.504987 0.500000 0.850437
0.860839 0.500000 0.846399
0.974033 0.500000 0.842273
0.029829 0.851953 0.850584
0.157142 0.851953 0.846549
0.530630 0.851953 0.842427
0.872695 0.851953 0.838214
0.976508 0.851953 0.833911
0.032950 0.970688 0.842580
0.171231 0.970688 0.838371
0.556113 0.970688 0.834071
0.883677 0.970688 0.829681
0.978753 0.970688 0.825198
0.026389 0.027813 0.978632
0.137389 0.028097 0.977278
0.483451 0.028385 0.975841
0.846149 0.028675 0.974316
0.969987 0.028968 0.972697
0.027465 0.143872 0.975896
0.142331 0.145166 0.974374
0.493718 0.146469 0.972758
0.851422 0.147783 0.971044
0.971855 0.148047 0.969965
0.028584 0.496763 0.972820
0.147421 0.499379 0.971109
0.509974 0.500000 0.969999
0.863212 0.500000 0.969072
0.974532 0.500000 0.968117
0.030412 0.851953 0.970032
0.159802 0.851953 0.969106
0.535596 0.851953 0.968152
0.874895 0.851953 0.967170
0.976961 0.851953 0.966158
0.033592 0.970688 0.968188
0.174081 0.970688 0.967207
0.561032 0.970688 0.966196
0.885712 0.970688 0.965156
0.979164 0.970688 0.964084
