presets/luts/cool_cinema.cube
TITLE "Cool Cinematic"
LUT_3D_SIZE 9
0.025581 0.027385 0.043940
0.059831 0.027525 0.042640
0.133649 0.027665 0.041376
0.272177 0.027806 0.040149
0.475485 0.027948 0.038956
0.687257 0.028090 0.037798
0.841947 0.028234 0.036672
0.928126 0.028377 0.035579
0.969043 0.028522 0.034518
0.026098 0.063881 0.041422
0.060997 0.064194 0.040193
0.136046 0.064509 0.039000
0.276266 0.064826 0.037840
0.480611 0.065144 0.036713
0.691655 0.065463 0.035619
0.844662 0.065784 0.034556
0.929485 0.066106 0.033524
0.969654 0.066430 0.032521
0.026625 0.141917 0.039043
0.062185 0.142556 0.037882
0.138479 0.143197 0.036754
0.280393 0.143840 0.035659
0.485741 0.144485 0.034595
0.696020 0.145133 0.033561
0.847339 0.145784 0.032558
0.930819 0.146437 0.031583
0.970252 0.147092 0.030637
0.027163 0.286145 0.036795
0.063394 0.287215 0.035698
0.140948 0.288287 0.034633
0.284557 0.289362 0.033599
0.490875 0.290439 0.032594
0.700349 0.291519 0.031619
0.849978 0.292600 0.030671
0.932131 0.293685 0.029752
0.971066 0.294215 0.029085
0.027711 0.492773 0.034672
0.064624 0.494081 0.033636
0.143454 0.495389 0.032631
0.288758 0.496697 0.031654
0.496010 0.498005 0.030706
0.704643 0.499313 0.029785
0.853513 0.500000 0.029101
0.934844 0.500000 0.028661
0.972475 0.500000 0.028227
0.028270 0.701900 0.032667
0.065878 0.702994 0.031689
0.145997 0.704085 0.030740
0.292995 0.705174 0.029818
0.502866 0.705785 0.029117
0.713537 0.705785 0.028677
0.859819 0.705785 0.028243
0.937903 0.705785 0.027815
0.973817 0.705785 0.027394
0.028840 0.850895 0.030775
0.067153 0.851557 0.029852
0.149376 0.851953 0.029134
0.301885 0.851953 0.028693
0.515701 0.851953 0.028259
0.723919 0.851953 0.027831
0.865896 0.851953 0.027409
0.940828 0.851953 0.026994
0.975095 0.851953 0.026584
0.029585 0.932453 0.029150
0.069830 0.932453 0.028709
0.156021 0.932453 0.028274
0.312819 0.932453 0.027846
0.528516 0.932453 0.027424
0.734066 0.932453 0.027009
0.871749 0.932453 0.026599
0.943624 0.932453 0.026196
0.976313 0.932453 0.025798
0.031096 0.970688 0.028290
0.073241 0.970688 0.027862
0.162904 0.970688 0.027440
0.323964 0.970688 0.027024
0.541293 0.970688 0.026614
0.743971 0.970688 0.026211
0.877383 0.970688 0.025813
0.946294 0.970688 0.025421
0.977472 0.970688 0.025035
0.025680 0.027438 0.098237
0.060056 0.027578 0.095491
0.134112 0.027719 0.092813
0.272968 0.027860 0.090203
0.476480 0.028002 0.087660
0.688114 0.028145 0.085181
0.842478 0.028288 0.082766
0.928392 0.028433 0.080414
0.969163 0.028577 0.078123
0.026200 0.064000 0.092910
0.061226 0.064314 0.090298
0.136516 0.064630 0.087752
0.277064 0.064947 0.085271
0.481607 0.065265 0.082854
0.692506 0.065585 0.080499
0.845185 0.065907 0.078206
0.929746 0.066229 0.075973
0.969771 0.066554 0.073798
0.026729 0.142161 0.087845
0.062418 0.142800 0.085361
0.138956 0.143442 0.082942
0.281198 0.144086 0.080585
0.486738 0.144732 0.078289
0.696863 0.145381 0.076054
0.847854 0.146032 0.073877
0.931076 0.146686 0.071757
0.970367 0.147342 0.069694
0.027269 0.286552 0.083030
0.063631 0.287623 0.080671
0.141432 0.288697 0.078373
0.285370 0.289772 0.076135
0.491872 0.290850 0.073956
0.701186 0.291931 0.071834
0.850486 0.293014 0.069769
0.932383 0.294099 0.067759
0.971345 0.294215 0.066669
0.027819 0.493272 0.078456
0.064866 0.494580 0.076216
0.143945 0.495888 0.074035
0.289578 0.497196 0.071911
0.497008 0.498504 0.069844
0.705472 0.499812 0.067832
0.854756 0.500000 0.066705
0.935448 0.500000 0.065734
0.972741 0.500000 0.064777
0.028380 0.702317 0.074114
0.066123 0.703410 0.071988
0.146496 0.704501 0.069919
0.293823 0.705589 0.067905
0.505359 0.705785 0.066741
0.715572 0.705785 0.065770
0.861017 0.705785 0.064812
0.938481 0.705785 0.063867
0.974070 0.705785 0.062935
0.028952 0.851148 0.069994
0.067404 0.851809 0.067978
0.150648 0.851953 0.066777
0.303991 0.851953 0.065805
0.518192 0.851953 0.064847
0.725909 0.851953 0.063902
0.867050 0.851953 0.062969
0.941381 0.851953 0.062049
0.975336 0.851953 0.061142
0.029873 0.932453 0.066813
0.070481 0.932453 0.065841
0.157339 0.932453 0.064882
0.314967 0.932453 0.063936
0.531001 0.932453 0.063003
0.736009 0.932453 0.062083
0.872860 0.932453 0.061175
0.944152 0.932453 0.060280
0.976542 0.932453 0.059396
0.031398 0.970688 0.064917
0.073921 0.970688 0.063971
0.164269 0.970688 0.063037
0.326153 0.970688 0.062116
0.543769 0.970688 0.061208
0.745867 0.970688 0.060312
0.878452 0.970688 0.059429
0.946799 0.970688 0.058557
0.977690 0.970688 0.057698
0.025780 0.027491 0.205227
0.060282 0.027632 0.200154
0.134576 0.027772 0.195175
0.273761 0.027914 0.190290
0.477475 0.028056 0.185500
0.688969 0.028199 0.180803
0.843006 0.028343 0.176200
0.928657 0.028488 0.171689
0.969282 0.028633 0.167270
0.026302 0.064120 0.195356
0.061456 0.064434 0.190468
0.136987 0.064750 0.185675
0.277864 0.065068 0.180974
0.482603 0.065387 0.176367
0.693355 0.065708 0.171853
0.845706 0.066030 0.167431
0.930006 0.066353 0.163100
0.969888 0.066678 0.158860
0.026833 0.142404 0.185849
0.062652 0.143044 0.181146
0.139434 0.143687 0.176535
0.282006 0.144332 0.172018
0.487735 0.144979 0.167592
0.697705 0.145629 0.163258
0.848368 0.146281 0.159014
0.931332 0.146936 0.154861
0.970482 0.147593 0.150796
0.027375 0.286960 0.176703
0.063869 0.288032 0.172182
0.141917 0.289106 0.167753
0.286184 0.290183 0.163416
0.492869 0.291262 0.159169
0.702021 0.292343 0.155012
0.850992 0.293427 0.150944
0.932904 0.294215 0.147505
0.971622 0.294215 0.145542
0.027927 0.493770 0.167915
0.065109 0.495078 0.163574
0.144438 0.496386 0.159324
0.290399 0.497694 0.155163
0.498005 0.499003 0.151092
0.707073 0.500000 0.147578
0.855990 0.500000 0.145614
0.936048 0.500000 0.143672
0.973004 0.500000 0.141751
0.028490 0.702734 0.159478
0.066370 0.703826 0.155315
0.146995 0.704916 0.151240
0.295306 0.705785 0.147650
0.507852 0.705785 0.145686
0.717597 0.705785 0.143743
0.862206 0.705785 0.141822
0.939055 0.705785 0.139922
0.974321 0.705785 0.138043
0.029064 0.851400 0.151389
0.067817 0.851953 0.147723
0.151929 0.851953 0.145758
0.306106 0.851953 0.143814
0.520682 0.851953 0.141892
0.727889 0.851953 0.139991
0.868196 0.851953 0.138112
0.941929 0.851953 0.136254
0.975575 0.851953 0.134417
0.030163 0.932453 0.145830
0.071137 0.932453 0.143885
0.158666 0.932453 0.141962
0.317123 0.932453 0.140061
0.533484 0.932453 0.138181
0.737942 0.932453 0.136322
0.873963 0.932453 0.134484
0.944675 0.932453 0.132668
0.976770 0.932453 0.130872
0.031702 0.970688 0.142033
0.074607 0.970688 0.140130
0.165643 0.970688 0.138250
0.328349 0.970688 0.136390
0.546242 0.970688 0.134552
0.747753 0.970688 0.132734
0.879513 0.970688 0.130937
0.947299 0.970688 0.129162
0.977907 0.970688 0.127406
0.025881 0.027545 0.379679
0.060508 0.027685 0.372313
0.135041 0.027826 0.365006
0.274555 0.027968 0.357761
0.478471 0.028111 0.350580
0.689824 0.028254 0.343466
0.843534 0.028398 0.336422
0.928921 0.028543 0.329450
0.969400 0.028688 0.322552
0.026404 0.064239 0.365274
0.061686 0.064555 0.358027
0.137459 0.064871 0.350843
0.278666 0.065190 0.343727
0.483600 0.065509 0.336680
0.694202 0.065830 0.329705
0.846226 0.066153 0.322804
0.930265 0.066477 0.315980
0.970004 0.066802 0.309234
0.026937 0.142648 0.351106
0.062886 0.143289 0.343987
0.139913 0.143932 0.336938
0.282814 0.144578 0.329960
0.488732 0.145227 0.323057
0.698546 0.145877 0.316229
0.848881 0.146531 0.309480
0.931586 0.147186 0.302812
0.970596 0.147844 0.296225
0.027481 0.287369 0.337196
0.064108 0.288442 0.330216
0.142404 0.289517 0.323309
0.287000 0.290594 0.316479
0.493867 0.291674 0.309727
0.702855 0.292756 0.303055
0.851498 0.293841 0.296466
0.933526 0.294215 0.292083
0.971895 0.294215 0.288848
0.028035 0.494269 0.323562
0.065352 0.495577 0.316729
0.144932 0.496885 0.309974
0.291222 0.498193 0.303299
0.499003 0.499501 0.296707
0.709135 0.500000 0.292202
0.857215 0.500000 0.288966
0.936643 0.500000 0.285752
0.973265 0.500000 0.282559
0.028601 0.703151 0.310221
0.066618 0.704242 0.303544
0.147496 0.705331 0.296948
0.297386 0.705785 0.292322
0.510345 0.705785 0.289085
0.719614 0.705785 0.285870
0.863387 0.705785 0.282676
0.939623 0.705785 0.279504
0.974569 0.705785 0.276353
0.029177 0.851652 0.297189
0.068451 0.851953 0.292441
0.153219 0.851953 0.289204
0.308229 0.851953 0.285987
0.523171 0.851953 0.282793
0.729860 0.851953 0.279620
0.869333 0.851953 0.276469
0.942472 0.851953 0.273340
0.975812 0.851953 0.270233
0.030456 0.932453 0.289322
0.071799 0.932453 0.286105
0.160002 0.932453 0.282910
0.319287 0.932453 0.279736
0.535966 0.932453 0.276584
0.739867 0.932453 0.273455
0.875058 0.932453 0.270347
0.945194 0.932453 0.267262
0.976995 0.932453 0.264199
0.032010 0.970688 0.283027
0.075298 0.970688 0.279853
0.167026 0.970688 0.276700
0.330552 0.970688 0.273569
0.548714 0.970688 0.270461
0.749630 0.970688 0.267375
0.880566 0.970688 0.264311
0.947795 0.970688 0.261270
0.978121 0.970688 0.258252
0.025982 0.027598 0.591971
0.060735 0.027739 0.584367
0.135508 0.027880 0.576722
0.275350 0.028023 0.569040
0.479467 0.028165 0.561325
0.690677 0.028309 0.553580
0.844060 0.028453 0.545809
0.929184 0.028598 0.538015
0.969519 0.028744 0.530203
0.026507 0.064359 0.577004
0.061918 0.064675 0.569323
0.137933 0.064993 0.561609
0.279468 0.065311 0.553865
0.484596 0.065631 0.546095
0.695049 0.065953 0.538302
0.846745 0.066276 0.530491
0.930524 0.066601 0.522664
0.970120 0.066927 0.514827
0.027042 0.142892 0.561893
0.063122 0.143534 0.554151
0.140394 0.144178 0.546381
0.283624 0.144825 0.538589
0.489729 0.145475 0.530779
0.699386 0.146126 0.522953
0.849392 0.146780 0.515115
0.931840 0.147437 0.507271
0.970742 0.148047 0.499711
0.027588 0.287778 0.546668
0.064348 0.288851 0.538876
0.142892 0.289927 0.531066
0.287817 0.291006 0.523241
0.494864 0.292086 0.515404
0.703688 0.293169 0.507559
0.852074 0.294215 0.499856
0.934142 0.294215 0.495931
0.972167 0.294215 0.492008
0.028144 0.494768 0.531354
0.065596 0.496076 0.523529
0.145427 0.497384 0.515692
0.292047 0.498692 0.507848
0.500000 0.500000 0.500000
0.711188 0.500000 0.496076
0.858432 0.500000 0.492152
0.937232 0.500000 0.488229
0.973523 0.500000 0.484308
0.028712 0.703567 0.515981
0.066867 0.704657 0.508137
0.147999 0.705745 0.500289
0.299475 0.705785 0.496220
0.512838 0.705785 0.492296
0.721623 0.705785 0.488373
0.864559 0.705785 0.484452
0.940187 0.705785 0.480532
0.974815 0.705785 0.476615
0.029290 0.851904 0.500577
0.069089 0.851953 0.496364
0.154518 0.851953 0.492441
0.310360 0.851953 0.488518
0.525659 0.851953 0.484596
0.731822 0.851953 0.480677
0.870462 0.851953 0.476759
0.943011 0.851953 0.472845
0.976046 0.851953 0.468934
0.030752 0.932453 0.492585
0.072467 0.932453 0.488662
0.161347 0.932453 0.484740
0.321459 0.932453 0.480821
0.538446 0.932453 0.476903
0.741782 0.932453 0.472989
0.876144 0.932453 0.469078
0.945709 0.932453 0.465170
0.977218 0.932453 0.461267
0.032320 0.970688 0.484885
0.075996 0.970688 0.480965
0.168419 0.970688 0.477047
0.332764 0.970688 0.473133
0.551183 0.970688 0.469221
0.751497 0.970688 0.465314
0.881611 0.970688 0.461411
0.948286 0.970688 0.457512
0.978334 0.970688 0.453619
0.026083 0.027652 0.774719
0.060963 0.027793 0.769192
0.135976 0.027935 0.763571
0.276147 0.028077 0.757857
0.480462 0.028220 0.752049
0.691529 0.028364 0.746148
0.844584 0.028509 0.740156
0.929446 0.028654 0.734073
0.969636 0.028800 0.727899
0.026610 0.064480 0.763780
0.062150 0.064796 0.758069
0.138408 0.065114 0.752264
0.280273 0.065433 0.746367
0.485593 0.065754 0.740378
0.695894 0.066076 0.734298
0.847262 0.066400 0.728128
0.930781 0.066725 0.721869
0.970235 0.067051 0.715522
0.027147 0.143136 0.752479
0.063358 0.143779 0.746586
0.140876 0.144425 0.740600
0.284436 0.145073 0.734523
0.490726 0.145723 0.728356
0.700224 0.146375 0.722101
0.849902 0.147030 0.715757
0.932093 0.147688 0.709326
0.971024 0.148047 0.704300
0.027695 0.288187 0.740822
0.064589 0.289261 0.734749
0.143381 0.290338 0.728585
0.288636 0.291417 0.722332
0.495861 0.292499 0.715992
0.704519 0.293583 0.709565
0.853327 0.294215 0.704420
0.934753 0.294215 0.701142
0.972435 0.294215 0.697842
0.028254 0.495266 0.728813
0.065841 0.496574 0.722564
0.145923 0.497883 0.716226
0.292872 0.499191 0.709802
0.502494 0.500000 0.704541
0.713233 0.500000 0.701263
0.859640 0.500000 0.697964
0.937816 0.500000 0.694644
0.973779 0.500000 0.691304
0.028823 0.703983 0.716461
0.067116 0.705072 0.710040
0.149188 0.705785 0.704661
0.301572 0.705785 0.701384
0.515330 0.705785 0.698085
0.723622 0.705785 0.694767
0.865723 0.705785 0.691428
0.940745 0.705785 0.688069
0.975059 0.705785 0.684689
0.029542 0.851953 0.704781
0.069734 0.851953 0.701505
0.155825 0.851953 0.698207
0.312499 0.851953 0.694889
0.528145 0.851953 0.691551
0.733775 0.851953 0.688192
0.871583 0.851953 0.684814
0.943544 0.851953 0.681416
0.976278 0.851953 0.677999
0.031051 0.932453 0.698329
0.073140 0.932453 0.695012
0.162702 0.932453 0.691674
0.323639 0.932453 0.688316
0.540924 0.932453 0.684939
0.743688 0.932453 0.681542
0.877223 0.932453 0.678125
0.946219 0.932453 0.674689
0.977439 0.932453 0.671234
0.032634 0.970688 0.691797
0.076699 0.970688 0.688440
0.169820 0.970688 0.685063
0.334982 0.970688 0.681667
0.553649 0.970688 0.678251
0.753355 0.970688 0.674816
0.882648 0.970688 0.671362
0.948773 0.970688 0.667889
0.978544 0.970688 0.664398
0.026184 0.027705 0.890726
0.061192 0.027847 0.887633
0.136446 0.027989 0.884463
0.276945 0.028131 0.881216
0.481459 0.028275 0.877890
0.692379 0.028419 0.874484
0.845107 0.028564 0.870998
0.929707 0.028709 0.867429
0.969753 0.028856 0.863777
0.026713 0.064600 0.884581
0.062383 0.064917 0.881337
0.138885 0.065235 0.878014
0.281078 0.065555 0.874611
0.486589 0.065876 0.871128
0.696738 0.066199 0.867562
0.847778 0.066523 0.863913
0.931038 0.066849 0.860179
0.970350 0.067176 0.856361
0.027253 0.143381 0.878138
0.063595 0.144025 0.874738
0.141360 0.144671 0.871257
0.285248 0.145320 0.867694
0.491723 0.145971 0.864048
0.701061 0.146625 0.860318
0.850410 0.147281 0.856503
0.932345 0.147939 0.852601
0.971304 0.148047 0.850290
0.027803 0.288596 0.871387
0.064830 0.289672 0.867827
0.143872 0.290749 0.864184
0.289456 0.291830 0.860457
0.496859 0.292912 0.856644
0.705349 0.293997 0.852746
0.854571 0.294215 0.850363
0.935359 0.294215 0.848355
0.972701 0.294215 0.846324
0.028363 0.495765 0.864320
0.066087 0.497073 0.860596
0.146421 0.498381 0.856786
0.293699 0.499689 0.852891
0.504987 0.500000 0.850437
0.715269 0.500000 0.848429
0.860839 0.500000 0.846399
0.938396 0.500000 0.844347
0.974033 0.500000 0.842273
0.028935 0.704399 0.856928
0.067366 0.705487 0.853035
0.150458 0.705785 0.850510
0.303677 0.705785 0.848503
0.517821 0.705785 0.846474
0.725613 0.705785 0.844423
0.866879 0.705785 0.842350
0.941299 0.705785 0.840254
0.975300 0.705785 0.838136
0.029829 0.851953 0.850584
0.070384 0.851953 0.848578
0.157142 0.851953 0.846549
0.314646 0.851953 0.844499
0.530630 0.851953 0.842427
0.735719 0.851953 0.840332
0.872695 0.851953 0.838214
0.944073 0.851953 0.836074
0.976508 0.851953 0.833911
0.031352 0.932453 0.846624
0.073819 0.932453 0.844575
0.164065 0.932453 0.842503
0.325826 0.932453 0.840409
0.543400 0.932453 0.838292
0.745585 0.932453 0.836153
0.878293 0.932453 0.833991
0.946724 0.932453 0.831807
0.977658 0.932453 0.829599
0.032950 0.970688 0.842580
0.077409 0.970688 0.840487
0.171231 0.970688 0.838371
0.337208 0.970688 0.836232
0.556113 0.970688 0.834071
0.755204 0.970688 0.831887
0.883677 0.970688 0.829681
0.949256 0.970688 0.827451
0.978753 0.970688 0.825198
0.026286 0.027759 0.950791
0.061422 0.027901 0.949301
0.136917 0.028043 0.947768
0.277745 0.028186 0.946192
0.482455 0.028330 0.944571
0.693228 0.028474 0.942904
0.845629 0.028619 0.941190
0.929967 0.028765 0.939428
0.969870 0.028912 0.937617
0.026817 0.064721 0.947825
0.062617 0.065038 0.946251
0.139362 0.065357 0.944632
0.281885 0.065678 0.942966
0.487586 0.065999 0.941254
0.697580 0.066323 0.939494
0.848292 0.066647 0.937685
0.931293 0.066974 0.935825
0.970465 0.067301 0.933913
0.027359 0.143627 0.944692
0.063834 0.144271 0.943028
0.141845 0.144919 0.941318
0.286063 0.145568 0.939560
0.492721 0.146220 0.937752
0.701896 0.146875 0.935894
0.850917 0.147531 0.933984
0.932811 0.148047 0.932238
0.971581 0.148047 0.931240
0.027911 0.289006 0.941382
0.065072 0.290082 0.939625
0.144364 0.291161 0.937819
0.290277 0.292242 0.935963
0.497856 0.293325 0.934056
0.706765 0.294215 0.932275
0.855806 0.294215 0.931277
0.935959 0.294215 0.930265
0.972965 0.294215 0.929240
0.028474 0.496264 0.937887
0.066333 0.497572 0.936032
0.146921 0.498880 0.934127
0.294997 0.500000 0.932311
0.507481 0.500000 0.931314
0.717296 0.500000 0.930303
0.862030 0.500000 0.929278
0.938970 0.500000 0.928239
0.974284 0.500000 0.927187
0.029048 0.704814 0.934198
0.067723 0.705785 0.932347
0.151738 0.705785 0.931351
0.305790 0.705785 0.930340
0.520311 0.705785 0.929316
0.727594 0.705785 0.928278
0.868026 0.705785 0.927226
0.941848 0.705785 0.926159
0.975540 0.705785 0.925078
0.030120 0.851953 0.931387
0.071039 0.851953 0.930377
0.158468 0.851953 0.929354
0.316801 0.851953 0.928316
0.533114 0.851953 0.927265
0.737654 0.851953 0.926199
0.873799 0.851953 0.925119
0.944598 0.851953 0.924024
0.976736 0.851953 0.922914
0.031657 0.932453 0.929392
0.074504 0.932453 0.928355
0.165438 0.932453 0.927303
0.328021 0.932453 0.926238
0.545874 0.932453 0.925158
0.747472 0.932453 0.924064
0.879355 0.932453 0.922955
0.947225 0.932453 0.921832
0.977875 0.932453 0.920693
0.033270 0.970688 0.927342
0.078124 0.970688 0.926278
0.172652 0.970688 0.925198
0.339441 0.970688 0.924105
0.558574 0.970688 0.922997
0.757043 0.970688 0.921873
0.884699 0.970688 0.920735
0.949734 0.970688 0.919582
0.978959 0.970688 0.918414
0.026389 0.027813 0.978632
0.061652 0.027955 0.977965
0.137389 0.028097 0.977278
0.278546 0.028241 0.976571
0.483451 0.028385 0.975841
0.694076 0.028529 0.975090
0.846149 0.028675 0.974316
0.930227 0.028821 0.973519
0.969987 0.028968 0.972697
0.026922 0.064842 0.977304
0.062851 0.065160 0.976597
0.139842 0.065479 0.975869
0.282693 0.065800 0.975118
0.488583 0.066122 0.974345
0.698421 0.066446 0.973548
0.848804 0.066772 0.972728
0.931548 0.067098 0.971882
0.970579 0.067427 0.971012
0.027465 0.143872 0.975896
0.064072 0.144518 0.975146
0.142331 0.145166 0.974374
0.286878 0.145816 0.973578
0.493718 0.146469 0.972758
0.702731 0.147125 0.971914
0.851422 0.147783 0.971044
0.933433 0.148047 0.970419
0.971855 0.148047 0.969965
0.028019 0.289416 0.974403
0.065315 0.290493 0.973608
0.144858 0.291573 0.972789
0.291100 0.292655 0.971945
0.498854 0.293739 0.971077
0.708828 0.294215 0.970436
0.857033 0.294215 0.969982
0.936554 0.294215 0.969522
0.973226 0.294215 0.969054
0.028584 0.496763 0.972820
0.066581 0.498071 0.971977
0.147421 0.499379 0.971109
0.297076 0.500000 0.970452
0.509974 0.500000 0.969999
0.719314 0.500000 0.969539
0.863212 0.500000 0.969072
0.939539 0.500000 0.968598
0.974532 0.500000 0.968117
0.029160 0.705229 0.971141
0.068356 0.705785 0.970469
0.153026 0.705785 0.970016
0.307912 0.705785 0.969556
0.522800 0.705785 0.969089
0.729567 0.705785 0.968615
0.869164 0.705785 0.968135
0.942391 0.705785 0.967647
0.975777 0.705785 0.967152
0.030412 0.851953 0.970032
0.071700 0.851953 0.969573
0.159802 0.851953 0.969106
0.318964 0.851953 0.968633
0.535596 0.851953 0.968152
0.739580 0.851953 0.967665
0.874895 0.851953 0.967170
0.945117 0.851953 0.966668
0.976961 0.851953 0.966158
0.031964 0.932453 0.969124
0.075195 0.932453 0.968650
0.166820 0.932453 0.968170
0.330223 0.932453 0.967683
0.548345 0.932453 0.967188
0.749350 0.932453 0.966686
0.880409 0.932453 0.966177
0.947721 0.932453 0.965660
0.978090 0.932453 0.965136
0.033592 0.970688 0.968188
0.078846 0.970688 0.967701
0.174081 0.970688 0.967207
0.341681 0.970688 0.966705
0.561032 0.970688 0.966196
0.758873 0.970688 0.965680
0.885712 0.970688 0.965156
0.950209 0.970688 0.964624
0.979164 0.970688 0.964084
