presets/luts/cool_cinema.cube
TITLE "Cool Cinematic"
LUT_3D_SIZE 33
0.025581 0.027385 0.043940
0.031718 0.027420 0.043611
0.039269 0.027455 0.043285
0.048527 0.027490 0.042961
0.059831 0.027525 0.042640
0.073565 0.027560 0.042320
0.090150 0.027595 0.042003
0.110030 0.027630 0.041689
0.133649 0.027665 0.041376
0.161420 0.027700 0.041066
0.193670 0.027735 0.040758
0.230592 0.027771 0.040452
0.272177 0.027806 0.040149
0.318160 0.027841 0.039847
0.367985 0.027877 0.039548
0.420796 0.027912 0.039251
0.475485 0.027948 0.038956
0.530768 0.027983 0.038663
0.585306 0.028019 0.038373
0.637830 0.028055 0.038084
0.687257 0.028090 0.037798
0.732764 0.028126 0.037513
0.773829 0.028162 0.037231
0.810217 0.028198 0.036951
0.841947 0.028234 0.036672
0.869229 0.028269 0.036396
0.892403 0.028305 0.036122
0.911886 0.028341 0.035850
0.928126 0.028377 0.035579
0.941565 0.028414 0.035311
0.952619 0.028450 0.035045
0.961667 0.028486 0.034780
0.969043 0.028522 0.034518
0.025709 0.033938 0.043297
0.031876 0.033981 0.042973
0.039463 0.034024 0.042651
0.048764 0.034067 0.042332
0.060121 0.034110 0.042015
0.073916 0.034153 0.041700
0.090572 0.034197 0.041388
0.110534 0.034240 0.041077
0.134245 0.034283 0.040769
0.162116 0.034326 0.040464
0.194473 0.034370 0.040160
0.231505 0.034413 0.039858
0.273196 0.034457 0.039559
0.319276 0.034500 0.039262
0.369180 0.034544 0.038967
0.422048 0.034588 0.038674
0.476766 0.034631 0.038383
0.532047 0.034675 0.038095
0.586552 0.034719 0.037808
0.639016 0.034763 0.037524
0.688360 0.034807 0.037241
0.733769 0.034851 0.036961
0.774726 0.034895 0.036683
0.811006 0.034939 0.036406
0.842630 0.034983 0.036132
0.869811 0.035027 0.035860
0.892895 0.035071 0.035589
0.912298 0.035116 0.035321
0.928468 0.035160 0.035054
0.941847 0.035204 0.034790
0.952850 0.035249 0.034527
0.961856 0.035293 0.034266
0.969197 0.035338 0.034008
0.025838 0.041993 0.042663
0.032035 0.042045 0.042344
0.039658 0.042098 0.042027
0.049003 0.042151 0.041712
0.060412 0.042204 0.041399
0.074269 0.042256 0.041089
0.090996 0.042309 0.040781
0.111040 0.042362 0.040475
0.134843 0.042416 0.040171
0.162815 0.042469 0.039870
0.195279 0.042522 0.039570
0.232420 0.042575 0.039273
0.274217 0.042629 0.038978
0.320393 0.042682 0.038685
0.370377 0.042735 0.038394
0.423302 0.042789 0.038105
0.478047 0.042843 0.037819
0.533325 0.042896 0.037534
0.587797 0.042950 0.037252
0.640200 0.043004 0.036971
0.689460 0.043058 0.036693
0.734771 0.043112 0.036416
0.775621 0.043166 0.036142
0.811792 0.043220 0.035870
0.843310 0.043274 0.035599
0.870392 0.043328 0.035331
0.893385 0.043382 0.035064
0.912708 0.043437 0.034799
0.928808 0.043491 0.034537
0.942127 0.043545 0.034276
0.953080 0.043600 0.034017
0.962044 0.043655 0.033760
0.969350 0.043709 0.033505
0.025968 0.051856 0.042038
0.032195 0.051920 0.041723
0.039854 0.051984 0.041411
0.049243 0.052049 0.041100
0.060704 0.052113 0.040792
0.074622 0.052178 0.040486
0.091422 0.052243 0.040182
0.111548 0.052308 0.039881
0.135444 0.052372 0.039581
0.163516 0.052437 0.039284
0.196088 0.052502 0.038989
0.233337 0.052568 0.038696
0.275240 0.052633 0.038405
0.321512 0.052698 0.038116
0.371576 0.052763 0.037829
0.424556 0.052829 0.037545
0.479329 0.052894 0.037262
0.534603 0.052960 0.036981
0.589041 0.053025 0.036703
0.641382 0.053091 0.036426
0.690559 0.053157 0.036152
0.735770 0.053223 0.035880
0.776514 0.053289 0.035609
0.812575 0.053355 0.035340
0.843987 0.053421 0.035074
0.870970 0.053487 0.034809
0.893873 0.053553 0.034546
0.913117 0.053620 0.034286
0.929147 0.053686 0.034027
0.942407 0.053753 0.033770
0.953309 0.053819 0.033514
0.962231 0.053886 0.033261
0.969502 0.053953 0.033010
0.026098 0.063881 0.041422
0.032355 0.063959 0.041112
0.040051 0.064037 0.040803
0.049484 0.064116 0.040497
0.060997 0.064194 0.040193
0.074978 0.064273 0.039892
0.091850 0.064352 0.039592
0.112058 0.064430 0.039295
0.136046 0.064509 0.039000
0.164220 0.064588 0.038706
0.196899 0.064667 0.038415
0.234257 0.064746 0.038127
0.276266 0.064826 0.037840
0.322634 0.064905 0.037555
0.372776 0.064985 0.037272
0.425811 0.065064 0.036992
0.480611 0.065144 0.036713
0.535881 0.065223 0.036437
0.590284 0.065303 0.036162
0.642563 0.065383 0.035889
0.691655 0.065463 0.035619
0.736768 0.065543 0.035350
0.777404 0.065623 0.035084
0.813356 0.065704 0.034819
0.844662 0.065784 0.034556
0.871546 0.065864 0.034295
0.894360 0.065945 0.034036
0.913523 0.066025 0.033779
0.929485 0.066106 0.033524
0.942685 0.066187 0.033270
0.953537 0.066268 0.033019
0.962417 0.066349 0.032769
0.969654 0.066430 0.032521
0.026229 0.078463 0.040815
0.032516 0.078558 0.040508
0.040249 0.078653 0.040205
0.049726 0.078748 0.039903
0.061292 0.078843 0.039603
0.075335 0.078938 0.039306
0.092279 0.079033 0.039010
0.112570 0.079128 0.038717
0.136651 0.079223 0.038426
0.164926 0.079319 0.038137
0.197712 0.079415 0.037850
0.235180 0.079510 0.037565
0.277294 0.079606 0.037283
0.323757 0.079702 0.037002
0.373977 0.079798 0.036723
0.427068 0.079894 0.036447
0.481893 0.079990 0.036172
0.537158 0.080087 0.035899
0.591525 0.080183 0.035629
0.643741 0.080280 0.035360
0.692750 0.080376 0.035093
0.737763 0.080473 0.034829
0.778292 0.080570 0.034566
0.814135 0.080667 0.034305
0.845335 0.080764 0.034046
0.872120 0.080861 0.033788
0.894844 0.080958 0.033533
0.913928 0.081056 0.033280
0.929821 0.081153 0.033028
0.942962 0.081251 0.032778
0.953764 0.081348 0.032530
0.962602 0.081446 0.032284
0.969804 0.081544 0.032040
0.026360 0.096034 0.040216
0.032678 0.096147 0.039914
0.040448 0.096261 0.039614
0.049969 0.096375 0.039317
0.061588 0.096489 0.039021
0.075694 0.096603 0.038728
0.092710 0.096717 0.038437
0.113084 0.096832 0.038148
0.137258 0.096946 0.037861
0.165635 0.097061 0.037576
0.198528 0.097175 0.037293
0.236105 0.097290 0.037012
0.278325 0.097405 0.036734
0.324883 0.097520 0.036457
0.375181 0.097635 0.036182
0.428325 0.097751 0.035909
0.483176 0.097866 0.035639
0.538435 0.097982 0.035370
0.592766 0.098097 0.035103
0.644918 0.098213 0.034838
0.693842 0.098329 0.034575
0.738755 0.098445 0.034314
0.779177 0.098561 0.034055
0.814911 0.098678 0.033798
0.846005 0.098794 0.033543
0.872692 0.098911 0.033289
0.895326 0.099027 0.033037
0.914331 0.099144 0.032788
0.930155 0.099261 0.032540
0.943237 0.099378 0.032293
0.953990 0.099495 0.032049
0.962787 0.099612 0.031806
0.969955 0.099730 0.031566
0.026492 0.117039 0.039625
0.032841 0.117174 0.039327
0.040648 0.117310 0.039032
0.050214 0.117445 0.038739
0.061886 0.117581 0.038447
0.076054 0.117717 0.038158
0.093143 0.117853 0.037871
0.113600 0.117989 0.037586
0.137867 0.118125 0.037303
0.166346 0.118261 0.037023
0.199347 0.118398 0.036744
0.237033 0.118534 0.036467
0.279357 0.118671 0.036192
0.326010 0.118808 0.035919
0.376385 0.118945 0.035649
0.429583 0.119082 0.035380
0.484458 0.119219 0.035113
0.539711 0.119357 0.034848
0.594005 0.119494 0.034585
0.646094 0.119632 0.034324
0.694932 0.119770 0.034065
0.739745 0.119908 0.033807
0.780059 0.120046 0.033552
0.815684 0.120184 0.033298
0.846673 0.120323 0.033047
0.873262 0.120461 0.032797
0.895807 0.120600 0.032549
0.914733 0.120739 0.032302
0.930488 0.120878 0.032058
0.943512 0.121017 0.031815
0.954215 0.121156 0.031574
0.962970 0.121295 0.031335
0.970104 0.121435 0.031098
0.026625 0.141917 0.039043
0.033005 0.142077 0.038749
0.040849 0.142236 0.038458
0.050459 0.142396 0.038169
0.062185 0.142556 0.037882
0.076415 0.142716 0.037597
0.093578 0.142876 0.037314
0.114118 0.143036 0.037033
0.138479 0.143197 0.036754
0.167059 0.143357 0.036477
0.200168 0.143518 0.036202
0.237963 0.143679 0.035929
0.280393 0.143840 0.035659
0.327140 0.144001 0.035390
0.377592 0.144162 0.035123
0.430842 0.144324 0.034858
0.485741 0.144485 0.034595
0.540987 0.144647 0.034333
0.595243 0.144809 0.034074
0.647267 0.144971 0.033817
0.696020 0.145133 0.033561
0.740733 0.145296 0.033308
0.780939 0.145458 0.033056
0.816455 0.145621 0.032806
0.847339 0.145784 0.032558
0.873829 0.145947 0.032311
0.896285 0.146110 0.032067
0.915133 0.146273 0.031824
0.930819 0.146437 0.031583
0.943785 0.146600 0.031344
0.954439 0.146764 0.031107
0.963153 0.146928 0.030871
0.970252 0.147092 0.030637
0.026759 0.171060 0.038469
0.033169 0.171245 0.038180
0.041050 0.171431 0.037892
0.050706 0.171617 0.037607
0.062485 0.171803 0.037324
0.076779 0.171989 0.037043
0.094014 0.172175 0.036764
0.114639 0.172362 0.036487
0.139093 0.172549 0.036212
0.167775 0.172735 0.035939
0.200991 0.172922 0.035669
0.238895 0.173110 0.035400
0.281430 0.173297 0.035133
0.328272 0.173484 0.034867
0.378800 0.173672 0.034604
0.432102 0.173860 0.034343
0.487024 0.174048 0.034084
0.542262 0.174236 0.033826
0.596480 0.174424 0.033571
0.648439 0.174613 0.033317
0.697105 0.174801 0.033065
0.741718 0.174990 0.032815
0.781817 0.175179 0.032567
0.817224 0.175368 0.032320
0.848002 0.175557 0.032076
0.874394 0.175747 0.031833
0.896762 0.175936 0.031592
0.915531 0.176126 0.031353
0.931149 0.176316 0.031115
0.944057 0.176506 0.030880
0.954662 0.176696 0.030646
0.963335 0.176887 0.030413
0.970400 0.177077 0.030183
0.026893 0.204758 0.037903
0.033334 0.204971 0.037618
0.041253 0.205184 0.037335
0.050954 0.205398 0.037054
0.062786 0.205611 0.036775
0.077144 0.205825 0.036498
0.094453 0.206039 0.036222
0.115161 0.206253 0.035949
0.139709 0.206467 0.035678
0.168494 0.206682 0.035409
0.201817 0.206896 0.035142
0.239831 0.207111 0.034877
0.282470 0.207326 0.034614
0.329405 0.207541 0.034353
0.380009 0.207756 0.034093
0.433363 0.207971 0.033836
0.488308 0.208187 0.033580
0.543537 0.208403 0.033326
0.597715 0.208619 0.033074
0.649609 0.208835 0.032824
0.698189 0.209051 0.032576
0.742701 0.209267 0.032330
0.782691 0.209484 0.032085
0.817990 0.209700 0.031842
0.848663 0.209917 0.031601
0.874957 0.210134 0.031362
0.897236 0.210352 0.031124
0.915927 0.210569 0.030888
0.931478 0.210786 0.030654
0.944327 0.211004 0.030422
0.954884 0.211222 0.030191
0.963516 0.211440 0.029962
0.970548 0.211658 0.029735
0.027027 0.243147 0.037345
0.033500 0.243388 0.037064
0.041457 0.243629 0.036785
0.051203 0.243870 0.036508
0.063089 0.244112 0.036233
0.077510 0.244353 0.035960
0.094893 0.244595 0.035688
0.115685 0.244836 0.035419
0.140328 0.245078 0.035152
0.169214 0.245321 0.034887
0.202646 0.245563 0.034624
0.240768 0.245805 0.034362
0.283512 0.246048 0.034103
0.330541 0.246291 0.033845
0.381220 0.246533 0.033589
0.434625 0.246777 0.033336
0.489591 0.247020 0.033084
0.544811 0.247263 0.032833
0.598950 0.247507 0.032585
0.650777 0.247750 0.032339
0.699270 0.247994 0.032094
0.743681 0.248238 0.031851
0.783564 0.248483 0.031610
0.818753 0.248727 0.031370
0.849321 0.248971 0.031133
0.875518 0.249216 0.030897
0.897709 0.249461 0.030663
0.916322 0.249706 0.030430
0.931805 0.249951 0.030200
0.944597 0.250196 0.029971
0.955105 0.250442 0.029743
0.963696 0.250688 0.029518
0.970703 0.250913 0.029303
0.027163 0.286145 0.036795
0.033667 0.286412 0.036518
0.041661 0.286679 0.036243
0.051453 0.286947 0.035970
0.063394 0.287215 0.035698
0.077878 0.287483 0.035429
0.095335 0.287751 0.035162
0.116212 0.288019 0.034897
0.140948 0.288287 0.034633
0.169938 0.288556 0.034372
0.203477 0.288824 0.034112
0.241708 0.289093 0.033855
0.284557 0.289362 0.033599
0.331678 0.289631 0.033345
0.382432 0.289900 0.033093
0.435887 0.290170 0.032843
0.490875 0.290439 0.032594
0.546084 0.290709 0.032348
0.600183 0.290979 0.032103
0.651944 0.291248 0.031860
0.700349 0.291519 0.031619
0.744659 0.291789 0.031379
0.784434 0.292059 0.031141
0.819514 0.292330 0.030906
0.849978 0.292600 0.030671
0.876077 0.292871 0.030439
0.898179 0.293142 0.030208
0.916715 0.293413 0.029979
0.932131 0.293685 0.029752
0.944865 0.293956 0.029526
0.955332 0.294215 0.029307
0.964018 0.294215 0.029196
0.971066 0.294215 0.029085
0.027299 0.333396 0.036253
0.033834 0.333687 0.035980
0.041867 0.333978 0.035708
0.051704 0.334269 0.035439
0.063699 0.334560 0.035172
0.078248 0.334851 0.034906
0.095779 0.335143 0.034643
0.116741 0.335434 0.034381
0.141571 0.335726 0.034122
0.170663 0.336018 0.033864
0.204311 0.336310 0.033608
0.242651 0.336602 0.033354
0.285603 0.336894 0.033102
0.332818 0.337186 0.032852
0.383646 0.337479 0.032603
0.437150 0.337771 0.032357
0.492158 0.338064 0.032112
0.547357 0.338357 0.031869
0.601415 0.338650 0.031627
0.653108 0.338943 0.031388
0.701426 0.339236 0.031150
0.745634 0.339529 0.030914
0.785301 0.339822 0.030680
0.820273 0.340116 0.030447
0.850631 0.340410 0.030217
0.876633 0.340703 0.029987
0.898648 0.340997 0.029760
0.917106 0.341291 0.029534
0.932457 0.341582 0.029311
0.945337 0.341582 0.029200
0.955877 0.341582 0.029089
0.964461 0.341582 0.028978
0.971425 0.341582 0.028868
0.027436 0.384250 0.035718
0.034003 0.384560 0.035449
0.042073 0.384870 0.035181
0.051956 0.385179 0.034916
0.064006 0.385489 0.034653
0.078619 0.385799 0.034391
0.096225 0.386109 0.034131
0.117271 0.386419 0.033873
0.142197 0.386729 0.033618
0.171392 0.387040 0.033363
0.205147 0.387350 0.033111
0.243596 0.387661 0.032861
0.286653 0.387971 0.032612
0.333959 0.388282 0.032366
0.384861 0.388592 0.032121
0.438415 0.388903 0.031878
0.493442 0.389214 0.031636
0.548629 0.389525 0.031397
0.602645 0.389836 0.031159
0.654271 0.390148 0.030923
0.702500 0.390459 0.030689
0.746607 0.390770 0.030456
0.786166 0.391082 0.030225
0.821029 0.391393 0.029996
0.851283 0.391705 0.029768
0.877188 0.392017 0.029542
0.899115 0.392328 0.029318
0.917784 0.392337 0.029204
0.933262 0.392337 0.029093
0.945997 0.392337 0.028982
0.956415 0.392337 0.028872
0.964898 0.392337 0.028762
0.971779 0.392337 0.028653
0.027573 0.437767 0.035191
0.034172 0.438089 0.034926
0.042281 0.438411 0.034662
0.052210 0.438733 0.034401
0.064315 0.439056 0.034141
0.078992 0.439378 0.033883
0.096672 0.439700 0.033627
0.117804 0.440022 0.033373
0.142824 0.440345 0.033121
0.172122 0.440667 0.032870
0.205986 0.440990 0.032621
0.244544 0.441312 0.032375
0.287704 0.441635 0.032130
0.335103 0.441957 0.031887
0.386078 0.442280 0.031645
0.439680 0.442603 0.031406
0.494726 0.442925 0.031168
0.549901 0.443248 0.030932
0.603875 0.443571 0.030697
0.655432 0.443894 0.030464
0.703573 0.444217 0.030233
0.747578 0.444540 0.030004
0.787028 0.444863 0.029777
0.821782 0.445186 0.029551
0.851932 0.445509 0.029326
0.878134 0.445530 0.029208
0.900264 0.445530 0.029097
0.918748 0.445530 0.028986
0.934057 0.445530 0.028876
0.946649 0.445530 0.028766
0.956947 0.445530 0.028657
0.965331 0.445530 0.028548
0.972129 0.445530 0.028439
0.027711 0.492773 0.034672
0.034342 0.493100 0.034410
0.042489 0.493427 0.034150
0.052465 0.493754 0.033892
0.064624 0.494081 0.033636
0.079366 0.494408 0.033382
0.097122 0.494735 0.033130
0.118339 0.495062 0.032879
0.143454 0.495389 0.032631
0.172855 0.495716 0.032384
0.206827 0.496043 0.032139
0.245494 0.496370 0.031895
0.288758 0.496697 0.031654
0.336248 0.497024 0.031414
0.387296 0.497351 0.031176
0.440945 0.497678 0.030940
0.496010 0.498005 0.030706
0.551172 0.498332 0.030473
0.605103 0.498659 0.030242
0.656591 0.498986 0.030013
0.704643 0.499313 0.029785
0.748546 0.499640 0.029559
0.787887 0.499967 0.029335
0.823048 0.500000 0.029212
0.853513 0.500000 0.029101
0.879501 0.500000 0.028990
0.901411 0.500000 0.028880
0.919701 0.500000 0.028770
0.934844 0.500000 0.028661
0.947294 0.500000 0.028552
0.957473 0.500000 0.028443
0.965758 0.500000 0.028335
0.972475 0.500000 0.028227
0.027850 0.547954 0.034160
0.034512 0.548278 0.033902
0.042699 0.548602 0.033646
0.052721 0.548926 0.033391
0.064936 0.549250 0.033139
0.079742 0.549574 0.032888
0.097573 0.549898 0.032640
0.118876 0.550221 0.032393
0.144087 0.550545 0.032148
0.173591 0.550869 0.031904
0.207671 0.551192 0.031663
0.246447 0.551516 0.031423
0.289814 0.551839 0.031185
0.337395 0.552163 0.030949
0.388516 0.552486 0.030714
0.442212 0.552810 0.030481
0.497294 0.553133 0.030250
0.552442 0.553456 0.030021
0.606329 0.553780 0.029793
0.657748 0.554103 0.029567
0.705711 0.554426 0.029343
0.750146 0.554470 0.029216
0.789960 0.554470 0.029105
0.824910 0.554470 0.028994
0.855111 0.554470 0.028884
0.880855 0.554470 0.028774
0.902547 0.554470 0.028665
0.920645 0.554470 0.028556
0.935621 0.554470 0.028447
0.947931 0.554470 0.028339
0.957993 0.554470 0.028231
0.966180 0.554470 0.028123
0.972817 0.554470 0.028016
0.027989 0.601981 0.033655
0.034684 0.602294 0.033401
0.042909 0.602608 0.033148
0.052978 0.602921 0.032898
0.065248 0.603234 0.032649
0.080120 0.603547 0.032402
0.098026 0.603860 0.032157
0.119415 0.604173 0.031913
0.144721 0.604486 0.031672
0.174329 0.604798 0.031432
0.208517 0.605111 0.031194
0.247402 0.605424 0.030957
0.290872 0.605736 0.030723
0.338545 0.606048 0.030490
0.389736 0.606361 0.030259
0.443479 0.606673 0.030029
0.498578 0.606985 0.029802
0.553712 0.607297 0.029576
0.607555 0.607609 0.029351
0.659632 0.607663 0.029220
0.708259 0.607663 0.029109
0.752545 0.607663 0.028998
0.792083 0.607663 0.028888
0.826757 0.607663 0.028778
0.856695 0.607663 0.028669
0.882197 0.607663 0.028560
0.903670 0.607663 0.028451
0.921578 0.607663 0.028343
0.936390 0.607663 0.028235
0.948561 0.607663 0.028127
0.958507 0.607663 0.028020
0.966597 0.607663 0.027913
0.973154 0.607663 0.027807
0.028129 0.653632 0.033158
0.034856 0.653928 0.032907
0.043121 0.654224 0.032658
0.053236 0.654520 0.032411
0.065562 0.654816 0.032166
0.080499 0.655112 0.031922
0.098481 0.655407 0.031681
0.119956 0.655703 0.031441
0.145358 0.655998 0.031203
0.175070 0.656293 0.030966
0.209366 0.656588 0.030731
0.248359 0.656883 0.030499
0.291933 0.657178 0.030267
0.339696 0.657472 0.030038
0.390959 0.657767 0.029810
0.444747 0.658061 0.029584
0.499862 0.658356 0.029359
0.555745 0.658418 0.029224
0.610450 0.658418 0.029113
0.662509 0.658418 0.029002
0.710905 0.658418 0.028892
0.754929 0.658418 0.028782
0.794189 0.658418 0.028673
0.828588 0.658418 0.028564
0.858264 0.658418 0.028455
0.883524 0.658418 0.028347
0.904782 0.658418 0.028239
0.922501 0.658418 0.028131
0.937151 0.658418 0.028024
0.949184 0.658418 0.027917
0.959015 0.658418 0.027811
0.967009 0.658418 0.027705
0.973488 0.658418 0.027600
0.028270 0.701900 0.032667
0.035029 0.702174 0.032420
0.043333 0.702447 0.032175
0.053496 0.702721 0.031931
0.065878 0.702994 0.031689
0.080880 0.703267 0.031449
0.098938 0.703540 0.031211
0.120499 0.703813 0.030975
0.145997 0.704085 0.030740
0.175813 0.704358 0.030507
0.210218 0.704630 0.030276
0.249319 0.704902 0.030046
0.292995 0.705174 0.029818
0.340849 0.705446 0.029592
0.392182 0.705718 0.029368
0.446746 0.705785 0.029228
0.502866 0.705785 0.029117
0.558913 0.705785 0.029006
0.613499 0.705785 0.028896
0.665374 0.705785 0.028786
0.713537 0.705785 0.028677
0.757297 0.705785 0.028568
0.796280 0.705785 0.028459
0.830405 0.705785 0.028351
0.859819 0.705785 0.028243
0.884839 0.705785 0.028135
0.905883 0.705785 0.028028
0.923414 0.705785 0.027921
0.937903 0.705785 0.027815
0.949800 0.705785 0.027709
0.959516 0.705785 0.027604
0.967416 0.705785 0.027498
0.973817 0.705785 0.027394
0.028411 0.746055 0.032184
0.035203 0.746303 0.031940
0.043546 0.746550 0.031698
0.053756 0.746798 0.031458
0.066194 0.747045 0.031220
0.081263 0.747292 0.030983
0.099397 0.747539 0.030749
0.121045 0.747786 0.030516
0.146639 0.748032 0.030284
0.176558 0.748279 0.030055
0.211072 0.748525 0.029827
0.250282 0.748771 0.029600
0.294061 0.749017 0.029376
0.342636 0.749087 0.029232
0.395015 0.749087 0.029121
0.449922 0.749087 0.029011
0.506075 0.749087 0.028900
0.562077 0.749087 0.028790
0.616539 0.749087 0.028681
0.668227 0.749087 0.028572
0.716154 0.749087 0.028463
0.759649 0.749087 0.028355
0.798355 0.749087 0.028247
0.832205 0.749087 0.028139
0.861360 0.749087 0.028032
0.886141 0.749087 0.027925
0.906972 0.749087 0.027819
0.924317 0.749087 0.027713
0.938647 0.749087 0.027607
0.950409 0.749087 0.027502
0.960012 0.749087 0.027398
0.967819 0.749087 0.027293
0.974142 0.749087 0.027189
0.028554 0.785666 0.031707
0.035378 0.785887 0.031467
0.043761 0.786107 0.031229
0.054018 0.786327 0.030992
0.066513 0.786546 0.030757
0.081647 0.786766 0.030524
0.099858 0.786985 0.030293
0.121592 0.787204 0.030063
0.147283 0.787423 0.029835
0.177306 0.787642 0.029609
0.211928 0.787861 0.029384
0.251748 0.787931 0.029237
0.296500 0.787931 0.029125
0.345534 0.787931 0.029015
0.398088 0.787931 0.028904
0.453102 0.787931 0.028794
0.509285 0.787931 0.028685
0.565235 0.787931 0.028576
0.619570 0.787931 0.028467
0.671067 0.787931 0.028359
0.718757 0.787931 0.028251
0.761986 0.787931 0.028143
0.800415 0.787931 0.028036
0.833991 0.787931 0.027929
0.862886 0.787931 0.027823
0.887430 0.787931 0.027717
0.908050 0.787931 0.027611
0.925210 0.787931 0.027506
0.939382 0.787931 0.027401
0.951011 0.787931 0.027297
0.960502 0.787931 0.027193
0.968216 0.787931 0.027089
0.974464 0.787931 0.026986
0.028696 0.820585 0.031237
0.035554 0.820778 0.031001
0.043976 0.820970 0.030766
0.054281 0.821162 0.030533
0.066832 0.821354 0.030301
0.082033 0.821546 0.030071
0.100320 0.821738 0.029843
0.122142 0.821929 0.029617
0.147929 0.822121 0.029392
0.178426 0.822189 0.029241
0.213869 0.822189 0.029129
0.254175 0.822189 0.029019
0.299186 0.822189 0.028908
0.348444 0.822189 0.028798
0.401169 0.822189 0.028689
0.456285 0.822189 0.028580
0.512493 0.822189 0.028471
0.568387 0.822189 0.028362
0.622592 0.822189 0.028255
0.673895 0.822189 0.028147
0.721346 0.822189 0.028040
0.764307 0.822189 0.027933
0.802458 0.822189 0.027827
0.835761 0.822189 0.027721
0.864398 0.822189 0.027615
0.888707 0.822189 0.027510
0.909116 0.822189 0.027405
0.926094 0.822189 0.027301
0.940109 0.822189 0.027197
0.951605 0.822189 0.027093
0.960987 0.822189 0.026990
0.968609 0.822189 0.026887
0.974781 0.822189 0.026785
0.028840 0.850895 0.030775
0.035731 0.851061 0.030541
0.044193 0.851226 0.030310
0.054545 0.851392 0.030080
0.067153 0.851557 0.029852
0.082421 0.851723 0.029625
0.100785 0.851888 0.029400
0.122950 0.851953 0.029245
0.149376 0.851953 0.029134
0.180316 0.851953 0.029023
0.216036 0.851953 0.028912
0.256617 0.851953 0.028802
0.301885 0.851953 0.028693
0.351364 0.851953 0.028584
0.404258 0.851953 0.028475
0.459473 0.851953 0.028366
0.515701 0.851953 0.028259
0.571535 0.851953 0.028151
0.625605 0.851953 0.028044
0.676711 0.851953 0.027937
0.723919 0.851953 0.027831
0.766612 0.851953 0.027725
0.804486 0.851953 0.027619
0.837516 0.851953 0.027514
0.865896 0.851953 0.027409
0.889971 0.851953 0.027305
0.910172 0.851953 0.027201
0.926968 0.851953 0.027097
0.940828 0.851953 0.026994
0.952193 0.851953 0.026891
0.961465 0.851953 0.026788
0.968997 0.851953 0.026686
0.975095 0.851953 0.026584
0.028984 0.876852 0.030318
0.035908 0.876993 0.030088
0.044410 0.877134 0.029860
0.054811 0.877275 0.029634
0.067476 0.877416 0.029409
0.082980 0.877477 0.029249
0.101813 0.877477 0.029138
0.124341 0.877477 0.029027
0.151015 0.877477 0.028916
0.182221 0.877477 0.028806
0.218219 0.877477 0.028697
0.259074 0.877477 0.028588
0.304598 0.877477 0.028479
0.354297 0.877477 0.028370
0.407354 0.877477 0.028262
0.462663 0.877477 0.028155
0.518907 0.877477 0.028048
0.574676 0.877477 0.027941
0.628607 0.877477 0.027835
0.679514 0.877477 0.027729
0.726478 0.877477 0.027623
0.768901 0.877477 0.027518
0.806497 0.877477 0.027413
0.839256 0.877477 0.027308
0.867380 0.877477 0.027204
0.891222 0.877477 0.027101
0.911216 0.877477 0.026997
0.927833 0.877477 0.026895
0.941539 0.877477 0.026792
0.952774 0.877477 0.026690
0.961938 0.877477 0.026588
0.969381 0.877477 0.026487
0.975405 0.877477 0.026386
0.029129 0.898828 0.029868
0.036086 0.898947 0.029642
0.044629 0.899066 0.029417
0.055186 0.899121 0.029253
0.068180 0.899121 0.029142
0.083962 0.899121 0.029031
0.102993 0.899121 0.028920
0.125746 0.899121 0.028810
0.152669 0.899121 0.028701
0.184143 0.899121 0.028592
0.220417 0.899121 0.028483
0.261546 0.899121 0.028374
0.307325 0.899121 0.028266
0.357240 0.899121 0.028159
0.410457 0.899121 0.028052
0.465857 0.899121 0.027945
0.522112 0.899121 0.027838
0.577812 0.899121 0.027732
0.631600 0.899121 0.027627
0.682304 0.899121 0.027522
0.729022 0.899121 0.027417
0.771175 0.899121 0.027312
0.808493 0.899121 0.027208
0.840980 0.899121 0.027105
0.868850 0.899121 0.027001
0.892460 0.899121 0.026898
0.912249 0.899121 0.026796
0.928688 0.899121 0.026694
0.942242 0.899121 0.026592
