presets/luts/moody_desaturated.cube
TITLE "Moody Desaturated"
LUT_3D_SIZE 9
0.022754 0.022754 0.022754
0.037335 0.022754 0.022754
0.075888 0.022754 0.022754
0.148129 0.022983 0.023165
0.269111 0.024933 0.025196
0.438088 0.027043 0.027400
0.622762 0.029327 0.029790
0.777560 0.031798 0.032383
0.880978 0.034469 0.035192
0.022754 0.039725 0.022754
0.043835 0.043033 0.023094
0.088485 0.046602 0.025118
0.170504 0.050452 0.027315
0.303255 0.054602 0.029699
0.479604 0.059071 0.032283
0.661186 0.063882 0.035085
0.805150 0.069056 0.038120
0.897432 0.074616 0.041406
0.024955 0.085454 0.025041
0.051408 0.092203 0.027231
0.102940 0.099427 0.029608
0.195484 0.107150 0.032185
0.339718 0.115396 0.034978
0.521403 0.124189 0.038004
0.697597 0.133550 0.041280
0.830066 0.143502 0.044826
0.911840 0.154063 0.048661
0.029366 0.174267 0.029517
0.060205 0.186599 0.032086
0.119446 0.199593 0.034871
0.223138 0.213255 0.037888
0.378186 0.227585 0.041155
0.562905 0.242582 0.044691
0.731682 0.258236 0.048515
0.852380 0.274535 0.052648
0.924394 0.291458 0.057112
0.034529 0.322806 0.034764
0.070397 0.341304 0.037773
0.138192 0.360299 0.041030
0.253473 0.379742 0.044556
0.418250 0.399578 0.048369
0.603544 0.419749 0.052490
0.763230 0.440192 0.056941
0.872215 0.460840 0.061746
0.935288 0.481623 0.066927
0.040562 0.518458 0.040906
0.082163 0.539241 0.044421
0.159347 0.559888 0.048223
0.286411 0.580330 0.052333
0.459423 0.600500 0.056772
0.642803 0.620335 0.061563
0.792122 0.639776 0.066729
0.889729 0.658769 0.072297
0.944705 0.677265 0.078289
0.047596 0.708609 0.048078
0.095694 0.725530 0.052176
0.183053 0.741826 0.056602
0.321784 0.757478 0.061380
0.501157 0.772472 0.066532
0.680233 0.786800 0.072084
0.818328 0.800459 0.078061
0.905105 0.813450 0.084488
0.952822 0.825779 0.091391
0.055780 0.845980 0.056433
0.111182 0.856538 0.061198
0.209407 0.866488 0.066336
0.359326 0.875847 0.071873
0.542876 0.884637 0.077833
0.715478 0.892881 0.084243
0.841890 0.900602 0.091128
0.918532 0.907825 0.098516
0.959797 0.914572 0.106432
0.065275 0.925407 0.066140
0.128821 0.930965 0.071662
0.238447 0.936137 0.077606
0.398674 0.940947 0.083999
0.584001 0.945415 0.090866
0.748275 0.949564 0.098235
0.862907 0.953412 0.106131
0.930206 0.956981 0.114582
0.965778 0.960287 0.123613
0.022754 0.022754 0.035737
0.038520 0.022754 0.038826
0.078198 0.022754 0.042171
0.152275 0.023708 0.045789
0.275549 0.025718 0.049702
0.446101 0.027893 0.053931
0.630364 0.030246 0.058497
0.783129 0.032791 0.063424
0.884342 0.035543 0.068736
0.022754 0.040957 0.042043
0.045217 0.044362 0.045651
0.091141 0.048036 0.049553
0.175148 0.051998 0.053770
0.310164 0.056267 0.058323
0.487717 0.060864 0.063236
0.668426 0.065811 0.068533
0.810197 0.071129 0.074239
0.900385 0.076842 0.080378
0.025758 0.087972 0.049404
0.053015 0.094900 0.053609
0.105979 0.102311 0.058149
0.200644 0.110231 0.063049
0.347044 0.118683 0.068331
0.529504 0.127690 0.074021
0.704406 0.137274 0.080145
0.834600 0.147455 0.086727
0.914417 0.158254 0.093794
0.030306 0.178892 0.057976
0.062070 0.191475 0.062862
0.122906 0.204723 0.068130
0.228821 0.218640 0.073805
0.385856 0.233225 0.079911
0.570882 0.248474 0.086476
0.738013 0.264376 0.093526
0.856421 0.280915 0.101086
0.926634 0.298070 0.109184
0.035629 0.329797 0.067929
0.072553 0.348491 0.073588
0.142107 0.367662 0.079679
0.259670 0.387261 0.086226
0.426176 0.407232 0.093257
0.611292 0.427515 0.100798
0.769051 0.448044 0.108876
0.875792 0.468752 0.117517
0.937226 0.489568 0.126745
0.041845 0.526393 0.079447
0.084647 0.547133 0.085977
0.163747 0.567710 0.092990
0.293097 0.588056 0.100512
0.467502 0.608105 0.108569
0.650228 0.627797 0.117188
0.797421 0.647073 0.126395
0.892877 0.665882 0.136213
0.946378 0.684178 0.146666
0.049091 0.715133 0.092723
0.098542 0.731818 0.100226
0.187962 0.747870 0.108263
0.328915 0.763273 0.116861
0.509279 0.778014 0.126046
0.687259 0.792087 0.135841
0.823108 0.805490 0.146270
0.907859 0.818228 0.157354
0.954261 0.830308 0.169112
0.057517 0.850079 0.107958
0.114434 0.860403 0.116535
0.214836 0.870124 0.125697
0.366839 0.879264 0.135470
0.550927 0.887844 0.145875
0.722045 0.895886 0.156935
0.846166 0.903414 0.168667
0.920931 0.910452 0.181088
0.961032 0.917024 0.194210
0.067286 0.927573 0.125349
0.132511 0.932981 0.135099
0.244397 0.938013 0.145481
0.406488 0.942689 0.156516
0.591872 0.947033 0.168223
0.754346 0.951065 0.180619
0.866706 0.954805 0.193715
0.932287 0.958271 0.207521
0.966836 0.961482 0.222039
0.022754 0.022754 0.069763
0.039742 0.022754 0.075563
0.080573 0.022754 0.081802
0.156517 0.024456 0.088507
0.282082 0.026527 0.095705
0.454143 0.028769 0.103421
0.637902 0.031193 0.111683
0.788596 0.033815 0.120516
0.887624 0.036649 0.129946
0.022754 0.042224 0.081564
0.046641 0.045730 0.088252
0.093868 0.049511 0.095431
0.179892 0.053588 0.103128
0.317158 0.057980 0.111369
0.495838 0.062708 0.120181
0.675587 0.067793 0.129588
0.815143 0.073259 0.139614
0.903261 0.079129 0.150283
0.026586 0.090558 0.095158
0.054670 0.097667 0.102835
0.109097 0.105269 0.111056
0.205906 0.113389 0.119846
0.354442 0.122050 0.129231
0.537590 0.131274 0.139234
0.711126 0.141084 0.149879
0.839036 0.151499 0.161185
0.916926 0.162537 0.173170
0.031276 0.183611 0.110744
0.063989 0.196447 0.119512
0.126451 0.209950 0.128875
0.234605 0.224122 0.138855
0.393583 0.238961 0.149476
0.578822 0.254460 0.160757
0.744246 0.270607 0.172716
0.860370 0.287384 0.185369
0.928812 0.304767 0.198727
0.036762 0.336865 0.128520
0.074770 0.355746 0.138477
0.146114 0.375087 0.149073
0.265964 0.394835 0.160330
0.434140 0.414932 0.172264
0.618983 0.435317 0.184892
0.774771 0.455922 0.198223
0.879284 0.476680 0.212265
0.939111 0.497518 0.227020
0.043167 0.534315 0.148672
0.087199 0.555001 0.159904
0.168245 0.575498 0.171813
0.299874 0.595739 0.184415
0.475598 0.615659 0.197720
0.657580 0.635198 0.211735
0.802619 0.654302 0.226464
0.895945 0.672921 0.241903
0.948003 0.691010 0.258044
0.050630 0.721567 0.171363
0.101467 0.738014 0.183939
0.192971 0.753820 0.197218
0.336126 0.768972 0.211207
0.517395 0.783458 0.225910
0.694199 0.797276 0.241323
0.827789 0.810425 0.257438
0.910541 0.822911 0.274240
0.955658 0.834742 0.291708
0.059303 0.854087 0.196717
0.117768 0.864179 0.210680
0.220368 0.873677 0.225356
0.374418 0.882600 0.240743
0.558951 0.890972 0.256833
0.728519 0.898815 0.273610
0.850348 0.906154 0.291054
0.923264 0.913011 0.309136
0.962231 0.919412 0.327823
0.069354 0.929681 0.224804
0.136291 0.934943 0.240165
0.250447 0.939836 0.256229
0.414349 0.944384 0.272981
0.599696 0.948606 0.290400
0.760316 0.952524 0.308460
0.870415 0.956158 0.327125
0.934309 0.959525 0.346354
0.967862 0.962643 0.366098
0.022754 0.022754 0.131758
0.041000 0.022754 0.141925
0.083013 0.023254 0.152739
0.160854 0.025226 0.164219
0.288707 0.027361 0.176382
0.462208 0.029671 0.189242
0.645373 0.032169 0.202809
0.793962 0.034870 0.217088
0.890824 0.037789 0.232079
0.023311 0.043530 0.152329
0.048107 0.047138 0.163784
0.096668 0.051030 0.175922
0.184735 0.055224 0.188756
0.324235 0.059742 0.202297
0.503960 0.064603 0.216550
0.682667 0.069831 0.231515
0.819989 0.075448 0.247188
0.906063 0.081477 0.263559
0.027440 0.093212 0.175463
0.056374 0.100506 0.188272
0.112295 0.108303 0.201786
0.211269 0.116626 0.216013
0.361911 0.125499 0.230952
0.545656 0.134944 0.246599
0.717754 0.144982 0.262945
0.843376 0.155633 0.279970
0.919367 0.166913 0.297654
0.032275 0.188427 0.201276
0.065963 0.201517 0.215477
0.130084 0.215274 0.230390
0.240489 0.229701 0.246011
0.401364 0.244793 0.262331
0.586722 0.260541 0.279332
0.750381 0.276931 0.296992
0.864228 0.293942 0.315279
0.930931 0.311547 0.334158
0.037930 0.344007 0.229828
0.077049 0.363069 0.245424
0.150214 0.382571 0.261718
0.272355 0.402460 0.278695
0.442138 0.422674 0.296331
0.626616 0.443151 0.314596
0.780390 0.463822 0.333453
0.882690 0.484619 0.352859
0.940942 0.505469 0.372762
0.044529 0.542220 0.261107
0.089820 0.562842 0.278059
0.172841 0.583249 0.295671
0.306739 0.603375 0.313913
0.483707 0.623156 0.332749
0.664858 0.642536 0.352136
0.807716 0.661460 0.372022
0.898935 0.679882 0.392351
0.949582 0.697759 0.413060
0.052215 0.727912 0.295011
0.104467 0.744117 0.313231
0.198081 0.759675 0.332046
0.343414 0.774574 0.351413
0.525503 0.788805 0.371282
0.701053 0.802368 0.391596
0.832372 0.815264 0.412293
0.913152 0.827499 0.433304
0.957015 0.839083 0.454558
0.061142 0.858006 0.331344
0.121186 0.867869 0.350692
0.226000 0.877145 0.370543
0.382059 0.885856 0.390842
0.566944 0.894023 0.411525
0.734897 0.901671 0.432526
0.854436 0.908824 0.453772
0.925535 0.915504 0.475188
0.963394 0.921738 0.496696
0.071480 0.931732 0.369804
0.140161 0.936851 0.390088
0.256595 0.941610 0.410758
0.422255 0.946031 0.431749
0.607470 0.950135 0.452987
0.766187 0.953942 0.474398
0.874035 0.957472 0.495904
0.936275 0.960742 0.517425
0.968858 0.963770 0.538881
0.022754 0.022754 0.234931
0.042297 0.022754 0.250761
0.085520 0.023988 0.267284
0.165288 0.026020 0.284482
0.295425 0.028220 0.302331
0.470294 0.030600 0.320797
0.652773 0.033174 0.339842
0.799226 0.035956 0.359419
0.893944 0.038963 0.379475
0.024062 0.044873 0.266664
0.049617 0.048587 0.283838
0.099543 0.052592 0.301663
0.189679 0.056907 0.320107
0.331394 0.061554 0.339131
0.512080 0.066552 0.358690
0.689663 0.071926 0.378730
0.824735 0.077697 0.399192
0.908792 0.083890 0.420013
0.028320 0.095935 0.300996
0.058127 0.103418 0.319418
0.115575 0.111413 0.338422
0.216733 0.119943 0.357961
0.369447 0.129032 0.377984
0.553698 0.138701 0.398433
0.724290 0.148970 0.419241
0.847620 0.159858 0.440342
0.921743 0.171382 0.461659
0.033306 0.193339 0.337713
0.067993 0.206683 0.357233
0.133805 0.220696 0.377240
0.246473 0.235377 0.397674
0.409195 0.250721 0.418470
0.594577 0.266715 0.439561
0.756417 0.283345 0.460872
0.867995 0.300586 0.482327
0.932991 0.318410 0.503848
0.039133 0.351219 0.376496
0.079391 0.370456 0.396915
0.154409 0.390112 0.417700
0.278842 0.410132 0.438781
0.450166 0.430454 0.460085
0.634185 0.451013 0.481536
0.785907 0.471741 0.503056
0.886013 0.492566 0.524564
0.942722 0.513418 0.545982
0.045932 0.550104 0.416929
0.092511 0.570652 0.438001
0.177535 0.590959 0.459298
0.313691 0.610961 0.480746
0.491824 0.630596 0.502264
0.672058 0.649808 0.523774
0.812711 0.668546 0.545196
0.901849 0.686764 0.566453
0.951115 0.704425 0.587467
0.053846 0.734166 0.458512
0.107546 0.750126 0.479955
0.203293 0.765434 0.501472
0.350777 0.780079 0.522984
0.533597 0.794055 0.544411
0.707817 0.807363 0.565674
0.836856 0.820006 0.586699
0.915694 0.831992 0.607412
0.958332 0.843332 0.627746
0.063034 0.861837 0.500680
0.124689 0.871474 0.522193
0.231734 0.880532 0.543625
0.389758 0.889033 0.564896
0.574903 0.896999 0.585931
0.741178 0.904455 0.606657
0.858431 0.911425 0.627006
0.927743 0.917933 0.646915
0.964523 0.924002 0.666326
0.073667 0.933727 0.542839
0.144122 0.938706 0.564117
0.262842 0.943334 0.585162
0.430200 0.947632 0.605900
0.615190 0.951621 0.626264
0.771957 0.955320 0.646191
0.877569 0.958748 0.665622
0.938186 0.961924 0.684506
0.969823 0.964865 0.702801
0.022754 0.022754 0.383235
0.043633 0.022809 0.403783
0.088095 0.024744 0.424674
0.169820 0.026839 0.445837
0.302232 0.029106 0.467199
0.478395 0.031558 0.488682
0.660100 0.034209 0.510207
0.804389 0.037075 0.531693
0.896986 0.040171 0.553063
0.024837 0.046256 0.423900
0.051172 0.050079 0.445055
0.102493 0.054200 0.466411
0.194723 0.058639 0.487890
0.338632 0.063417 0.509415
0.520194 0.068556 0.530905
0.696574 0.074078 0.552280
0.829381 0.080007 0.573464
0.911450 0.086367 0.594382
0.029228 0.098729 0.465622
0.059932 0.106405 0.487099
0.118938 0.114601 0.508623
0.222300 0.123341 0.530116
0.377047 0.132649 0.551497
0.561712 0.142544 0.572689
0.730730 0.153047 0.593618
0.851769 0.164176 0.614213
0.924055 0.175946 0.634407
0.034368 0.198348 0.507831
0.070081 0.211947 0.529326
0.137616 0.226215 0.550713
0.252557 0.241149 0.571914
0.417072 0.256743 0.592854
0.602384 0.272982 0.613462
0.762353 0.289847 0.633671
0.871674 0.307315 0.653421
0.934994 0.325352 0.672656
0.040374 0.358501 0.549929
0.081799 0.377903 0.571138
0.158699 0.397705 0.592089
0.285422 0.417848 0.612710
0.458220 0.438268 0.632936
0.641690 0.458900 0.652703
0.791323 0.479673 0.671958
0.889253 0.500517 0.690652
0.944452 0.521359 0.708742
0.047377 0.557962 0.591324
0.095275 0.578426 0.611958
0.182329 0.598624 0.632199
0.320728 0.618493 0.651985
0.499946 0.637973 0.671260
0.679179 0.657010 0.689974
0.817607 0.675556 0.708087
0.904688 0.693566 0.725563
0.952603 0.711004 0.742372
0.055526 0.740327 0.631462
0.110705 0.756040 0.651266
0.208606 0.771096 0.670560
0.358212 0.785487 0.689296
0.541673 0.799208 0.707432
0.714491 0.812262 0.724931
0.841244 0.824653 0.741766
0.918169 0.836391 0.757915
0.959610 0.847488 0.773362
0.064980 0.865581 0.669860
0.128278 0.874995 0.688618
0.237569 0.883837 0.706776
0.397513 0.892132 0.724299
0.582823 0.899901 0.741159
0.747362 0.907169 0.757333
0.862333 0.913959 0.772806
0.929891 0.920297 0.787569
0.965618 0.926205 0.801620
0.075915 0.935669 0.706119
0.148177 0.940511 0.723666
0.269185 0.945011 0.740551
0.438182 0.949188 0.756750
0.622852 0.953064 0.772249
0.777626 0.956658 0.787039
0.881017 0.959988 0.801115
0.940044 0.963072 0.814481
0.970760 0.965927 0.827142
0.022754 0.022754 0.556999
0.045009 0.023528 0.578131
0.090740 0.025523 0.598980
0.174450 0.027682 0.619477
0.309128 0.030018 0.639557
0.486507 0.032545 0.659160
0.667351 0.035276 0.678233
0.809451 0.038228 0.696730
0.899949 0.041416 0.714612
0.025637 0.047680 0.598219
0.052772 0.051614 0.618730
0.105521 0.055854 0.638826
0.199868 0.060419 0.658448
0.345947 0.065332 0.677541
0.528297 0.070615 0.696061
0.703397 0.076289 0.713965
0.833930 0.082380 0.731222
0.914037 0.088910 0.747806
0.030164 0.101596 0.638095
0.061789 0.109467 0.657735
0.122385 0.117868 0.676849
0.227967 0.126822 0.695390
0.384709 0.136351 0.713318
0.569695 0.146476 0.730599
0.737075 0.157216 0.747208
0.855825 0.168588 0.763125
0.926304 0.180606 0.778337
0.035462 0.203454 0.676156
0.072228 0.217308 0.694718
0.141517 0.231831 0.712669
0.258740 0.247018 0.729975
0.424992 0.262859 0.746609
0.610140 0.279340 0.762552
0.768189 0.296438 0.777790
0.875264 0.314126 0.792316
0.936941 0.332372 0.806130
0.041651 0.365848 0.712020
0.084272 0.385409 0.729350
0.163085 0.405348 0.746009
0.292094 0.425604 0.761978
0.466296 0.446113 0.777242
0.649125 0.466807 0.791794
0.796638 0.487616 0.805634
0.892413 0.508468 0.818765
0.946132 0.529290 0.831194
0.048865 0.565792 0.745408
0.098113 0.586162 0.761402
0.187223 0.606242 0.776693
0.327847 0.625969 0.791272
0.508068 0.645287 0.805138
0.686217 0.664142 0.818294
0.822402 0.682487 0.830749
0.907453 0.700283 0.842514
0.954049 0.717495 0.853606
0.057255 0.746394 0.776143
0.113944 0.761858 0.790748
0.214020 0.776661 0.804640
0.365715 0.790797 0.817823
0.549728 0.804264 0.830303
0.721072 0.817064 0.842094
0.845535 0.829205 0.853210
0.920577 0.840697 0.863670
0.960850 0.851554 0.873495
0.066982 0.869239 0.804142
0.131955 0.878432 0.817350
0.243504 0.887063 0.829856
0.405319 0.895155 0.841672
0.590701 0.902730 0.852812
0.753447 0.909813 0.863297
0.866145 0.916428 0.873145
0.931980 0.922599 0.882380
0.966680 0.928350 0.891028
0.078226 0.937557 0.829408
0.152324 0.942266 0.841249
0.275625 0.946640 0.852414
0.446195 0.950700 0.862922
0.630453 0.954466 0.872794
0.783194 0.957958 0.882051
0.884381 0.961192 0.890720
0.941849 0.964187 0.898824
0.971668 0.966958 0.906390
0.022754 0.022754 0.717850
0.046426 0.024270 0.734960
0.093457 0.026326 0.751392
0.179178 0.028551 0.767127
0.316109 0.030958 0.782155
0.494626 0.033561 0.796471
0.674524 0.036375 0.810075
0.814412 0.039414 0.822971
0.902837 0.042697 0.835170
0.026461 0.049145 0.750799
0.054420 0.053193 0.766561
0.108627 0.057555 0.781615
0.205114 0.062250 0.795957
0.353334 0.067301 0.809587
0.536386 0.072731 0.822509
0.710130 0.078561 0.834733
0.838381 0.084816 0.846273
0.916556 0.091520 0.857145
0.031129 0.104536 0.781074
0.063699 0.112606 0.795442
0.125917 0.121215 0.809098
0.233736 0.130386 0.822046
0.392427 0.140140 0.834296
0.577641 0.150497 0.845860
0.743323 0.161476 0.856757
0.859787 0.173093 0.867003
0.928491 0.185360 0.876623
0.036591 0.208657 0.808608
0.074436 0.222766 0.821582
0.145511 0.237543 0.833857
0.265020 0.252981 0.845447
0.432950 0.269068 0.856367
0.617840 0.285787 0.866638
0.773924 0.303114 0.876280
0.878769 0.321019 0.885317
0.938833 0.339467 0.893774
0.042968 0.373258 0.833418
0.086814 0.392970 0.845033
0.167568 0.413037 0.855977
0.298857 0.433397 0.866271
0.474390 0.453985 0.875936
0.656489 0.474731 0.884995
0.801850 0.495565 0.893473
0.895492 0.516414 0.901396
0.947764 0.537207 0.908790
0.050398 0.573588 0.855586
0.101026 0.593856 0.865904
0.192218 0.613808 0.875591
0.335046 0.633386 0.884672
0.516186 0.652533 0.893171
0.693170 0.671199 0.901114
0.827098 0.689339 0.908527
0.910145 0.706916 0.915436
0.955452 0.723897 0.921868
0.059034 0.752368 0.875246
0.117265 0.767581 0.884349
0.219536 0.782130 0.892869
0.373284 0.796010 0.900831
0.557756 0.809222 0.908263
0.727559 0.821770 0.915190
0.849731 0.833662 0.921639
0.922920 0.844910 0.927637
0.962054 0.855530 0.933209
0.069042 0.872812 0.892565
0.135722 0.881788 0.900548
0.249539 0.890211 0.907999
0.413174 0.898102 0.914944
0.598533 0.905487 0.921410
0.759432 0.912389 0.927424
0.869867 0.918832 0.933011
0.934011 0.924840 0.938197
0.967711 0.930437 0.943005
0.080601 0.939393 0.907734
0.156567 0.943972 0.914697
0.282158 0.948224 0.921181
0.454237 0.952170 0.927210
0.637990 0.955829 0.932813
0.788660 0.959220 0.938013
0.887662 0.962361 0.942835
0.943603 0.965269 0.947303
0.972549 0.967960 0.951440
0.023201 0.023077 0.837352
0.047886 0.025035 0.848742
0.096246 0.027154 0.859468
0.184007 0.029447 0.869551
0.323175 0.031927 0.879012
0.502749 0.034608 0.887875
0.681616 0.037506 0.896166
0.819272 0.040636 0.903910
0.905650 0.044016 0.911133
0.027311 0.050653 0.859085
0.056117 0.054818 0.869191
0.111813 0.059304 0.878674
0.210462 0.064133 0.887559
0.360793 0.069326 0.895870
0.544455 0.074905 0.903634
0.716772 0.080895 0.910876
0.842735 0.087318 0.917624
0.919007 0.094199 0.923904
0.032124 0.107551 0.878336
0.065665 0.115824 0.887243
0.129537 0.124645 0.895575
0.239605 0.134035 0.903358
0.400200 0.144017 0.910619
0.585547 0.154609 0.917384
0.749472 0.165829 0.923681
0.863659 0.177693 0.929534
0.930619 0.190211 0.934970
0.037753 0.213958 0.895278
0.076705 0.228322 0.903081
0.149597 0.243352 0.910361
0.271396 0.259039 0.917144
0.440943 0.275369 0.923457
0.625481 0.292323 0.929326
0.779558 0.309874 0.934777
0.882187 0.327991 0.939835
0.940673 0.346635 0.944523
0.044324 0.380728 0.910102
0.089424 0.400582 0.916903
0.172149 0.420769 0.923233
0.305710 0.441224 0.929118
0.482497 0.461880 0.934584
0.663778 0.482668 0.939655
0.806962 0.503516 0.944357
0.898494 0.524352 0.948713
0.949349 0.545104 0.952744
0.051976 0.581349 0.923008
0.104015 0.601504 0.928909
0.197313 0.621320 0.934390
0.342323 0.640740 0.939475
0.524295 0.659709 0.944191
0.700036 0.678179 0.948558
0.831695 0.696109 0.952602
0.912767 0.713462 0.956342
0.956815 0.730209 0.959799
0.060864 0.758246 0.934195
0.120671 0.773207 0.939295
0.225154 0.787501 0.944023
0.380915 0.801126 0.948404
0.565754 0.814084 0.952458
0.733952 0.826381 0.956209
0.853832 0.838026 0.959677
0.925200 0.849033 0.962880
0.963223 0.859417 0.965838
0.071159 0.876301 0.943856
0.139578 0.885064 0.948248
0.255672 0.893281 0.952315
0.421073 0.900977 0.956076
0.606314 0.908174 0.959554
0.765318 0.914898 0.962767
0.873501 0.921172 0.965734
0.935985 0.927021 0.968472
0.968711 0.932468 0.970998
0.083042 0.941179 0.952171
0.160906 0.945631 0.955943
0.288785 0.949764 0.959431
0.462303 0.953598 0.962653
0.645460 0.957153 0.965629
0.794024 0.960446 0.968375
0.890861 0.963496 0.970908
0.945308 0.966320 0.973244
0.973403 0.968932 0.975398
