presets/luts/moody_desaturated.cube
TITLE "Moody Desaturated"
LUT_3D_SIZE 5
0.022754 0.022754 0.022754
0.075888 0.022754 0.022754
0.269111 0.024933 0.025196
0.622762 0.029327 0.029790
0.880978 0.034469 0.035192
0.024955 0.085454 0.025041
0.102940 0.099427 0.029608
0.339718 0.115396 0.034978
0.697597 0.133550 0.041280
0.911840 0.154063 0.048661
0.034529 0.322806 0.034764
0.138192 0.360299 0.041030
0.418250 0.399578 0.048369
0.763230 0.440192 0.056941
0.935288 0.481623 0.066927
0.047596 0.708609 0.048078
0.183053 0.741826 0.056602
0.501157 0.772472 0.066532
0.818328 0.800459 0.078061
0.952822 0.825779 0.091391
0.065275 0.925407 0.066140
0.238447 0.936137 0.077606
0.584001 0.945415 0.090866
0.862907 0.953412 0.106131
0.965778 0.960287 0.123613
0.022754 0.022754 0.069763
0.080573 0.022754 0.081802
0.282082 0.026527 0.095705
0.637902 0.031193 0.111683
0.887624 0.036649 0.129946
0.026586 0.090558 0.095158
0.109097 0.105269 0.111056
0.354442 0.122050 0.129231
0.711126 0.141084 0.149879
0.916926 0.162537 0.173170
0.036762 0.336865 0.128520
0.146114 0.375087 0.149073
0.434140 0.414932 0.172264
0.774771 0.455922 0.198223
0.939111 0.497518 0.227020
0.050630 0.721567 0.171363
0.192971 0.753820 0.197218
0.517395 0.783458 0.225910
0.827789 0.810425 0.257438
0.955658 0.834742 0.291708
0.069354 0.929681 0.224804
0.250447 0.939836 0.256229
0.599696 0.948606 0.290400
0.870415 0.956158 0.327125
0.967862 0.962643 0.366098
0.022754 0.022754 0.234931
0.085520 0.023988 0.267284
0.295425 0.028220 0.302331
0.652773 0.033174 0.339842
0.893944 0.038963 0.379475
0.028320 0.095935 0.300996
0.115575 0.111413 0.338422
0.369447 0.129032 0.377984
0.724290 0.148970 0.419241
0.921743 0.171382 0.461659
0.039133 0.351219 0.376496
0.154409 0.390112 0.417700
0.450166 0.430454 0.460085
0.785907 0.471741 0.503056
0.942722 0.513418 0.545982
0.053846 0.734166 0.458512
0.203293 0.765434 0.501472
0.533597 0.794055 0.544411
0.836856 0.820006 0.586699
0.958332 0.843332 0.627746
0.073667 0.933727 0.542839
0.262842 0.943334 0.585162
0.615190 0.951621 0.626264
0.877569 0.958748 0.665622
0.969823 0.964865 0.702801
0.022754 0.022754 0.556999
0.090740 0.025523 0.598980
0.309128 0.030018 0.639557
0.667351 0.035276 0.678233
0.899949 0.041416 0.714612
0.030164 0.101596 0.638095
0.122385 0.117868 0.676849
0.384709 0.136351 0.713318
0.737075 0.157216 0.747208
0.926304 0.180606 0.778337
0.041651 0.365848 0.712020
0.163085 0.405348 0.746009
0.466296 0.446113 0.777242
0.796638 0.487616 0.805634
0.946132 0.529290 0.831194
0.057255 0.746394 0.776143
0.214020 0.776661 0.804640
0.549728 0.804264 0.830303
0.845535 0.829205 0.853210
0.960850 0.851554 0.873495
0.078226 0.937557 0.829408
0.275625 0.946640 0.852414
0.630453 0.954466 0.872794
0.884381 0.961192 0.890720
0.971668 0.966958 0.906390
0.023201 0.023077 0.837352
0.096246 0.027154 0.859468
0.323175 0.031927 0.879012
0.681616 0.037506 0.896166
0.905650 0.044016 0.911133
0.032124 0.107551 0.878336
0.129537 0.124645 0.895575
0.400200 0.144017 0.910619
0.749472 0.165829 0.923681
0.930619 0.190211 0.934970
0.044324 0.380728 0.910102
0.172149 0.420769 0.923233
0.482497 0.461880 0.934584
0.806962 0.503516 0.944357
0.949349 0.545104 0.952744
0.060864 0.758246 0.934195
0.225154 0.787501 0.944023
0.565754 0.814084 0.952458
0.853832 0.838026 0.959677
0.963223 0.859417 0.965838
0.083042 0.941179 0.952171
0.288785 0.949764 0.959431
0.645460 0.957153 0.965629
0.890861 0.963496 0.970908
0.973403 0.968932 0.975398
