presets/luts/moody_desaturated.cube
TITLE "Moody Desaturated"
LUT_3D_SIZE 33
0.022754 0.022754 0.022754
0.022754 0.022754 0.022754
0.025960 0.022754 0.022754
0.031149 0.022754 0.022754
0.037335 0.022754 0.022754
0.044692 0.022754 0.022754
0.053420 0.022754 0.022754
0.063737 0.022754 0.022754
0.075888 0.022754 0.022754
0.090133 0.022754 0.022754
0.106742 0.022754 0.022754
0.125988 0.022754 0.022754
0.148129 0.022983 0.023165
0.173388 0.023456 0.023657
0.201934 0.023939 0.024160
0.233851 0.024431 0.024673
0.269111 0.024933 0.025196
0.307553 0.025445 0.025730
0.348865 0.025967 0.026275
0.392580 0.026500 0.026832
0.438088 0.027043 0.027400
0.484662 0.027598 0.027979
0.531504 0.028163 0.028571
0.577797 0.028739 0.029174
0.622762 0.029327 0.029790
0.665710 0.029927 0.030419
0.706075 0.030538 0.031060
0.743445 0.031162 0.031715
0.777560 0.031798 0.032383
0.808309 0.032446 0.033064
0.835705 0.033107 0.033759
0.859865 0.033781 0.034469
0.880978 0.034469 0.035192
0.022754 0.022754 0.022754
0.022754 0.022754 0.022754
0.027039 0.022874 0.022754
0.032436 0.023345 0.022754
0.038867 0.023825 0.022754
0.046512 0.024315 0.022754
0.055574 0.024815 0.022754
0.066279 0.025325 0.022754
0.078874 0.025845 0.022754
0.093622 0.026375 0.022754
0.110796 0.026916 0.023147
0.130666 0.027468 0.023639
0.153484 0.028030 0.024141
0.179465 0.028604 0.024654
0.208759 0.029189 0.025177
0.241427 0.029786 0.025710
0.277416 0.030395 0.026255
0.316530 0.031015 0.026811
0.358425 0.031648 0.027379
0.402597 0.032294 0.027958
0.448409 0.032952 0.028549
0.495113 0.033623 0.029152
0.541903 0.034307 0.029767
0.587965 0.035005 0.030396
0.632536 0.035716 0.031036
0.674952 0.036441 0.031690
0.714680 0.037181 0.032358
0.751341 0.037935 0.033039
0.784710 0.038703 0.033733
0.814706 0.039487 0.034442
0.841367 0.040285 0.035165
0.864829 0.041099 0.035903
0.885294 0.041929 0.036656
0.022754 0.026789 0.022754
0.023458 0.027338 0.022754
0.028161 0.027898 0.022754
0.033774 0.028469 0.022754
0.040460 0.029052 0.022754
0.048403 0.029646 0.022754
0.057811 0.030252 0.022754
0.068915 0.030870 0.022754
0.081967 0.031500 0.023129
0.097232 0.032142 0.023621
0.114984 0.032797 0.024123
0.135490 0.033465 0.024635
0.158997 0.034147 0.025157
0.185706 0.034841 0.025690
0.215751 0.035549 0.026235
0.249170 0.036271 0.026791
0.285877 0.037007 0.027358
0.325647 0.037758 0.027936
0.368098 0.038523 0.028527
0.412696 0.039303 0.029130
0.458774 0.040098 0.029745
0.505569 0.040908 0.030372
0.552266 0.041734 0.031013
0.598059 0.042577 0.031666
0.642203 0.043435 0.032333
0.684060 0.044310 0.033013
0.723131 0.045201 0.033708
0.759072 0.046110 0.034416
0.791692 0.047036 0.035138
0.820937 0.047980 0.035876
0.846870 0.048941 0.036628
0.869644 0.049921 0.037395
0.889473 0.050920 0.038178
0.022754 0.032644 0.022754
0.024436 0.033309 0.022754
0.029329 0.033987 0.022754
0.035166 0.034678 0.022754
0.042115 0.035383 0.022754
0.050366 0.036102 0.022754
0.060131 0.036835 0.023112
0.071648 0.037582 0.023603
0.085169 0.038343 0.024104
0.100965 0.039120 0.024615
0.119309 0.039911 0.025138
0.140464 0.040718 0.025671
0.164670 0.041541 0.026215
0.192114 0.042379 0.026770
0.222912 0.043233 0.027336
0.257076 0.044104 0.027915
0.294491 0.044992 0.028505
0.334898 0.045897 0.029107
0.377879 0.046819 0.029722
0.422869 0.047758 0.030349
0.469176 0.048716 0.030989
0.516020 0.049691 0.031642
0.562584 0.050685 0.032308
0.608070 0.051698 0.032988
0.651755 0.052730 0.033682
0.693028 0.053782 0.034390
0.731426 0.054853 0.035112
0.766638 0.055944 0.035848
0.798505 0.057056 0.036600
0.827002 0.058188 0.037367
0.852215 0.059342 0.038149
0.874312 0.060517 0.038947
0.893518 0.061714 0.039760
0.022754 0.039725 0.022754
0.025453 0.040529 0.022754
0.030543 0.041348 0.022754
0.036613 0.042182 0.022754
0.043835 0.043033 0.023094
0.052404 0.043900 0.023584
0.062539 0.044784 0.024085
0.074480 0.045684 0.024596
0.088485 0.046602 0.025118
0.104826 0.047538 0.025651
0.123774 0.048491 0.026194
0.145590 0.049462 0.026749
0.170504 0.050452 0.027315
0.198689 0.051461 0.027893
0.230241 0.052488 0.028483
0.265145 0.053535 0.029085
0.303255 0.054602 0.029699
0.344277 0.055688 0.030326
0.387760 0.056795 0.030965
0.433107 0.057923 0.031618
0.479604 0.059071 0.032283
0.526456 0.060241 0.032963
0.572847 0.061433 0.033656
0.617991 0.062646 0.034363
0.661186 0.063882 0.035085
0.701853 0.065141 0.035821
0.739562 0.066422 0.036572
0.774037 0.067727 0.037338
0.805150 0.069056 0.038120
0.832905 0.070409 0.038917
0.857406 0.071786 0.039730
0.878837 0.073188 0.040560
0.897432 0.074616 0.041406
0.022754 0.048267 0.022754
0.026511 0.049234 0.022754
0.031806 0.050220 0.023076
0.038117 0.051224 0.023566
0.045622 0.052247 0.024067
0.054521 0.053289 0.024577
0.065037 0.054351 0.025099
0.077415 0.055433 0.025631
0.091917 0.056535 0.026174
0.108816 0.057658 0.026729
0.128382 0.058802 0.027294
0.150870 0.059967 0.027872
0.176501 0.061153 0.028461
0.205432 0.062362 0.029062
0.237737 0.063592 0.029676
0.273373 0.064845 0.030302
0.312164 0.066122 0.030941
0.353779 0.067421 0.031593
0.397734 0.068744 0.032259
0.443404 0.070092 0.032938
0.490050 0.071463 0.033630
0.536870 0.072859 0.034337
0.583049 0.074281 0.035058
0.627815 0.075728 0.035794
0.670491 0.077200 0.036544
0.710531 0.078699 0.037310
0.747536 0.080225 0.038091
0.781268 0.081777 0.038887
0.811628 0.083357 0.039700
0.838645 0.084964 0.040529
0.862443 0.086600 0.041374
0.883220 0.088264 0.042237
0.901219 0.089957 0.043116
0.022999 0.058533 0.023058
0.027612 0.059693 0.023548
0.033120 0.060875 0.024048
0.039681 0.062078 0.024559
0.047478 0.063303 0.025080
0.056717 0.064551 0.025611
0.067626 0.065822 0.026154
0.080455 0.067116 0.026708
0.095468 0.068434 0.027273
0.112938 0.069775 0.027850
0.133135 0.071141 0.028439
0.156307 0.072532 0.029040
0.182662 0.073947 0.029653
0.212343 0.075388 0.030279
0.245399 0.076855 0.030918
0.281759 0.078348 0.031569
0.321214 0.079867 0.032234
0.363399 0.081413 0.032912
0.407795 0.082986 0.033605
0.453749 0.084587 0.034311
0.500504 0.086216 0.035031
0.547251 0.087874 0.035766
0.593180 0.089560 0.036516
0.637534 0.091275 0.037281
0.679665 0.093019 0.038062
0.719056 0.094794 0.038858
0.755348 0.096598 0.039670
0.788331 0.098434 0.040498
0.817939 0.100300 0.041343
0.844224 0.102198 0.042205
0.867330 0.104127 0.043084
0.887465 0.106089 0.043980
0.904880 0.108083 0.044894
0.023957 0.070821 0.024029
0.028757 0.072206 0.024540
0.034485 0.073615 0.025060
0.041306 0.075050 0.025592
0.049406 0.076511 0.026134
0.058997 0.077998 0.026687
0.070312 0.079511 0.027252
0.083604 0.081050 0.027829
0.099141 0.082617 0.028417
0.117197 0.084212 0.029018
0.138036 0.085834 0.029631
0.161902 0.087485 0.030256
0.188990 0.089164 0.030894
0.219422 0.090872 0.031545
0.253226 0.092610 0.032209
0.290300 0.094378 0.032887
0.330401 0.096175 0.033579
0.373128 0.098003 0.034284
0.417933 0.099863 0.035004
0.464134 0.101753 0.035739
0.510959 0.103675 0.036488
0.557592 0.105629 0.037253
0.603232 0.107616 0.038033
0.647143 0.109635 0.038828
0.688702 0.111687 0.039640
0.727428 0.113773 0.040467
0.762994 0.115893 0.041312
0.795226 0.118047 0.042173
0.824085 0.120236 0.043051
0.849646 0.122459 0.043947
0.872069 0.124718 0.044860
0.891575 0.127013 0.045791
0.908419 0.129343 0.046741
0.024955 0.085454 0.025041
0.029949 0.087098 0.025572
0.035905 0.088770 0.026114
0.042994 0.090472 0.026667
0.051408 0.092203 0.027231
0.061362 0.093963 0.027808
0.073095 0.095754 0.028395
0.086865 0.097575 0.028995
0.102940 0.099427 0.029608
0.121593 0.101310 0.030233
0.143088 0.103224 0.030870
0.167658 0.105171 0.031521
0.195484 0.107150 0.032185
0.226670 0.109161 0.032862
0.261216 0.111206 0.033553
0.298992 0.113284 0.034258
0.339718 0.115396 0.034978
0.382962 0.117542 0.035712
0.428140 0.119723 0.036461
0.474550 0.121938 0.037224
0.521403 0.124189 0.038004
0.567883 0.126475 0.038799
0.613197 0.128797 0.039609
0.656633 0.131155 0.040437
0.697597 0.133550 0.041280
0.735641 0.135982 0.042141
0.770474 0.138451 0.043018
0.801952 0.140957 0.043913
0.830066 0.143502 0.044826
0.854911 0.146084 0.045757
0.876663 0.148705 0.046706
0.895552 0.151364 0.047674
0.911840 0.154063 0.048661
0.025993 0.102775 0.026094
0.031188 0.104714 0.026646
0.037382 0.106686 0.027210
0.044748 0.108690 0.027786
0.053486 0.110727 0.028374
0.063815 0.112797 0.028973
0.075980 0.114901 0.029585
0.090240 0.117039 0.030209
0.106866 0.119211 0.030846
0.126132 0.121419 0.031497
0.148293 0.123661 0.032160
0.173576 0.125939 0.032837
0.202145 0.128253 0.033527
0.234085 0.130602 0.034232
0.269368 0.132989 0.034951
0.307831 0.135412 0.035684
0.349162 0.137872 0.036433
0.392892 0.140370 0.037196
0.438410 0.142905 0.037975
0.484988 0.145479 0.038769
0.531829 0.148091 0.039579
0.578116 0.150741 0.040406
0.623069 0.153430 0.041249
0.666000 0.156159 0.042109
0.706346 0.158927 0.042986
0.743694 0.161734 0.043880
0.777786 0.164582 0.044792
0.808511 0.167469 0.045722
0.835884 0.170397 0.046671
0.860022 0.173366 0.047638
0.881114 0.176375 0.048624
0.899400 0.179425 0.049630
0.915145 0.182516 0.050655
0.027073 0.123135 0.027189
0.032477 0.125405 0.027765
0.038916 0.127710 0.028352
0.046570 0.130052 0.028951
0.055643 0.132429 0.029562
0.066360 0.134844 0.030186
0.078969 0.137296 0.030823
0.093733 0.139785 0.031472
0.110924 0.142311 0.032135
0.130814 0.144876 0.032812
0.153654 0.147479 0.033502
0.179657 0.150120 0.034206
0.208975 0.152800 0.034924
0.241667 0.155520 0.035657
0.277678 0.158278 0.036405
0.316813 0.161077 0.037168
0.358725 0.163915 0.037946
0.402911 0.166793 0.038740
0.448732 0.169712 0.039549
0.495440 0.172671 0.040375
0.542227 0.175670 0.041218
0.588282 0.178711 0.042077
0.632840 0.181792 0.042953
0.675238 0.184915 0.043847
0.714946 0.188079 0.044758
0.751585 0.191284 0.045688
0.784931 0.194531 0.046636
0.814903 0.197820 0.047602
0.841541 0.201150 0.048588
0.864981 0.204522 0.049593
0.885426 0.207936 0.050617
0.903122 0.211392 0.051662
0.918337 0.214890 0.052727
0.028197 0.146869 0.028330
0.033817 0.149501 0.028929
0.040511 0.152172 0.029540
0.048463 0.154883 0.030163
0.057882 0.157632 0.030799
0.068999 0.160421 0.031448
0.082065 0.163250 0.032111
0.097346 0.166119 0.032787
0.115117 0.169028 0.033476
0.135644 0.171977 0.034180
0.159172 0.174968 0.034898
0.185904 0.177999 0.035630
0.215972 0.181071 0.036377
0.249414 0.184184 0.037139
0.286144 0.187338 0.037917
0.325934 0.190534 0.038710
0.368402 0.193771 0.039519
0.413013 0.197050 0.040344
0.459099 0.200371 0.041186
0.505895 0.203733 0.042045
0.552589 0.207137 0.042921
0.598373 0.210583 0.043814
0.642503 0.214071 0.044724
0.684342 0.217601 0.045653
0.723392 0.221172 0.046600
0.759311 0.224786 0.047566
0.791907 0.228441 0.048551
0.821129 0.232137 0.049555
0.847039 0.235875 0.050579
0.869792 0.239655 0.051623
0.889601 0.243476 0.052687
0.906720 0.247338 0.053772
0.921419 0.251241 0.054878
0.029366 0.174267 0.029517
0.035211 0.177289 0.030140
0.042168 0.180351 0.030776
0.050429 0.183455 0.031424
0.060205 0.186599 0.032086
0.071734 0.189785 0.032761
0.085271 0.193013 0.033451
0.101084 0.196282 0.034154
0.119446 0.199593 0.034871
0.140622 0.202946 0.035603
0.164850 0.206340 0.036349
0.192317 0.209776 0.037111
0.223138 0.213255 0.037888
0.257325 0.216775 0.038681
0.294763 0.220336 0.039489
0.335189 0.223940 0.040314
0.378186 0.227585 0.041155
0.423188 0.231272 0.042013
0.469501 0.235001 0.042888
0.516346 0.238771 0.043780
0.562905 0.242582 0.044691
0.608381 0.246434 0.045619
0.652051 0.250328 0.046565
0.693306 0.254262 0.047530
0.731682 0.258236 0.048515
0.766871 0.262251 0.049518
0.798715 0.266306 0.050541
0.827189 0.270401 0.051584
0.852380 0.274535 0.052648
0.874456 0.278708 0.053732
0.893642 0.282920 0.054837
0.910198 0.287170 0.055964
0.924394 0.291458 0.057112
0.030582 0.205546 0.030752
0.036659 0.208972 0.031400
0.043890 0.212440 0.032062
0.052469 0.215951 0.032736
0.062616 0.219503 0.033425
0.074570 0.223097 0.034128
0.088590 0.226732 0.034844
0.104948 0.230409 0.035576
0.123916 0.234128 0.036322
0.145753 0.237889 0.037083
0.170689 0.241690 0.037859
0.198897 0.245533 0.038651
0.230472 0.249417 0.039459
0.265399 0.253342 0.040283
0.303531 0.257307 0.041124
0.344572 0.261312 0.041981
0.388070 0.265358 0.042856
0.433428 0.269443 0.043747
0.479930 0.273568 0.044657
0.526782 0.277732 0.045584
0.573167 0.281935 0.046530
0.618300 0.286176 0.047495
0.661479 0.290456 0.048478
0.702127 0.294772 0.049481
0.739813 0.299126 0.050503
0.774265 0.303517 0.051546
0.805355 0.307944 0.052608
0.833086 0.312406 0.053692
0.857565 0.316903 0.054796
0.878976 0.321435 0.055922
0.897553 0.326001 0.057069
0.913558 0.330599 0.058239
0.927266 0.335231 0.059431
0.031846 0.240801 0.032037
0.038165 0.244634 0.032711
0.045679 0.248508 0.033399
0.054588 0.252423 0.034101
0.065116 0.256379 0.034818
0.077508 0.260375 0.035548
0.092026 0.264412 0.036294
0.108942 0.268488 0.037054
0.128528 0.272604 0.037830
0.151038 0.276759 0.038622
0.176691 0.280952 0.039429
0.205645 0.285185 0.040253
0.237973 0.289455 0.041093
0.273633 0.293763 0.041949
0.312445 0.298109 0.042823
0.354078 0.302491 0.043714
0.398047 0.306909 0.044623
0.443726 0.311363 0.045550
0.490376 0.315852 0.046495
0.537195 0.320376 0.047459
0.583366 0.324934 0.048442
0.628120 0.329525 0.049444
0.670780 0.334149 0.050465
0.710799 0.338805 0.051507
0.747783 0.343493 0.052569
0.781491 0.348211 0.053651
0.811828 0.352959 0.054755
0.838821 0.357736 0.055880
0.862598 0.362542 0.057027
0.883355 0.367376 0.058195
0.901335 0.372236 0.059387
0.916804 0.377122 0.060601
0.930037 0.382033 0.061838
0.033161 0.279972 0.033374
0.039731 0.284195 0.034075
0.047537 0.288457 0.034791
0.056787 0.292756 0.035521
0.067709 0.297093 0.036266
0.080552 0.301466 0.037026
0.095581 0.305876 0.037801
0.113069 0.310322 0.038592
0.133286 0.314803 0.039399
0.156479 0.319319 0.040222
0.182858 0.323869 0.041061
0.212562 0.328452 0.041917
0.245641 0.333069 0.042791
0.282024 0.337717 0.043681
0.321499 0.342398 0.044589
0.363701 0.347109 0.045515
0.408110 0.351850 0.046460
0.454072 0.356621 0.047423
0.500831 0.361420 0.048405
0.547575 0.366247 0.049406
0.593495 0.371101 0.050427
0.637836 0.375981 0.051468
0.679949 0.380887 0.052529
0.719320 0.385817 0.053611
0.755589 0.390770 0.054714
0.788549 0.395746 0.055838
0.818134 0.400744 0.056984
0.844396 0.405763 0.058152
0.867480 0.410801 0.059342
0.887596 0.415858 0.060556
0.904992 0.420933 0.061792
0.919939 0.426025 0.063052
0.932710 0.431132 0.064336
0.034529 0.322806 0.034764
0.041357 0.327381 0.035494
0.049467 0.331990 0.036239
0.059069 0.336631 0.036998
0.070397 0.341304 0.037773
0.083704 0.346008 0.038563
0.099258 0.350743 0.039369
0.117332 0.355506 0.040191
0.138192 0.360299 0.041030
0.162080 0.365120 0.041886
0.189190 0.369968 0.042758
0.219646 0.374842 0.043648
0.253473 0.379742 0.044556
0.290569 0.384666 0.045481
0.330690 0.389614 0.046425
0.373434 0.394585 0.047387
0.418250 0.399578 0.048369
0.464458 0.404592 0.049369
0.511285 0.409626 0.050389
0.557914 0.414678 0.051430
0.603544 0.419749 0.052490
0.647441 0.424837 0.053571
0.688982 0.429941 0.054673
0.727686 0.435060 0.055796
0.763230 0.440192 0.056941
0.795438 0.445338 0.058109
0.824274 0.450495 0.059298
0.849813 0.455663 0.060510
0.872215 0.460840 0.061746
0.891701 0.466026 0.063005
0.908528 0.471219 0.064288
0.922966 0.476419 0.065595
0.935288 0.481623 0.066927
0.035951 0.368836 0.036211
0.043048 0.373704 0.036970
0.051471 0.378598 0.037744
0.061437 0.383516 0.038534
0.073184 0.388459 0.039339
0.086968 0.393425 0.040161
0.103060 0.398413 0.040999
0.121733 0.403422 0.041854
0.143249 0.408451 0.042726
0.167840 0.413499 0.043615
0.195689 0.418566 0.044522
0.226899 0.423650 0.045447
0.261468 0.428750 0.046390
0.299266 0.433866 0.047351
0.340011 0.438995 0.048332
0.383270 0.444138 0.049332
0.428460 0.449292 0.050351
0.474876 0.454458 0.051391
0.521729 0.459633 0.052451
0.568203 0.464817 0.053531
0.613507 0.470009 0.054632
0.656928 0.475207 0.055755
0.697872 0.480410 0.056899
0.735895 0.485618 0.058065
0.770705 0.490829 0.059254
0.802160 0.496042 0.060465
0.830250 0.501255 0.061700
0.855073 0.506469 0.062958
0.876804 0.511681 0.064240
0.895675 0.516890 0.065547
0.911945 0.522096 0.066878
0.925888 0.527297 0.068234
0.937773 0.532492 0.069615
0.037429 0.417384 0.037715
0.044804 0.422464 0.038504
0.053552 0.427561 0.039309
0.063894 0.432672 0.040130
0.076072 0.437799 0.040968
0.090347 0.442938 0.041822
0.106991 0.448090 0.042693
0.126276 0.453253 0.043582
0.148459 0.458426 0.044488
0.173763 0.463608 0.045412
0.202356 0.468798 0.046355
0.234319 0.473995 0.047316
0.269625 0.479197 0.048296
0.308109 0.484404 0.049295
0.349459 0.489614 0.050314
0.393203 0.494827 0.051352
0.438731 0.500041 0.052411
0.485315 0.505254 0.053491
0.532154 0.510467 0.054591
0.578434 0.515677 0.055713
0.623376 0.520884 0.056856
0.666291 0.526086 0.058022
0.706617 0.531283 0.059210
0.743943 0.536472 0.060420
0.778012 0.541654 0.061654
0.808713 0.546827 0.062912
0.836063 0.551990 0.064193
0.860179 0.557142 0.065498
0.881251 0.562281 0.066828
0.899519 0.567407 0.068183
0.915246 0.572519 0.069564
0.928707 0.577615 0.070970
0.940170 0.582695 0.072403
0.038965 0.467588 0.039279
0.046628 0.472784 0.040100
0.055712 0.477985 0.040937
0.066441 0.483191 0.041790
0.079064 0.488400 0.042661
0.093844 0.493612 0.043549
0.111053 0.498826 0.044455
0.130963 0.504040 0.045378
0.153824 0.509252 0.046320
0.179850 0.514463 0.047280
0.209191 0.519671 0.048259
0.241906 0.524874 0.049258
0.277940 0.530072 0.050276
0.317096 0.535264 0.051314
0.359026 0.540448 0.052372
0.403226 0.545623 0.053451
0.449055 0.550788 0.054550
0.495766 0.555943 0.055671
0.542552 0.561085 0.056814
0.588598 0.566214 0.057979
0.633143 0.571329 0.059166
0.675525 0.576429 0.060376
0.715212 0.581513 0.061608
0.751828 0.586579 0.062865
0.785151 0.591628 0.064145
0.815100 0.596656 0.065450
0.841716 0.601665 0.066779
0.865134 0.606653 0.068133
0.885559 0.611618 0.069513
0.903236 0.616560 0.070918
0.918434 0.621479 0.072350
0.931427 0.626372 0.073808
0.942479 0.631240 0.075293
0.040562 0.518458 0.040906
0.048523 0.523662 0.041759
0.057953 0.528862 0.042629
0.069083 0.534055 0.043516
0.082163 0.539241 0.044421
0.097461 0.544418 0.045344
0.115250 0.549586 0.046285
0.135797 0.554743 0.047244
0.159347 0.559888 0.048223
0.186102 0.565020 0.049221
0.216194 0.570139 0.050238
0.249659 0.575242 0.051275
0.286411 0.580330 0.052333
0.326221 0.585401 0.053411
0.368706 0.590453 0.054510
0.413329 0.595487 0.055630
0.459423 0.600500 0.056772
0.506222 0.605493 0.057935
0.552912 0.610463 0.059122
0.598687 0.615411 0.060331
0.642803 0.620335 0.061563
0.684624 0.625234 0.062818
0.723654 0.630108 0.064098
0.759550 0.634956 0.065401
0.792122 0.639776 0.066729
0.821320 0.644568 0.068083
0.847208 0.649331 0.069461
0.869940 0.654065 0.070866
0.889729 0.658769 0.072297
0.906830 0.663441 0.073754
0.921513 0.668082 0.075238
0.934051 0.672690 0.076750
0.944705 0.677265 0.078289
0.042221 0.568947 0.042596
0.050491 0.574055 0.043483
0.060279 0.579146 0.044387
0.071822 0.584221 0.045309
0.085373 0.589277 0.046250
0.101203 0.594315 0.047209
0.119584 0.599334 0.048187
0.140780 0.604331 0.049184
0.165030 0.609307 0.050200
0.192520 0.614260 0.051237
0.223365 0.619190 0.052293
0.257575 0.624095 0.053371
0.295035 0.628975 0.054469
0.335480 0.633828 0.055588
0.378493 0.638655 0.056729
0.423507 0.643454 0.057892
0.469826 0.648224 0.059078
0.516672 0.652965 0.060286
0.563226 0.657676 0.061517
0.608693 0.662355 0.062772
0.652347 0.667003 0.064050
0.693584 0.671619 0.065353
0.731939 0.676202 0.066680
0.767105 0.680752 0.068033
0.798925 0.685267 0.069410
0.827376 0.689748 0.070814
0.852544 0.694193 0.072243
0.874599 0.698602 0.073700
0.893766 0.702975 0.075183
0.910304 0.707311 0.076694
0.924485 0.711610 0.078232
0.936581 0.715871 0.079798
0.946850 0.720094 0.081394
0.043945 0.618043 0.044354
0.052534 0.622954 0.045275
0.062692 0.627840 0.046215
0.074660 0.632700 0.047173
0.088696 0.637533 0.048150
0.105071 0.642338 0.049147
0.124058 0.647115 0.050162
0.145916 0.651863 0.051198
0.170874 0.656581 0.052254
0.199106 0.661268 0.053331
0.230704 0.665923 0.054428
0.265654 0.670547 0.055547
0.303807 0.675138 0.056687
0.344867 0.679695 0.057849
0.388380 0.684218 0.059034
0.433749 0.688707 0.060241
0.480256 0.693160 0.061471
0.527107 0.697578 0.062725
0.573486 0.701959 0.064003
0.618608 0.706304 0.065304
0.661771 0.710612 0.066631
0.702400 0.714881 0.067982
0.740065 0.719113 0.069359
0.774493 0.723306 0.070762
0.805560 0.727461 0.072190
0.833268 0.731576 0.073646
0.857725 0.735651 0.075128
0.879115 0.739687 0.076637
0.897673 0.743683 0.078175
0.913661 0.747638 0.079740
0.927354 0.751552 0.081334
0.939020 0.755426 0.082958
0.948916 0.759259 0.084610
0.045736 0.664841 0.046180
0.054655 0.669472 0.047138
0.065196 0.674071 0.048114
0.077601 0.678636 0.049110
0.092135 0.683167 0.050125
0.109069 0.687664 0.051160
0.128674 0.692126 0.052215
0.151205 0.696552 0.053291
0.176881 0.700942 0.054387
0.205859 0.705295 0.055505
0.238210 0.709611 0.056645
0.273892 0.713890 0.057806
0.312725 0.718131 0.058990
0.354377 0.722333 0.060196
0.398360 0.726496 0.061426
0.444048 0.730621 0.062678
0.490703 0.734705 0.063955
0.537519 0.738750 0.065256
0.583684 0.742755 0.066582
0.628425 0.746720 0.067932
0.671068 0.750644 0.069308
0.711068 0.754527 0.070710
0.748029 0.758369 0.072137
0.781714 0.762170 0.073592
0.812027 0.765930 0.075073
0.838998 0.769648 0.076581
0.862753 0.773325 0.078118
0.883489 0.776960 0.079682
0.901451 0.780553 0.081275
0.916904 0.784104 0.082897
0.930122 0.787614 0.084549
0.941371 0.791082 0.086230
0.950905 0.794507 0.087942
0.047596 0.708609 0.048078
0.056857 0.712896 0.049073
0.067791 0.717146 0.050087
0.080648 0.721357 0.051121
0.095694 0.725530 0.052176
0.113200 0.729663 0.053251
0.133437 0.733757 0.054347
0.156652 0.737812 0.055464
0.183053 0.741826 0.056602
0.212780 0.745800 0.057763
0.245883 0.749733 0.058946
0.282288 0.753626 0.060151
0.321784 0.757478 0.061380
0.364003 0.761288 0.062632
0.408426 0.765058 0.063908
0.454396 0.768786 0.065208
0.501157 0.772472 0.066532
0.547899 0.776117 0.067882
0.593810 0.779719 0.069257
0.638138 0.783281 0.070658
0.680233 0.786800 0.072084
0.719584 0.790277 0.073538
0.755830 0.793713 0.075018
0.788767 0.797107 0.076525
0.818328 0.800459 0.078061
0.844568 0.803769 0.079624
0.867630 0.807038 0.081216
0.887726 0.810265 0.082837
0.905105 0.813450 0.084488
0.920035 0.816594 0.086168
0.932792 0.819697 0.087878
0.943637 0.822759 0.089619
0.952822 0.825779 0.091391
0.049529 0.748820 0.050049
0.059142 0.752723 0.051083
0.070483 0.756584 0.052137
0.083804 0.760404 0.053211
0.099375 0.764183 0.054306
0.117467 0.767921 0.055422
0.138347 0.771617 0.056560
0.162257 0.775271 0.057720
0.189390 0.778884 0.058902
0.219870 0.782455 0.060107
0.253720 0.785984 0.061334
0.290839 0.789471 0.062585
0.330979 0.792916 0.063860
0.373739 0.796320 0.065160
0.418568 0.799681 0.066483
0.464783 0.803001 0.067832
0.511611 0.806280 0.069206
0.558236 0.809516 0.070606
0.603857 0.812711 0.072031
0.647739 0.815865 0.073484
0.689261 0.818978 0.074963
0.727945 0.822049 0.076469
0.763466 0.825079 0.078004
0.795651 0.828069 0.079566
0.824463 0.831018 0.081157
0.849979 0.833926 0.082777
0.872360 0.836794 0.084426
0.891827 0.839623 0.086105
0.908636 0.842411 0.087815
0.923059 0.845160 0.089554
0.935367 0.847870 0.091325
0.945821 0.850540 0.093128
0.954666 0.853172 0.094962
0.051535 0.785165 0.052097
0.061513 0.788662 0.053171
0.073272 0.792117 0.054265
0.087072 0.795530 0.055381
0.103181 0.798902 0.056518
0.121873 0.802232 0.057677
0.143409 0.805520 0.058858
0.168023 0.808766 0.060062
0.195895 0.811971 0.061289
0.227128 0.815134 0.062539
0.261721 0.818256 0.063813
0.299540 0.821337 0.065111
0.340305 0.824377 0.066434
0.383579 0.827376 0.067782
0.428780 0.830334 0.069155
0.475201 0.833252 0.070554
0.522055 0.836130 0.071978
0.568524 0.838967 0.073430
0.613817 0.841765 0.074908
0.657222 0.844523 0.076414
0.698148 0.847242 0.077947
0.736149 0.849921 0.079508
0.770935 0.852562 0.081098
0.802367 0.855165 0.082717
0.830434 0.857729 0.084365
0.855235 0.860255 0.086043
0.876945 0.862743 0.087751
0.895797 0.865194 0.089490
0.912050 0.867608 0.091260
