presets/luts/vibrant_pop.cube
TITLE "Vibrant Pop"
LUT_3D_SIZE 5
0.063269 0.060087 0.057055
0.262922 0.053487 0.050770
0.653243 0.047576 0.045145
0.908669 0.042289 0.040117
0.981324 0.037567 0.035628
0.050348 0.230651 0.045341
0.218748 0.209495 0.040292
0.596569 0.189800 0.035784
0.886487 0.171555 0.031764
0.976328 0.154728 0.028182
0.039953 0.584367 0.035941
0.180182 0.554134 0.031904
0.537194 0.523495 0.028306
0.859750 0.492679 0.025104
0.970037 0.461918 0.022256
0.031633 0.868309 0.028432
0.147135 0.853554 0.025216
0.476745 0.837455 0.022355
0.827937 0.819960 0.019813
0.962139 0.801029 0.017554
0.025000 0.968673 0.022455
0.119267 0.964706 0.019901
0.416970 0.960257 0.017632
0.790665 0.955274 0.015618
0.952261 0.949698 0.013831
0.060539 0.057485 0.256446
0.253911 0.051156 0.233641
0.642516 0.045490 0.212286
0.904690 0.040425 0.192393
0.980442 0.035903 0.173952
0.048147 0.222412 0.213046
0.210818 0.201813 0.193099
0.585201 0.182674 0.174605
0.881668 0.164974 0.157536
0.975217 0.148677 0.141850
0.038188 0.572902 0.175260
0.173340 0.542488 0.158139
0.525484 0.511754 0.142403
0.853983 0.480931 0.127994
0.968640 0.450253 0.114848
0.030224 0.862838 0.142958
0.141331 0.847577 0.128501
0.465029 0.830952 0.115310
0.821134 0.812913 0.103312
0.960388 0.793428 0.092433
0.023879 0.967214 0.115774
0.114415 0.963069 0.103734
0.405584 0.958423 0.092814
0.782775 0.953221 0.082938
0.950078 0.947403 0.074026
0.057919 0.054990 0.662834
0.245106 0.048921 0.634741
0.631644 0.043491 0.605701
0.900558 0.038640 0.575893
0.979520 0.034310 0.545524
0.046037 0.214386 0.606784
0.203101 0.194344 0.577001
0.573743 0.175757 0.546648
0.876674 0.158598 0.515945
0.974054 0.142823 0.485120
0.036498 0.561358 0.547773
0.166705 0.530795 0.517078
0.513747 0.500000 0.486253
0.848021 0.469205 0.455533
0.967179 0.438642 0.425148
0.028875 0.857177 0.487387
0.135720 0.841402 0.456659
0.453352 0.824243 0.426257
0.814123 0.805656 0.396403
0.958560 0.785614 0.367301
0.022807 0.965690 0.427367
0.109736 0.961360 0.397489
0.394299 0.956509 0.368356
0.774673 0.951079 0.340153
0.947799 0.945010 0.313039
0.055406 0.052597 0.918071
0.236509 0.046779 0.908303
0.620636 0.041577 0.897500
0.896266 0.036931 0.885585
0.978555 0.032786 0.872481
0.044015 0.206572 0.897917
0.195596 0.187087 0.886044
0.562204 0.169048 0.872985
0.871499 0.152423 0.858669
0.972839 0.137162 0.843029
0.034880 0.549747 0.873487
0.160274 0.519069 0.859218
0.501994 0.488246 0.843628
0.841861 0.457512 0.826660
0.965653 0.427098 0.808269
0.027586 0.851323 0.844226
0.130298 0.835026 0.827309
0.441725 0.817326 0.808971
0.806901 0.798187 0.789182
0.956651 0.777588 0.767931
0.021783 0.964097 0.809671
0.105226 0.959575 0.789936
0.383126 0.954510 0.768738
0.766359 0.948844 0.746089
0.945423 0.942515 0.722024
0.052995 0.050302 0.984585
0.228123 0.044726 0.982597
0.609503 0.039743 0.980358
0.891812 0.035294 0.977836
0.977545 0.031327 0.975000
0.042078 0.198971 0.980445
0.188303 0.180040 0.977934
0.550598 0.162545 0.975110
0.866140 0.146446 0.971935
0.971568 0.131691 0.968367
0.033331 0.538082 0.975220
0.154046 0.507321 0.972058
0.490239 0.476505 0.968506
0.835499 0.445866 0.964518
0.964059 0.415633 0.960047
0.026352 0.845272 0.968644
0.125061 0.828445 0.964673
0.430163 0.810200 0.960221
0.799468 0.790505 0.955233
0.954659 0.769349 0.949652
0.020803 0.962433 0.960394
0.100880 0.957711 0.955426
0.372075 0.952424 0.949869
0.757833 0.946513 0.943659
0.942945 0.939913 0.936731
