presets/luts/vibrant_pop.cube
TITLE "Vibrant Pop"
LUT_3D_SIZE 9
0.063269 0.060087 0.057055
0.134363 0.056697 0.053826
0.262922 0.053487 0.050770
0.450474 0.050450 0.047879
0.653243 0.047576 0.045145
0.812358 0.044859 0.042560
0.908669 0.042289 0.040117
0.958096 0.039861 0.037808
0.981324 0.037567 0.035628
0.056462 0.121605 0.050880
0.120894 0.115170 0.047983
0.240141 0.109033 0.045243
0.420718 0.103185 0.042653
0.625335 0.097616 0.040204
0.793202 0.092317 0.037891
0.898112 0.087278 0.035706
0.952957 0.082489 0.033642
0.978971 0.077940 0.031694
0.050348 0.230651 0.045341
0.108606 0.219890 0.042745
0.218748 0.209495 0.040292
0.391528 0.199465 0.037974
0.596569 0.189800 0.035784
0.772638 0.180497 0.033716
0.886487 0.171555 0.031764
0.947222 0.162967 0.029921
0.976328 0.154728 0.028182
0.044865 0.393659 0.040380
0.097429 0.379040 0.038057
0.198763 0.364637 0.035862
0.363093 0.350473 0.033790
0.567122 0.336567 0.031834
0.750672 0.322939 0.029987
0.873723 0.309605 0.028244
0.940831 0.296580 0.026600
0.973363 0.283878 0.025049
0.039953 0.584367 0.035941
0.087289 0.569315 0.033864
0.180182 0.554134 0.031904
0.335585 0.538851 0.030053
0.537194 0.523495 0.028306
0.727333 0.508095 0.026659
0.859750 0.492679 0.025104
0.933720 0.477277 0.023638
0.970037 0.461918 0.022256
0.035559 0.752764 0.031974
0.078113 0.741108 0.030119
0.162985 0.729102 0.028369
0.309149 0.716751 0.026718
0.506995 0.704065 0.025160
0.702674 0.691056 0.023691
0.844506 0.677738 0.022306
0.925823 0.664124 0.021000
0.966311 0.650231 0.019769
0.031633 0.868309 0.028432
0.069828 0.861095 0.026777
0.147135 0.853554 0.025216
0.283906 0.845676 0.023743
0.476745 0.837455 0.022355
0.676776 0.828885 0.021046
0.827937 0.819960 0.019813
0.917068 0.810676 0.018650
0.962139 0.801029 0.017554
0.028127 0.934549 0.025272
0.062362 0.930675 0.023796
0.132582 0.926589 0.022405
0.259948 0.922282 0.021093
0.446665 0.917745 0.019857
0.649746 0.912968 0.018691
0.809999 0.907942 0.017593
0.907383 0.902656 0.016558
0.957473 0.897101 0.015584
0.025000 0.968673 0.022455
0.055647 0.966747 0.021140
0.119267 0.964706 0.019901
0.237342 0.962545 0.018733
0.416970 0.960257 0.017632
0.621720 0.957836 0.016595
0.790665 0.955274 0.015618
0.896694 0.952564 0.014698
0.952261 0.949698 0.013831
0.061890 0.058772 0.126224
0.131652 0.055452 0.119578
0.258391 0.052309 0.113236
0.444660 0.049335 0.107190
0.647898 0.046522 0.101430
0.808748 0.043862 0.095946
0.906699 0.041347 0.090728
0.957142 0.038971 0.085768
0.980888 0.036726 0.081054
0.055222 0.119116 0.113464
0.118418 0.112795 0.107408
0.235877 0.106770 0.101637
0.414999 0.101030 0.096143
0.619810 0.095565 0.090916
0.789319 0.090366 0.085946
0.895940 0.085423 0.081223
0.951891 0.080727 0.076738
0.978481 0.076267 0.072482
0.049236 0.226505 0.101844
0.106351 0.215883 0.096340
0.214757 0.205627 0.091103
0.385941 0.195737 0.086124
0.590897 0.186210 0.081393
0.768481 0.177046 0.076899
0.884099 0.168239 0.072634
0.946034 0.159785 0.068588
0.975779 0.151678 0.064752
0.043868 0.388061 0.091291
0.095381 0.373522 0.086303
0.195045 0.359207 0.081562
0.357674 0.345139 0.077060
0.561341 0.331337 0.072787
0.746246 0.317819 0.068733
0.871105 0.304601 0.064889
0.939508 0.291698 0.061246
0.972746 0.279122 0.057795
0.039061 0.578645 0.081732
0.085434 0.563541 0.077222
0.176735 0.548318 0.072940
0.330363 0.533004 0.068879
0.531343 0.517627 0.065027
0.722645 0.502217 0.061377
0.856890 0.486803 0.057919
0.932250 0.471414 0.054644
0.969346 0.456079 0.051545
0.034762 0.748362 0.073094
0.076437 0.736572 0.069024
0.159803 0.724433 0.065165
0.304150 0.711953 0.061508
0.501117 0.699143 0.058043
0.697738 0.686014 0.054761
0.841393 0.672581 0.051656
0.924192 0.658859 0.048717
0.965537 0.644865 0.045937
0.030921 0.865597 0.065304
0.068316 0.858259 0.061639
0.144209 0.850590 0.058167
0.279150 0.842582 0.054879
0.470883 0.834229 0.051767
0.671611 0.825524 0.048822
0.824561 0.816463 0.046037
0.915262 0.807041 0.043403
0.961273 0.797255 0.040913
0.027492 0.933096 0.058291
0.061002 0.929142 0.054997
0.129901 0.924973 0.051878
0.255451 0.920580 0.048928
0.440861 0.915952 0.046136
0.644377 0.911082 0.043497
0.806354 0.905957 0.041002
0.905388 0.900570 0.038645
0.956506 0.894910 0.036418
0.024434 0.967952 0.051990
0.054424 0.965982 0.049033
0.116819 0.963897 0.046236
0.233113 0.961688 0.043592
0.411265 0.959350 0.041092
0.616175 0.956876 0.038729
0.786747 0.954258 0.036498
0.894495 0.951490 0.034390
0.951181 0.948563 0.032400
0.060539 0.057485 0.256446
0.128987 0.054234 0.244864
0.253911 0.051156 0.233641
0.438862 0.048244 0.222781
0.642516 0.045490 0.212286
0.805085 0.042886 0.202157
0.904690 0.040425 0.192393
0.956167 0.038100 0.182992
0.980442 0.035903 0.173952
0.054008 0.116671 0.234048
0.115985 0.110464 0.223174
0.231665 0.104548 0.212666
0.409302 0.098914 0.202523
0.614254 0.093552 0.192745
0.785382 0.088452 0.183331
0.893727 0.083604 0.174278
0.950803 0.078999 0.165581
0.977980 0.074627 0.157235
0.048147 0.222412 0.213046
0.104137 0.211930 0.202890
0.210818 0.201813 0.193099
0.380384 0.192062 0.183671
0.585201 0.182674 0.174605
0.764272 0.173646 0.165895
0.881668 0.164974 0.157536
0.944821 0.156653 0.149523
0.975217 0.148677 0.141850
0.042892 0.382493 0.193452
0.093371 0.368036 0.184012
0.191380 0.353813 0.174932
0.352290 0.339844 0.166209
0.555543 0.326149 0.157838
0.741767 0.312743 0.149812
0.868442 0.299644 0.142126
0.938158 0.286864 0.134772
0.972116 0.274416 0.127741
0.038188 0.572902 0.175260
0.083615 0.557749 0.166524
0.173340 0.542488 0.158139
0.325182 0.527147 0.150101
0.525484 0.511754 0.142403
0.717908 0.496339 0.135036
0.853983 0.480931 0.127994
0.930750 0.465559 0.121268
0.968640 0.450253 0.114848
0.033981 0.743908 0.158442
0.074793 0.731984 0.150391
0.156671 0.719714 0.142680
0.299197 0.707107 0.135302
0.495239 0.694174 0.128247
0.692756 0.680928 0.121510
0.838230 0.667382 0.115079
0.922528 0.653554 0.108946
0.964746 0.639462 0.103102
0.030224 0.862838 0.142958
0.066835 0.855375 0.135567
0.141331 0.847577 0.128501
0.274443 0.839439 0.121752
0.465029 0.830952 0.115310
0.666405 0.822111 0.109167
0.821134 0.812913 0.103312
0.913420 0.803353 0.097738
0.960388 0.793428 0.092433
0.026870 0.931614 0.128756
0.059669 0.927579 0.121995
0.127267 0.923325 0.115542
0.251004 0.918844 0.109388
0.435073 0.914125 0.103523
0.638971 0.909158 0.097938
0.802657 0.903935 0.092623
0.903354 0.898445 0.087569
0.955517 0.892678 0.082765
0.023879 0.967214 0.115774
0.053227 0.965201 0.109609
0.114415 0.963069 0.103734
0.228936 0.960812 0.098138
0.405584 0.958423 0.092814
0.610599 0.955895 0.087750
0.782775 0.953221 0.082938
0.892256 0.950393 0.078366
0.950078 0.947403 0.074026
0.059215 0.056224 0.451580
0.126369 0.053040 0.436358
0.249482 0.050027 0.421255
0.433080 0.047176 0.406297
0.637097 0.044480 0.391512
0.801368 0.041932 0.376923
0.902644 0.039523 0.362553
0.955171 0.037247 0.348425
0.979986 0.035098 0.334559
0.052820 0.114269 0.421808
0.113596 0.108174 0.406845
0.227507 0.102367 0.392052
0.403630 0.096838 0.377455
0.608668 0.091577 0.363078
0.781393 0.086574 0.348940
0.891473 0.081820 0.335064
0.949691 0.077305 0.321467
0.977468 0.073019 0.308166
0.047080 0.218373 0.392593
0.101964 0.208030 0.377989
0.206933 0.198052 0.363602
0.374858 0.188440 0.349456
0.579483 0.179189 0.335570
0.760009 0.170298 0.321962
0.879193 0.161760 0.308650
0.943582 0.153572 0.295649
0.974642 0.145726 0.282970
0.041937 0.376955 0.364128
0.091400 0.362585 0.349972
0.187768 0.348456 0.336076
0.346944 0.334589 0.322458
0.549730 0.321002 0.309134
0.737238 0.307712 0.296121
0.865733 0.294733 0.283431
0.936780 0.282078 0.271075
0.971471 0.269759 0.259063
0.037334 0.567139 0.336582
0.081831 0.551942 0.322954
0.169997 0.536647 0.309619
0.320044 0.521282 0.296594
0.519618 0.505878 0.283892
0.713122 0.490462 0.271524
0.851027 0.475064 0.259499
0.929219 0.459714 0.247825
0.967918 0.444440 0.236509
0.033218 0.739403 0.310104
0.073183 0.727346 0.297068
0.153590 0.714947 0.284353
0.294290 0.702214 0.271973
0.489363 0.689160 0.259935
0.687729 0.675797 0.248249
0.835017 0.662142 0.236919
0.920831 0.648212 0.225952
0.963937 0.634024 0.215349
0.029542 0.860031 0.284815
0.065383 0.852442 0.272422
0.138502 0.844515 0.260372
0.269786 0.836244 0.248672
0.459185 0.827623 0.237330
0.661157 0.818647 0.226349
0.817655 0.809311 0.215732
0.911543 0.799612 0.205481
0.959484 0.789547 0.195596
0.026262 0.930100 0.260809
0.058363 0.925983 0.249096
0.124678 0.921644 0.237741
0.246610 0.917073 0.226746
0.429303 0.912261 0.216116
0.633529 0.907198 0.205852
0.798906 0.901874 0.195953
0.901282 0.896279 0.186419
0.954507 0.890405 0.177246
0.023337 0.966460 0.238152
0.052054 0.964403 0.227144
0.112055 0.962224 0.216501
0.224812 0.959917 0.206223
0.399929 0.957476 0.196311
0.604994 0.954893 0.186763
0.778751 0.952161 0.177577
0.889975 0.949273 0.168749
0.948951 0.946219 0.160274
0.057919 0.054990 0.662834
0.123795 0.051872 0.648917
0.245106 0.048921 0.634741
0.427317 0.046130 0.620329
0.631644 0.043491 0.605701
0.797599 0.040997 0.590880
0.900558 0.038640 0.575893
0.954153 0.036413 0.560765
0.979520 0.034310 0.545524
0.051656 0.111911 0.635267
0.111250 0.105927 0.620863
0.223401 0.100227 0.606242
0.397983 0.094801 0.591429
0.603054 0.089640 0.576447
0.777350 0.084733 0.561324
0.889178 0.080071 0.546086
0.948556 0.075645 0.530761
0.976945 0.071444 0.515378
0.046037 0.214386 0.606784
0.099831 0.204182 0.591977
0.203101 0.194344 0.577001
0.369365 0.184870 0.561883
0.573743 0.175757 0.546648
0.755695 0.167001 0.531326
0.876674 0.158598 0.515945
0.942317 0.150540 0.500533
0.974054 0.142823 0.485120
0.041002 0.371449 0.577555
0.089466 0.357168 0.562441
0.184208 0.343137 0.547211
0.341636 0.329375 0.531891
0.543904 0.315899 0.516511
0.732658 0.302726 0.501100
0.862976 0.289869 0.485687
0.935373 0.277341 0.470301
0.970813 0.265153 0.454971
0.036498 0.561358 0.547773
0.080081 0.546120 0.532456
0.166705 0.530795 0.517078
0.314949 0.515412 0.501667
0.513747 0.500000 0.486253
0.708287 0.484588 0.470866
0.848021 0.469205 0.455533
0.927657 0.453880 0.440285
0.967179 0.438642 0.425148
0.032471 0.734847 0.517644
0.071604 0.722659 0.502234
0.150558 0.710131 0.486820
0.289431 0.697274 0.471431
0.483489 0.684101 0.456096
0.682658 0.670625 0.440844
0.831752 0.656863 0.425703
0.919100 0.642832 0.410699
0.963111 0.628551 0.395860
0.028875 0.857177 0.487387
0.063961 0.849460 0.471997
0.135720 0.841402 0.456659
0.265180 0.832999 0.441403
0.453352 0.824243 0.426257
0.655870 0.815130 0.411249
0.814123 0.805656 0.396403
0.909628 0.795818 0.381746
0.958560 0.785614 0.367301
0.025667 0.928556 0.457222
0.057084 0.924355 0.441963
0.122135 0.919929 0.426812
0.242268 0.915267 0.411798
0.423553 0.910360 0.396946
0.628053 0.905199 0.382282
0.795102 0.899773 0.367829
0.899170 0.894073 0.353609
0.953475 0.888089 0.339644
0.022807 0.965690 0.427367
0.050906 0.963587 0.412348
0.109736 0.961360 0.397489
0.220741 0.959003 0.382818
0.394299 0.956509 0.368356
0.599362 0.953870 0.354128
0.774673 0.951079 0.340153
0.887651 0.948128 0.326451
0.947799 0.945010 0.313039
0.056649 0.053781 0.824362
0.121268 0.050727 0.815254
0.240781 0.047839 0.805785
0.421573 0.045107 0.795952
0.626156 0.042524 0.785753
0.793777 0.040083 0.775188
0.898432 0.037776 0.764259
0.953114 0.035597 0.752968
0.979043 0.033540 0.741319
0.050516 0.109595 0.806140
0.108946 0.103721 0.796320
0.219348 0.098126 0.786135
0.392364 0.092802 0.775584
0.597412 0.087739 0.764668
0.773254 0.082927 0.753390
0.886839 0.078356 0.741754
0.947397 0.074017 0.729766
0.976409 0.069900 0.717434
0.045015 0.210453 0.786516
0.097738 0.200388 0.775978
0.199322 0.190689 0.765076
0.363905 0.181353 0.753811
0.567983 0.172377 0.742189
0.751328 0.163756 0.730214
0.874109 0.155485 0.717894
0.941026 0.147558 0.705238
0.973453 0.139969 0.692259
0.040088 0.365976 0.765483
0.087569 0.351788 0.754232
0.180701 0.337858 0.742622
0.336367 0.324203 0.730660
0.538065 0.310840 0.718353
0.728027 0.297786 0.705710
0.860172 0.285053 0.692742
0.933937 0.272654 0.679462
0.970139 0.260597 0.665885
0.035680 0.555560 0.743056
0.078366 0.540286 0.731107
0.163464 0.524936 0.718812
0.309899 0.509538 0.706181
0.507871 0.494122 0.693224
0.703406 0.478718 0.679956
0.844966 0.463353 0.666389
0.926063 0.448058 0.652542
0.966425 0.432861 0.638431
0.031741 0.730241 0.719270
0.070056 0.717922 0.706651
0.147576 0.705267 0.693707
0.284619 0.692288 0.680449
0.477620 0.678998 0.666894
0.677542 0.665411 0.653056
0.828436 0.651544 0.638955
0.917334 0.637415 0.624610
0.962267 0.623045 0.610043
0.028223 0.854274 0.694189
0.062568 0.846428 0.680942
0.132986 0.838240 0.667397
0.260623 0.829702 0.653570
0.447531 0.820811 0.639478
0.650544 0.811560 0.625142
0.810538 0.801948 0.610583
0.907677 0.791970 0.595824
0.957616 0.781627 0.580889
0.025086 0.926981 0.667901
0.055832 0.922695 0.654083
0.119636 0.918180 0.640001
0.237977 0.913426 0.625673
0.417822 0.908423 0.611122
0.622545 0.903162 0.596370
0.791245 0.897633 0.581442
0.897018 0.891826 0.566362
0.952421 0.885731 0.551159
0.022289 0.964902 0.640524
0.049782 0.962753 0.626205
0.107460 0.960477 0.611661
0.216723 0.958068 0.596916
0.388698 0.955520 0.581994
0.593703 0.952824 0.566920
0.770542 0.949973 0.551721
0.885285 0.946960 0.536424
0.946624 0.943776 0.521059
0.055406 0.052597 0.918071
0.118784 0.049607 0.913312
0.236509 0.046779 0.908303
0.415850 0.044105 0.903036
0.620636 0.041577 0.897500
0.789901 0.039188 0.891686
0.896266 0.036931 0.885585
0.952052 0.034799 0.879186
0.978555 0.032786 0.872481
0.049400 0.107322 0.908492
0.106685 0.101555 0.903234
0.215349 0.096065 0.897708
0.386772 0.090842 0.891905
0.591744 0.085875 0.885814
0.769105 0.081156 0.879427
0.884458 0.076675 0.872733
0.946212 0.072421 0.865725
0.975861 0.068386 0.858393
0.044015 0.206572 0.897917
0.095684 0.196647 0.892124
0.195596 0.187087 0.886044
0.358480 0.177889 0.879667
0.562204 0.169048 0.872985
0.746909 0.160561 0.865988
0.871499 0.152423 0.858669
0.939707 0.144625 0.851018
0.972839 0.137162 0.843029
0.039193 0.360538 0.886272
0.085708 0.346446 0.879907
0.177246 0.332618 0.873236
0.331139 0.319072 0.866251
0.532216 0.305826 0.858944
0.723347 0.292893 0.851305
0.857320 0.280286 0.843329
0.932471 0.268016 0.835007
0.969450 0.256092 0.826335
0.034880 0.549747 0.873487
0.076685 0.534441 0.866514
0.160274 0.519069 0.859218
0.304893 0.503661 0.851592
0.501994 0.488246 0.843628
0.698477 0.472853 0.835319
0.841861 0.457512 0.826660
0.924437 0.442251 0.817644
0.965653 0.427098 0.808269
0.031026 0.725584 0.859493
0.068540 0.713136 0.851879
0.144642 0.700356 0.843927
0.279856 0.687257 0.835631
0.471757 0.673851 0.826985
0.672384 0.660156 0.817982
0.825068 0.646187 0.808620
0.915533 0.631964 0.798895
0.961403 0.617507 0.788804
0.027586 0.851323 0.844226
0.061203 0.843347 0.835943
0.130298 0.835026 0.827309
0.256118 0.826354 0.818320
0.441725 0.817326 0.808971
0.645180 0.807938 0.799259
0.806901 0.798187 0.789182
0.905688 0.788070 0.778739
0.956651 0.777588 0.767931
0.024517 0.925373 0.827633
0.054605 0.921001 0.818657
0.117182 0.916396 0.809321
0.233740 0.911548 0.799623
0.412114 0.906448 0.789559
0.617004 0.901086 0.779129
0.787334 0.895452 0.768335
0.894826 0.889536 0.757177
0.951344 0.883329 0.745659
0.021783 0.964097 0.809671
0.048682 0.961900 0.799986
0.105226 0.959575 0.789936
0.212758 0.957114 0.779520
0.383126 0.954510 0.768738
0.588019 0.951756 0.757594
0.766359 0.948844 0.746089
0.882875 0.945766 0.734231
0.945423 0.942515 0.722024
0.054188 0.051437 0.963968
0.116345 0.048510 0.961764
0.232290 0.045742 0.959431
0.410150 0.043124 0.956961
0.615085 0.040650 0.954348
0.785973 0.038312 0.951585
0.894060 0.036103 0.948663
0.950967 0.034018 0.945576
0.978056 0.032048 0.942313
0.048307 0.105090 0.959519
0.104464 0.099430 0.957054
0.211402 0.094043 0.954447
0.381211 0.088918 0.951689
0.586052 0.084048 0.948774
0.764903 0.079420 0.945692
0.882034 0.075027 0.942437
0.945003 0.070858 0.938998
0.975301 0.066904 0.935369
0.043036 0.202745 0.954546
0.093668 0.192959 0.951794
0.191923 0.183537 0.948884
0.353091 0.174476 0.945809
0.556409 0.165771 0.942560
0.742438 0.157418 0.939128
0.868842 0.149410 0.935506
0.938361 0.141741 0.931684
0.972211 0.134403 0.927652
0.038317 0.355135 0.948994
0.083884 0.341141 0.945925
0.173843 0.327419 0.942682
0.325952 0.313986 0.939258
0.526358 0.300857 0.935643
0.718617 0.288047 0.931828
0.854420 0.275567 0.927805
0.930976 0.263428 0.923563
0.968746 0.251638 0.919094
0.034097 0.543921 0.942805
0.075036 0.528586 0.939387
0.157135 0.513197 0.935779
0.299933 0.497783 0.931972
0.496116 0.482373 0.927956
0.693502 0.466996 0.923723
0.838705 0.451682 0.919263
0.922778 0.436459 0.914566
0.964865 0.421355 0.909623
0.030327 0.720878 0.935915
0.067054 0.708302 0.932116
0.141758 0.695399 0.928108
0.275142 0.682181 0.923883
0.465901 0.668663 0.919431
0.667184 0.654861 0.914743
0.821648 0.640793 0.909809
0.913697 0.626478 0.904619
0.960521 0.611939 0.899164
0.026962 0.848322 0.928259
0.059866 0.840215 0.924042
0.127657 0.831761 0.919599
0.251664 0.822954 0.914920
0.435935 0.813790 0.909995
0.639779 0.804263 0.904815
0.803211 0.794373 0.899369
0.903660 0.784117 0.893649
0.955666 0.773495 0.887644
0.023961 0.923733 0.919767
0.053404 0.919273 0.915096
0.114771 0.914577 0.910181
0.229555 0.909634 0.905010
0.406430 0.904435 0.899575
0.611432 0.898970 0.893864
0.783371 0.893230 0.887870
0.892592 0.887205 0.881582
0.950244 0.880884 0.874991
0.021287 0.963274 0.910366
0.047604 0.961029 0.905205
0.103033 0.958653 0.899779
0.208846 0.956138 0.894080
0.377585 0.953478 0.888096
0.582311 0.950665 0.881819
0.762122 0.947691 0.875239
0.880422 0.944548 0.868348
0.944197 0.941228 0.861137
0.052995 0.050302 0.984585
0.113949 0.047436 0.983621
0.228123 0.044726 0.982597
0.404474 0.042164 0.981511
0.609503 0.039743 0.980358
0.781991 0.037455 0.979134
0.891812 0.035294 0.977836
0.949859 0.033253 0.976460
0.977545 0.031327 0.975000
0.047238 0.102899 0.982636
0.102285 0.097344 0.981552
0.207509 0.092058 0.980401
0.375680 0.087032 0.979180
0.580337 0.082255 0.977885
0.760648 0.077718 0.976512
0.879565 0.073411 0.975055
0.943768 0.069325 0.973510
0.974728 0.065451 0.971873
0.042078 0.198971 0.980445
0.091691 0.189324 0.979227
0.188303 0.180040 0.977934
0.347739 0.171115 0.976564
0.550598 0.162545 0.975110
0.737917 0.154324 0.973569
0.866140 0.146446 0.971935
0.936987 0.138905 0.970203
0.971568 0.131691 0.968367
0.037460 0.349769 0.977983
0.082094 0.335876 0.976616
0.170492 0.322262 0.975165
0.320808 0.308944 0.973627
0.520493 0.295935 0.971996
0.713838 0.283249 0.970268
0.851470 0.270898 0.968436
0.929449 0.258892 0.966496
0.968026 0.247236 0.964441
0.033331 0.538082 0.975220
0.073421 0.522723 0.973685
0.154046 0.507321 0.972058
0.295019 0.491905 0.970333
0.490239 0.476505 0.968506
0.688482 0.461149 0.966569
0.835499 0.445866 0.964518
0.921086 0.430685 0.962346
0.964059 0.415633 0.960047
0.029643 0.716122 0.972120
0.065598 0.703420 0.970399
0.138921 0.690395 0.968575
0.270478 0.677061 0.966643
0.460056 0.663433 0.964596
0.661942 0.649527 0.962428
0.818177 0.635363 0.960134
0.911825 0.620960 0.957705
0.959620 0.606341 0.955135
0.026352 0.845272 0.968644
0.058556 0.837033 0.966716
0.125061 0.828445 0.964673
0.247262 0.819503 0.962510
0.430163 0.810200 0.960221
0.634343 0.800535 0.957797
0.799468 0.790505 0.955233
0.901593 0.780110 0.952520
0.954659 0.769349 0.949652
0.023417 0.922060 0.964751
0.052228 0.917511 0.962592
0.112404 0.912722 0.960307
0.225423 0.907683 0.957889
0.400770 0.902384 0.955330
0.605832 0.896815 0.952623
0.779354 0.890967 0.949760
0.890317 0.884830 0.946735
0.949120 0.878395 0.943538
0.020803 0.962433 0.960394
0.046550 0.960139 0.957980
0.100880 0.957711 0.955426
0.204988 0.955141 0.952725
0.372075 0.952424 0.949869
0.576582 0.949550 0.946849
0.757833 0.946513 0.943659
0.877924 0.943303 0.940289
0.942945 0.939913 0.936731
