presets/luts/vibrant_pop.cube
TITLE "Vibrant Pop"
LUT_3D_SIZE 33
0.063269 0.060087 0.057055
0.076776 0.059222 0.056231
0.092881 0.058369 0.055418
0.111954 0.057527 0.054617
0.134363 0.056697 0.053826
0.160448 0.055878 0.053046
0.190482 0.055070 0.052277
0.224635 0.054273 0.051519
0.262922 0.053487 0.050770
0.305166 0.052712 0.050033
0.350966 0.051948 0.049305
0.399685 0.051194 0.048587
0.450474 0.050450 0.047879
0.502316 0.049717 0.047181
0.554108 0.048993 0.046493
0.604752 0.048280 0.045814
0.653243 0.047576 0.045145
0.698748 0.046883 0.044485
0.740653 0.046198 0.043835
0.778576 0.045524 0.043193
0.812358 0.044859 0.042560
0.842032 0.044203 0.041936
0.867777 0.043556 0.041321
0.889875 0.042918 0.040715
0.908669 0.042289 0.040117
0.924527 0.041669 0.039527
0.937820 0.041058 0.038946
0.948901 0.040455 0.038373
0.958096 0.039861 0.037808
0.965696 0.039275 0.037252
0.971958 0.038697 0.036703
0.977104 0.038128 0.036161
0.981324 0.037567 0.035628
0.061499 0.071969 0.055448
0.074658 0.070946 0.054646
0.090362 0.069937 0.053855
0.108980 0.068940 0.053075
0.130882 0.067957 0.052305
0.156413 0.066987 0.051546
0.185859 0.066030 0.050798
0.219407 0.065086 0.050059
0.257098 0.064154 0.049331
0.298786 0.063234 0.048613
0.344103 0.062327 0.047905
0.392446 0.061432 0.047207
0.442993 0.060549 0.046518
0.494749 0.059678 0.045839
0.546619 0.058819 0.045170
0.597495 0.057971 0.044509
0.646356 0.057135 0.043858
0.692339 0.056310 0.043216
0.734797 0.055497 0.042583
0.773314 0.054694 0.041959
0.807701 0.053902 0.041344
0.837964 0.053121 0.040737
0.864266 0.052351 0.040139
0.886874 0.051592 0.039549
0.906126 0.050842 0.038968
0.922388 0.050104 0.038394
0.936032 0.049375 0.037829
0.947414 0.048656 0.037272
0.956864 0.047948 0.036723
0.964679 0.047249 0.036181
0.971121 0.046560 0.035647
0.976417 0.045880 0.035121
0.980761 0.045210 0.034602
0.059775 0.085986 0.053884
0.072594 0.084782 0.053103
0.087904 0.083594 0.052333
0.106075 0.082420 0.051574
0.127477 0.081262 0.050825
0.152460 0.080118 0.050086
0.181323 0.078989 0.049358
0.214267 0.077875 0.048640
0.251360 0.076775 0.047931
0.292484 0.075689 0.047232
0.337304 0.074618 0.046544
0.385253 0.073560 0.045864
0.435538 0.072516 0.045194
0.487185 0.071486 0.044534
0.539107 0.070469 0.043882
0.590195 0.069466 0.043240
0.639407 0.068476 0.042606
0.685855 0.067499 0.041982
0.728857 0.066535 0.041366
0.767964 0.065584 0.040759
0.802956 0.064646 0.040161
0.833813 0.063720 0.039571
0.860676 0.062806 0.038989
0.883802 0.061905 0.038415
0.903519 0.061015 0.037850
0.920193 0.060138 0.037292
0.934195 0.059273 0.036743
0.945885 0.058419 0.036201
0.955597 0.057576 0.035667
0.963633 0.056746 0.035140
0.970260 0.055926 0.034621
0.975710 0.055118 0.034110
0.980181 0.054320 0.033605
0.058096 0.102432 0.052361
0.070582 0.101023 0.051602
0.085508 0.099632 0.050852
0.103239 0.098257 0.050113
0.124148 0.096900 0.049385
0.148590 0.095559 0.048666
0.176873 0.094235 0.047957
0.209216 0.092927 0.047258
0.245707 0.091636 0.046569
0.286260 0.090360 0.045889
0.330572 0.089101 0.045219
0.378110 0.087858 0.044558
0.428112 0.086630 0.043906
0.479627 0.085418 0.043263
0.531579 0.084221 0.042630
0.582855 0.083040 0.042005
0.632399 0.081873 0.041389
0.679297 0.080722 0.040781
0.722834 0.079585 0.040183
0.762527 0.078463 0.039592
0.798123 0.077355 0.039010
0.829576 0.076262 0.038436
0.857006 0.075183 0.037870
0.880657 0.074118 0.037313
0.900848 0.073067 0.036763
0.917942 0.072030 0.036221
0.932310 0.071006 0.035686
0.944315 0.069996 0.035160
0.954295 0.068999 0.034640
0.962558 0.068015 0.034128
0.969374 0.067044 0.033624
0.974982 0.066086 0.033126
0.979585 0.065141 0.032636
0.056462 0.121605 0.050880
0.068622 0.119968 0.050140
0.083171 0.118350 0.049411
0.100470 0.116750 0.048692
0.120894 0.115170 0.047983
0.144802 0.113608 0.047284
0.172509 0.112065 0.046594
0.204252 0.110540 0.045914
0.240141 0.109033 0.045243
0.280116 0.107544 0.044582
0.323909 0.106074 0.043930
0.371020 0.104621 0.043287
0.420718 0.103185 0.042653
0.472078 0.101767 0.042028
0.524035 0.100366 0.041411
0.575478 0.098983 0.040804
0.625335 0.097616 0.040204
0.672668 0.096267 0.039614
0.716730 0.094934 0.039031
0.757003 0.093617 0.038457
0.793202 0.092317 0.037891
0.825254 0.091034 0.037333
0.853257 0.089766 0.036783
0.877439 0.088514 0.036241
0.898112 0.087278 0.035706
0.915633 0.086058 0.035179
0.930375 0.084853 0.034659
0.942702 0.083663 0.034147
0.952957 0.082489 0.033642
0.961451 0.081330 0.033145
0.968463 0.080185 0.032654
0.974233 0.079055 0.032171
0.978971 0.077940 0.031694
0.054871 0.143792 0.049438
0.066713 0.141904 0.048718
0.080892 0.140037 0.048009
0.097768 0.138191 0.047309
0.117714 0.136365 0.046619
0.141094 0.134559 0.045939
0.168231 0.132774 0.045268
0.199377 0.131009 0.044606
0.234662 0.129264 0.043954
0.274053 0.127538 0.043310
0.317316 0.125833 0.042676
0.363984 0.124146 0.042050
0.413360 0.122480 0.041434
0.464542 0.120832 0.040826
0.516481 0.119204 0.040226
0.568067 0.117595 0.039635
0.618217 0.116004 0.039053
0.665969 0.114433 0.038478
0.710544 0.112880 0.037912
0.751392 0.111345 0.037353
0.788193 0.109829 0.036803
0.820846 0.108330 0.036260
0.849427 0.106850 0.035725
0.874147 0.105388 0.035198
0.895309 0.103943 0.034678
0.913265 0.102516 0.034166
0.928388 0.101106 0.033661
0.941045 0.099713 0.033163
0.951581 0.098338 0.032672
0.960314 0.096979 0.032188
0.967525 0.095638 0.031711
0.973462 0.094312 0.031241
0.978338 0.093004 0.030778
0.053322 0.169246 0.048035
0.064853 0.167090 0.047335
0.078670 0.164955 0.046644
0.095130 0.162842 0.045963
0.114607 0.160752 0.045292
0.137466 0.158682 0.044630
0.164039 0.156635 0.043977
0.194589 0.154609 0.043334
0.229269 0.152605 0.042699
0.268073 0.150622 0.042073
0.310796 0.148660 0.041456
0.357007 0.146719 0.040848
0.406040 0.144800 0.040248
0.457022 0.142901 0.039657
0.508919 0.141023 0.039074
0.560626 0.139166 0.038499
0.611049 0.137329 0.037932
0.659202 0.135513 0.037374
0.704280 0.133717 0.036823
0.745695 0.131941 0.036280
0.783096 0.130185 0.035745
0.816352 0.128449 0.035217
0.845514 0.126733 0.034697
0.870779 0.125037 0.034185
0.892437 0.123360 0.033679
0.910838 0.121702 0.033181
0.926350 0.120064 0.032690
0.939343 0.118445 0.032206
0.950167 0.116844 0.031729
0.959144 0.115263 0.031259
0.966561 0.113700 0.030795
0.972669 0.112155 0.030338
0.977688 0.110629 0.029888
0.051815 0.198164 0.046670
0.063041 0.195726 0.045988
0.076504 0.193310 0.045317
0.092557 0.190918 0.044654
0.111571 0.188547 0.044001
0.133916 0.186200 0.043357
0.159930 0.183875 0.042722
0.189890 0.181573 0.042096
0.223965 0.179293 0.041479
0.262176 0.177036 0.040870
0.304350 0.174801 0.040270
0.350089 0.172588 0.039678
0.398762 0.170397 0.039095
0.449521 0.168229 0.038520
0.501354 0.166083 0.037953
0.553157 0.163958 0.037394
0.603831 0.161856 0.036843
0.652370 0.159775 0.036300
0.697937 0.157717 0.035765
0.739913 0.155679 0.035237
0.777911 0.153664 0.034716
0.811771 0.151669 0.034203
0.841519 0.149696 0.033698
0.867335 0.147744 0.033199
0.889497 0.145814 0.032708
0.908349 0.143904 0.032224
0.924258 0.142015 0.031746
0.937595 0.140147 0.031276
0.948714 0.138299 0.030812
0.957941 0.136472 0.030355
0.965568 0.134665 0.029904
0.971853 0.132879 0.029460
0.977018 0.131113 0.029023
0.050348 0.230651 0.045341
0.061277 0.227927 0.044679
0.074392 0.225225 0.044025
0.090046 0.222546 0.043381
0.108606 0.219890 0.042745
0.130444 0.217257 0.042119
0.155905 0.214647 0.041501
0.185277 0.212059 0.040892
0.218748 0.209495 0.040292
0.256364 0.206953 0.039700
0.297980 0.204434 0.039116
0.343234 0.201938 0.038541
0.391528 0.199465 0.037974
0.442043 0.197014 0.037415
0.493787 0.194587 0.036863
0.545664 0.192182 0.036320
0.596569 0.189800 0.035784
0.645475 0.187440 0.035256
0.691519 0.185103 0.034735
0.734046 0.182789 0.034222
0.772638 0.180497 0.033716
0.807102 0.178228 0.033217
0.837441 0.175981 0.032726
0.863813 0.173757 0.032241
0.886487 0.171555 0.031764
0.905798 0.169374 0.031293
0.922112 0.167216 0.030829
0.935801 0.165081 0.030372
0.947222 0.162967 0.029921
0.956705 0.160874 0.029477
0.964548 0.158804 0.029039
0.971013 0.156755 0.028607
0.976328 0.154728 0.028182
0.048920 0.266693 0.044049
0.059559 0.263689 0.043404
0.072335 0.260706 0.042769
0.087596 0.257746 0.042142
0.105711 0.254807 0.041524
0.127049 0.251891 0.040915
0.151964 0.248997 0.040314
0.180752 0.246125 0.039722
0.213620 0.243276 0.039138
0.250636 0.240449 0.038562
0.291688 0.237644 0.037995
0.336444 0.234862 0.037435
0.384342 0.232103 0.036883
0.434592 0.229367 0.036340
0.486223 0.226653 0.035804
0.538151 0.223962 0.035275
0.589263 0.221294 0.034754
0.638519 0.218649 0.034241
0.685025 0.216026 0.033735
0.728095 0.213426 0.033236
0.767277 0.210850 0.032744
0.802346 0.208296 0.032259
0.833278 0.205765 0.031781
0.860213 0.203257 0.031310
0.883406 0.200771 0.030846
0.903183 0.198309 0.030388
0.919910 0.195869 0.029937
0.933958 0.193452 0.029493
0.945688 0.191058 0.029055
0.955434 0.188687 0.028623
0.963498 0.186338 0.028197
0.970149 0.184012 0.027778
0.975618 0.181708 0.027365
0.047531 0.306125 0.042792
0.057886 0.302860 0.042165
0.070330 0.299615 0.041547
0.085207 0.296390 0.040937
0.102883 0.293185 0.040336
0.123730 0.290000 0.039743
0.148104 0.286836 0.039159
0.176313 0.283693 0.038583
0.208579 0.280570 0.038015
0.244995 0.277469 0.037456
0.285474 0.274389 0.036904
0.329721 0.271330 0.036360
0.377205 0.268292 0.035823
0.427170 0.265277 0.035295
0.478666 0.262283 0.034773
0.530620 0.259311 0.034260
0.581918 0.256360 0.033753
0.631504 0.253432 0.033254
0.678458 0.250527 0.032762
0.722062 0.247643 0.032277
0.761829 0.244782 0.031799
0.797502 0.241943 0.031327
0.829031 0.239126 0.030863
0.856534 0.236333 0.030405
0.880252 0.233561 0.029954
0.900504 0.230813 0.029509
0.917651 0.228087 0.029071
0.932067 0.225384 0.028639
0.944112 0.222704 0.028213
0.954127 0.220047 0.027793
0.962419 0.217412 0.027380
0.969260 0.214800 0.026972
0.974888 0.212211 0.026571
0.046180 0.348616 0.041569
0.056257 0.345124 0.040959
0.068377 0.341648 0.040358
0.082877 0.338188 0.039765
0.100123 0.334746 0.039180
0.120486 0.331322 0.038604
0.144326 0.327915 0.038036
0.171960 0.324526 0.037476
0.203627 0.321156 0.036924
0.239439 0.317804 0.036379
0.279340 0.314471 0.035843
0.323066 0.311157 0.035314
0.370122 0.307862 0.034792
0.419780 0.304587 0.034278
0.471119 0.301331 0.033772
0.523075 0.298095 0.033272
0.574537 0.294880 0.032780
0.624433 0.291684 0.032294
0.671820 0.288509 0.031816
0.715947 0.285355 0.031345
0.756294 0.282221 0.030880
0.792570 0.279109 0.030422
0.824698 0.276017 0.029970
0.852774 0.272947 0.029525
0.877024 0.269898 0.029087
0.897759 0.266871 0.028655
0.915335 0.263865 0.028229
0.930125 0.260882 0.027809
0.942493 0.257920 0.027395
0.952784 0.254980 0.026987
0.961308 0.252063 0.026585
0.968345 0.249167 0.026189
0.974136 0.246294 0.025799
0.044865 0.393659 0.040380
0.054672 0.389985 0.039787
0.066474 0.386324 0.039202
0.080606 0.382675 0.038625
0.097429 0.379040 0.038057
0.117315 0.375418 0.037496
0.140628 0.371810 0.036944
0.167693 0.368216 0.036399
0.198763 0.364637 0.035862
0.233971 0.361073 0.035333
0.273288 0.357524 0.034811
0.316483 0.353990 0.034297
0.363093 0.350473 0.033790
0.412427 0.346971 0.033290
0.463584 0.343486 0.032798
0.515520 0.340018 0.032312
0.567122 0.336567 0.031834
0.617308 0.333133 0.031362
0.665112 0.329717 0.030897
0.709752 0.326319 0.030439
0.750672 0.322939 0.029987
0.787550 0.319577 0.029542
0.820279 0.316234 0.029103
0.848934 0.312910 0.028670
0.873723 0.309605 0.028244
0.894947 0.306319 0.027824
0.912960 0.303053 0.027410
0.928132 0.299806 0.027002
0.940831 0.296580 0.026600
0.951403 0.293374 0.026204
0.960167 0.290188 0.025813
0.967404 0.287023 0.025428
0.973363 0.283878 0.025049
0.043585 0.440586 0.039223
0.053128 0.436789 0.038646
0.064620 0.433000 0.038078
0.078391 0.429219 0.037517
0.094800 0.425446 0.036964
0.114217 0.421682 0.036419
0.137010 0.417927 0.035882
0.163511 0.414181 0.035352
0.193987 0.410446 0.034830
0.228590 0.406720 0.034316
0.267318 0.403005 0.033809
0.309972 0.399302 0.033309
0.356123 0.395610 0.032816
0.405112 0.391929 0.032330
0.456066 0.388261 0.031851
0.507957 0.384606 0.031379
0.559677 0.380963 0.030914
0.610133 0.377334 0.030455
0.658337 0.373719 0.030003
0.703477 0.370118 0.029558
0.744964 0.366531 0.029119
0.782442 0.362958 0.028686
0.815774 0.359401 0.028260
0.845011 0.355859 0.027839
0.870345 0.352333 0.027425
0.892067 0.348823 0.027017
0.910524 0.345330 0.026615
0.926087 0.341852 0.026218
0.939123 0.338392 0.025827
0.949985 0.334949 0.025442
0.958993 0.331524 0.025063
0.966436 0.328116 0.024689
0.972567 0.324726 0.024320
0.042341 0.488598 0.038098
0.051626 0.484747 0.037537
0.062814 0.480897 0.036984
0.076232 0.477049 0.036439
0.092234 0.473205 0.035902
0.111190 0.469363 0.035372
0.133470 0.465525 0.034850
0.159413 0.461691 0.034335
0.189298 0.457862 0.033827
0.223297 0.454038 0.033327
0.261432 0.450219 0.032834
0.303536 0.446406 0.032348
0.349214 0.442599 0.031869
0.397839 0.438799 0.031396
0.448568 0.435006 0.030931
0.500391 0.431220 0.030472
0.552205 0.427443 0.030020
0.602910 0.423674 0.029574
0.651497 0.419914 0.029135
0.697125 0.416164 0.028702
0.739171 0.412423 0.028275
0.777245 0.408692 0.027855
0.811182 0.404971 0.027440
0.841005 0.401262 0.027032
0.866891 0.397563 0.026629
0.889118 0.393877 0.026233
0.908028 0.390202 0.025842
0.923988 0.386540 0.025456
0.937370 0.382891 0.025077
0.948527 0.379254 0.024702
0.957786 0.375632 0.024334
0.965440 0.372023 0.023970
0.971747 0.368428 0.023612
0.041130 0.536822 0.037005
0.050164 0.532986 0.036459
0.061056 0.529147 0.035921
0.074128 0.525304 0.035391
0.089731 0.521458 0.034869
0.108234 0.517610 0.034354
0.130008 0.513759 0.033846
0.155399 0.509907 0.033345
0.184697 0.506054 0.032852
0.218091 0.502200 0.032365
0.255630 0.498346 0.031886
0.297175 0.494492 0.031414
0.342367 0.490638 0.030948
0.390611 0.486786 0.030489
0.441094 0.482935 0.030036
0.492825 0.479086 0.029590
0.544710 0.475240 0.029151
0.595642 0.471397 0.028718
0.644594 0.467557 0.028291
0.690697 0.463721 0.027870
0.733294 0.459889 0.027455
0.771961 0.456062 0.027047
0.806502 0.452240 0.026644
0.836916 0.448424 0.026247
0.863360 0.444614 0.025856
0.886099 0.440810 0.025470
0.905469 0.437013 0.025091
0.921835 0.433224 0.024716
0.935569 0.429442 0.024347
0.947029 0.425669 0.023984
0.956545 0.421904 0.023625
0.964416 0.418149 0.023272
0.970904 0.414402 0.022924
0.039953 0.584367 0.035941
0.048742 0.580617 0.035411
0.059344 0.576859 0.034888
0.072077 0.573091 0.034372
0.087289 0.569315 0.033864
0.105347 0.565531 0.033363
0.126623 0.561739 0.032870
0.151468 0.557940 0.032383
0.180182 0.554134 0.031904
0.212974 0.550322 0.031431
0.249914 0.546503 0.030965
0.290893 0.542680 0.030506
0.335585 0.538851 0.030053
0.383431 0.535018 0.029607
0.433646 0.531181 0.029167
0.485262 0.527340 0.028734
0.537194 0.523495 0.028306
0.588331 0.519648 0.027885
0.637630 0.515799 0.027471
0.684193 0.511947 0.027062
0.727333 0.508095 0.026659
0.766589 0.504241 0.026262
0.801735 0.500387 0.025870
0.832743 0.496532 0.025484
0.859750 0.492679 0.025104
0.883008 0.488826 0.024730
0.902846 0.484974 0.024361
0.919626 0.481124 0.023997
0.933720 0.477277 0.023638
0.945490 0.473432 0.023285
0.955269 0.469590 0.022937
0.963362 0.465752 0.022594
0.970037 0.461918 0.022256
0.038808 0.630391 0.034907
0.047357 0.626792 0.034391
0.057676 0.623178 0.033883
0.070079 0.619551 0.033382
0.084908 0.615911 0.032888
0.102528 0.612257 0.032401
0.123313 0.608591 0.031921
0.147619 0.604912 0.031448
0.175755 0.601222 0.030982
0.207945 0.597520 0.030522
0.244283 0.593806 0.030069
0.284689 0.590082 0.029623
0.328870 0.586348 0.029183
0.376301 0.582604 0.028749
0.426228 0.578850 0.028322
0.477705 0.575087 0.027901
0.529661 0.571315 0.027486
0.580981 0.567536 0.027077
0.630607 0.563748 0.026673
0.677617 0.559952 0.026276
0.721289 0.556150 0.025884
0.761130 0.552341 0.025499
0.796880 0.548526 0.025118
0.828485 0.544705 0.024744
0.856060 0.540879 0.024374
0.879845 0.537048 0.024010
0.900158 0.533213 0.023652
0.917360 0.529374 0.023298
0.931822 0.525531 0.022950
0.943909 0.521686 0.022607
0.953958 0.517837 0.022269
0.962279 0.513987 0.021935
0.969145 0.510135 0.021607
0.037695 0.674161 0.033901
0.046010 0.670765 0.033400
0.056053 0.667352 0.032906
0.068132 0.663920 0.032419
0.082585 0.660472 0.031939
0.099777 0.657006 0.031465
0.120078 0.653523 0.030999
0.143851 0.650024 0.030539
0.171413 0.646509 0.030086
0.203004 0.642978 0.029639
0.238739 0.639431 0.029199
0.278566 0.635868 0.028765
0.322225 0.632291 0.028338
0.369224 0.628700 0.027916
0.418843 0.625094 0.027501
0.470159 0.621474 0.027092
0.522114 0.617840 0.026688
0.573595 0.614193 0.026291
0.623529 0.610534 0.025899
0.670970 0.606862 0.025513
0.715164 0.603177 0.025132
0.755584 0.599481 0.024757
0.791936 0.595774 0.024388
0.824141 0.592056 0.024024
0.852290 0.588327 0.023665
0.876609 0.584588 0.023311
0.897405 0.580839 0.022963
0.915036 0.577081 0.022619
0.929874 0.573314 0.022281
0.942284 0.569538 0.021948
0.952610 0.565754 0.021619
0.961165 0.561963 0.021295
0.968227 0.558164 0.020976
0.036612 0.715090 0.032924
0.044700 0.711939 0.032437
0.054473 0.708767 0.031956
0.066235 0.705574 0.031483
0.080321 0.702361 0.031016
0.097091 0.699128 0.030556
0.116917 0.695875 0.030103
0.140163 0.692603 0.029656
0.167157 0.689311 0.029215
0.198151 0.685999 0.028781
0.233282 0.682669 0.028353
0.272524 0.679320 0.027932
0.315651 0.675952 0.027516
0.362204 0.672566 0.027107
0.411494 0.669162 0.026703
0.462627 0.665740 0.026305
0.514558 0.662300 0.025913
0.566177 0.658843 0.025527
0.616398 0.655370 0.025146
0.664254 0.651879 0.024771
0.708958 0.648372 0.024401
0.749951 0.644849 0.024037
0.786905 0.641311 0.023678
0.819711 0.637757 0.023324
0.848439 0.634187 0.022975
0.873297 0.630603 0.022632
0.894585 0.627005 0.022293
0.912653 0.623392 0.021960
0.927875 0.619766 0.021631
0.940616 0.616126 0.021307
0.951225 0.612473 0.020988
0.960019 0.608808 0.020674
0.967282 0.605130 0.020364
0.035559 0.752764 0.031974
0.043425 0.749883 0.031500
0.052935 0.746980 0.031033
0.064387 0.744055 0.030573
0.078113 0.741108 0.030119
0.094470 0.738139 0.029672
0.113828 0.735148 0.029231
0.136555 0.732136 0.028797
0.162985 0.729102 0.028369
0.193385 0.726046 0.027947
0.227912 0.722968 0.027531
0.266565 0.719870 0.027121
0.309149 0.716751 0.026718
0.355241 0.713610 0.026320
0.404185 0.710449 0.025927
0.455111 0.707267 0.025541
0.506995 0.704065 0.025160
0.558728 0.700843 0.024785
0.609217 0.697600 0.024415
0.657471 0.694338 0.024050
0.702674 0.691056 0.023691
0.744232 0.687755 0.023337
0.781786 0.684435 0.022988
0.815195 0.681096 0.022644
0.844506 0.677738 0.022306
0.869910 0.674361 0.021972
0.891696 0.670966 0.021643
0.910210 0.667554 0.021319
0.925823 0.664124 0.021000
0.938903 0.660676 0.020685
0.949801 0.657211 0.020375
0.958841 0.653730 0.020070
0.966311 0.650231 0.019769
0.034536 0.786940 0.031050
0.042185 0.784343 0.030590
0.051438 0.781724 0.030136
0.062588 0.779082 0.029688
0.075961 0.776417 0.029247
0.091912 0.773729 0.028813
0.110810 0.771019 0.028385
0.133025 0.768286 0.027962
0.158898 0.765530 0.027546
0.188708 0.762751 0.027136
0.222630 0.759950 0.026732
0.260690 0.757126 0.026334
0.302722 0.754280 0.025942
0.348339 0.751411 0.025555
0.396917 0.748520 0.025174
0.447616 0.745607 0.024798
0.499429 0.742672 0.024428
0.551253 0.739714 0.024063
0.601988 0.736735 0.023704
0.650622 0.733734 0.023350
0.696312 0.730711 0.023001
0.738428 0.727667 0.022657
0.776578 0.724601 0.022318
0.810591 0.721513 0.021984
0.840490 0.718405 0.021655
0.866446 0.715276 0.021331
0.888738 0.712126 0.021011
0.907706 0.708955 0.020697
0.923717 0.705763 0.020386
0.937143 0.702552 0.020081
0.948338 0.699320 0.019780
0.957630 0.696068 0.019483
0.965311 0.692797 0.019191
0.033541 0.817537 0.030152
0.040979 0.815226 0.029705
0.049981 0.812892 0.029264
0.060835 0.810536 0.028829
0.073864 0.808157 0.028400
0.089417 0.805755 0.027978
0.107863 0.803331 0.027562
0.129573 0.800884 0.027151
0.154895 0.798414 0.026747
0.184118 0.795921 0.026349
0.217435 0.793405 0.025956
0.254899 0.790867 0.025569
0.296372 0.788305 0.025188
0.341501 0.785721 0.024812
0.389695 0.783114 0.024442
0.440145 0.780484 0.024077
0.491862 0.777831 0.023717
0.543755 0.775156 0.023363
0.594714 0.772457 0.023014
0.643711 0.769736 0.022669
0.689874 0.766992 0.022330
0.732540 0.764225 0.021996
0.771283 0.761436 0.021667
0.805900 0.758624 0.021343
0.836390 0.755790 0.021023
0.862905 0.752933 0.020708
0.885710 0.750054 0.020398
0.905139 0.747153 0.020092
0.921557 0.744229 0.019791
0.935337 0.741283 0.019494
0.946835 0.738315 0.019201
0.956385 0.735326 0.018913
0.964283 0.732314 0.018629
0.032573 0.844607 0.029280
0.039806 0.842573 0.028845
0.048563 0.840517 0.028416
0.059129 0.838440 0.027993
0.071820 0.836341 0.027577
0.086983 0.834219 0.027166
0.104985 0.832076 0.026762
0.126198 0.829911 0.026363
0.150974 0.827724 0.025970
0.179614 0.825514 0.025583
0.212329 0.823282 0.025202
0.249193 0.821028 0.024826
0.290099 0.818751 0.024455
0.334727 0.816452 0.024090
0.382521 0.814131 0.023730
0.432701 0.811786 0.023376
0.484300 0.809419 0.023026
0.536236 0.807030 0.022682
0.587398 0.804617 0.022343
0.636740 0.802182 0.022009
0.683361 0.799725 0.021679
0.726568 0.797244 0.021355
0.765900 0.794740 0.021035
0.801122 0.792214 0.020720
0.832206 0.789665 0.020409
0.859285 0.787092 0.020103
0.882610 0.784497 0.019802
0.902508 0.781880 0.019505
0.919341 0.779239 0.019212
0.933482 0.776575 0.018924
0.945291 0.773889 0.018639
0.955105 0.771180 0.018359
0.963226 0.768448 0.018084
0.031633 0.868309 0.028432
0.038665 0.866536 0.028009
0.047184 0.864743 0.027592
0.057467 0.862929 0.027181
0.069828 0.861095 0.026777
0.084609 0.859241 0.026378
0.102175 0.857366 0.025985
0.122898 0.855470 0.025597
0.147135 0.853554 0.025216
0.175198 0.851616 0.024839
0.207311 0.849657 0.024469
0.243573 0.847677 0.024103
0.283906 0.845676 0.023743
0.328021 0.843653 0.023389
0.375398 0.841609 0.023039
0.425287 0.839543 0.022695
0.476745 0.837455 0.022355
0.528702 0.835345 0.022021
0.580044 0.833214 0.021691
0.629710 0.831060 0.021366
0.676776 0.828885 0.021046
0.720514 0.826687 0.020731
0.760429 0.824467 0.020420
0.796256 0.822225 0.020114
0.827937 0.819960 0.019813
0.855585 0.817673 0.019515
0.879438 0.815363 0.019223
0.899812 0.813031 0.018934
0.917068 0.810676 0.018650
0.931577 0.808298 0.018370
0.943704 0.805898 0.018094
0.953789 0.803475 0.017822
0.962139 0.801029 0.017554
0.030719 0.888871 0.027607
0.037555 0.887339 0.027196
0.045842 0.885788 0.026791
0.055850 0.884219 0.026392
0.067888 0.882631 0.025999
0.082294 0.881025 0.025612
0.099431 0.879399 0.025230
0.119672 0.877755 0.024853
0.143377 0.876091 0.024482
0.170867 0.874407 0.024117
0.202381 0.872705 0.023757
0.238040 0.870982 0.023402
0.277793 0.869240 0.023052
0.321385 0.867477 0.022707
0.368328 0.865695 0.022368
0.417906 0.863892 0.022033
0.469200 0.862069 0.021703
0.521154 0.860226 0.021378
0.572654 0.858362 0.021058
0.622625 0.856477 0.020743
0.670120 0.854571 0.020432
0.714379 0.852645 0.020125
0.754872 0.850697 0.019824
0.791301 0.848728 0.019526
0.823582 0.846738 0.019233
0.851805 0.844727 0.018945
0.876191 0.842694 0.018660
0.897050 0.840639 0.018380
0.914736 0.838563 0.018104
0.929623 0.836465 0.017832
0.942075 0.834345 0.017564
0.952436 0.832203 0.017300
0.961021 0.830040 0.017040
0.029830 0.906568 0.026806
0.036477 0.905254 0.026407
0.044536 0.903923 0.026014
0.054275 0.902576 0.025626
0.065997 0.901212 0.025244
0.080037 0.899830 0.024867
0.096754 0.898432 0.024496
0.116520 0.897017 0.024130
0.139700 0.895584 0.023770
0.166621 0.894133 0.023415
0.197540 0.892665 0.023065
0.232594 0.891179 0.022720
0.271762 0.889675 0.022380
0.314820 0.888152 0.022045
0.361315 0.886612 0.021715
0.410562 0.885052 0.021390
0.461670 0.883475 0.021070
0.513596 0.881878 0.020754
0.565231 0.880263 0.020443
0.615488 0.878628 0.020137
0.663395 0.876974 0.019835
0.708163 0.875301 0.019537
0.749228 0.873609 0.019244
0.786259 0.871897 0.018955
0.819141 0.870165 0.018671
0.847943 0.868413 0.018390
0.872871 0.866641 0.018114
0.894221 0.864849 0.017842
0.912346 0.863037 0.017574
