presets/luts/warm_film.cube
TITLE "Warm Film Look"
LUT_3D_SIZE 9
0.053151 0.050211 0.047426
0.109828 0.050211 0.047426
0.213325 0.050211 0.047426
0.373437 0.050211 0.047426
0.567093 0.050211 0.047426
0.742213 0.050211 0.047426
0.863539 0.050211 0.047426
0.932924 0.050211 0.047426
0.968324 0.050211 0.047426
0.053151 0.099302 0.047426
0.109828 0.099302 0.047426
0.213325 0.099302 0.047426
0.373437 0.099302 0.047426
0.567093 0.099302 0.047426
0.742213 0.099302 0.047426
0.863539 0.099302 0.047426
0.932924 0.099302 0.047426
0.968324 0.099302 0.047426
0.053151 0.186943 0.047426
0.109828 0.186943 0.047426
0.213325 0.186943 0.047426
0.373437 0.186943 0.047426
0.567093 0.186943 0.047426
0.742213 0.186943 0.047426
0.863539 0.186943 0.047426
0.932924 0.186943 0.047426
0.968324 0.186943 0.047426
0.053151 0.324098 0.047426
0.109828 0.324098 0.047426
0.213325 0.324098 0.047426
0.373437 0.324098 0.047426
0.567093 0.324098 0.047426
0.742213 0.324098 0.047426
0.863539 0.324098 0.047426
0.932924 0.324098 0.047426
0.968324 0.324098 0.047426
0.053151 0.500000 0.047426
0.109828 0.500000 0.047426
0.213325 0.500000 0.047426
0.373437 0.500000 0.047426
0.567093 0.500000 0.047426
0.742213 0.500000 0.047426
0.863539 0.500000 0.047426
0.932924 0.500000 0.047426
0.968324 0.500000 0.047426
0.053151 0.675902 0.047426
0.109828 0.675902 0.047426
0.213325 0.675902 0.047426
0.373437 0.675902 0.047426
0.567093 0.675902 0.047426
0.742213 0.675902 0.047426
0.863539 0.675902 0.047426
0.932924 0.675902 0.047426
0.968324 0.675902 0.047426
0.053151 0.813057 0.047426
0.109828 0.813057 0.047426
0.213325 0.813057 0.047426
0.373437 0.813057 0.047426
0.567093 0.813057 0.047426
0.742213 0.813057 0.047426
0.863539 0.813057 0.047426
0.932924 0.813057 0.047426
0.968324 0.813057 0.047426
0.053151 0.900698 0.047426
0.109828 0.900698 0.047426
0.213325 0.900698 0.047426
0.373437 0.900698 0.047426
0.567093 0.900698 0.047426
0.742213 0.900698 0.047426
0.863539 0.900698 0.047426
0.932924 0.900698 0.047426
0.968324 0.900698 0.047426
0.053151 0.949789 0.047426
0.109828 0.949789 0.047426
0.213325 0.949789 0.047426
0.373437 0.949789 0.047426
0.567093 0.949789 0.047426
0.742213 0.949789 0.047426
0.863539 0.949789 0.047426
0.932924 0.949789 0.047426
0.968324 0.949789 0.047426
0.053151 0.050211 0.090298
0.109828 0.050211 0.090298
0.213325 0.050211 0.090298
0.373437 0.050211 0.090298
0.567093 0.050211 0.090298
0.742213 0.050211 0.090298
0.863539 0.050211 0.090298
0.932924 0.050211 0.090298
0.968324 0.050211 0.090298
0.053151 0.099302 0.090298
0.109828 0.099302 0.090298
0.213325 0.099302 0.090298
0.373437 0.099302 0.090298
0.567093 0.099302 0.090298
0.742213 0.099302 0.090298
0.863539 0.099302 0.090298
0.932924 0.099302 0.090298
0.968324 0.099302 0.090298
0.053151 0.186943 0.090298
0.109828 0.186943 0.090298
0.213325 0.186943 0.090298
0.373437 0.186943 0.090298
0.567093 0.186943 0.090298
0.742213 0.186943 0.090298
0.863539 0.186943 0.090298
0.932924 0.186943 0.090298
0.968324 0.186943 0.090298
0.053151 0.324098 0.090298
0.109828 0.324098 0.090298
0.213325 0.324098 0.090298
0.373437 0.324098 0.090298
0.567093 0.324098 0.090298
0.742213 0.324098 0.090298
0.863539 0.324098 0.090298
0.932924 0.324098 0.090298
0.968324 0.324098 0.090298
0.053151 0.500000 0.090298
0.109828 0.500000 0.090298
0.213325 0.500000 0.090298
0.373437 0.500000 0.090298
0.567093 0.500000 0.090298
0.742213 0.500000 0.090298
0.863539 0.500000 0.090298
0.932924 0.500000 0.090298
0.968324 0.500000 0.090298
0.053151 0.675902 0.090298
0.109828 0.675902 0.090298
0.213325 0.675902 0.090298
0.373437 0.675902 0.090298
0.567093 0.675902 0.090298
0.742213 0.675902 0.090298
0.863539 0.675902 0.090298
0.932924 0.675902 0.090298
0.968324 0.675902 0.090298
0.053151 0.813057 0.090298
0.109828 0.813057 0.090298
0.213325 0.813057 0.090298
0.373437 0.813057 0.090298
0.567093 0.813057 0.090298
0.742213 0.813057 0.090298
0.863539 0.813057 0.090298
0.932924 0.813057 0.090298
0.968324 0.813057 0.090298
0.053151 0.900698 0.090298
0.109828 0.900698 0.090298
0.213325 0.900698 0.090298
0.373437 0.900698 0.090298
0.567093 0.900698 0.090298
0.742213 0.900698 0.090298
0.863539 0.900698 0.090298
0.932924 0.900698 0.090298
0.968324 0.900698 0.090298
0.053151 0.949789 0.090298
0.109828 0.949789 0.090298
0.213325 0.949789 0.090298
0.373437 0.949789 0.090298
0.567093 0.949789 0.090298
0.742213 0.949789 0.090298
0.863539 0.949789 0.090298
0.932924 0.949789 0.090298
0.968324 0.949789 0.090298
0.053151 0.050211 0.165205
0.109828 0.050211 0.165205
0.213325 0.050211 0.165205
0.373437 0.050211 0.165205
0.567093 0.050211 0.165205
0.742213 0.050211 0.165205
0.863539 0.050211 0.165205
0.932924 0.050211 0.165205
0.968324 0.050211 0.165205
0.053151 0.099302 0.165205
0.109828 0.099302 0.165205
0.213325 0.099302 0.165205
0.373437 0.099302 0.165205
0.567093 0.099302 0.165205
0.742213 0.099302 0.165205
0.863539 0.099302 0.165205
0.932924 0.099302 0.165205
0.968324 0.099302 0.165205
0.053151 0.186943 0.165205
0.109828 0.186943 0.165205
0.213325 0.186943 0.165205
0.373437 0.186943 0.165205
0.567093 0.186943 0.165205
0.742213 0.186943 0.165205
0.863539 0.186943 0.165205
0.932924 0.186943 0.165205
0.968324 0.186943 0.165205
0.053151 0.324098 0.165205
0.109828 0.324098 0.165205
0.213325 0.324098 0.165205
0.373437 0.324098 0.165205
0.567093 0.324098 0.165205
0.742213 0.324098 0.165205
0.863539 0.324098 0.165205
0.932924 0.324098 0.165205
0.968324 0.324098 0.165205
0.053151 0.500000 0.165205
0.109828 0.500000 0.165205
0.213325 0.500000 0.165205
0.373437 0.500000 0.165205
0.567093 0.500000 0.165205
0.742213 0.500000 0.165205
0.863539 0.500000 0.165205
0.932924 0.500000 0.165205
0.968324 0.500000 0.165205
0.053151 0.675902 0.165205
0.109828 0.675902 0.165205
0.213325 0.675902 0.165205
0.373437 0.675902 0.165205
0.567093 0.675902 0.165205
0.742213 0.675902 0.165205
0.863539 0.675902 0.165205
0.932924 0.675902 0.165205
0.968324 0.675902 0.165205
0.053151 0.813057 0.165205
0.109828 0.813057 0.165205
0.213325 0.813057 0.165205
0.373437 0.813057 0.165205
0.567093 0.813057 0.165205
0.742213 0.813057 0.165205
0.863539 0.813057 0.165205
0.932924 0.813057 0.165205
0.968324 0.813057 0.165205
0.053151 0.900698 0.165205
0.109828 0.900698 0.165205
0.213325 0.900698 0.165205
0.373437 0.900698 0.165205
0.567093 0.900698 0.165205
0.742213 0.900698 0.165205
0.863539 0.900698 0.165205
0.932924 0.900698 0.165205
0.968324 0.900698 0.165205
0.053151 0.949789 0.165205
0.109828 0.949789 0.165205
0.213325 0.949789 0.165205
0.373437 0.949789 0.165205
0.567093 0.949789 0.165205
0.742213 0.949789 0.165205
0.863539 0.949789 0.165205
0.932924 0.949789 0.165205
0.968324 0.949789 0.165205
0.053151 0.050211 0.282925
0.109828 0.050211 0.282925
0.213325 0.050211 0.282925
0.373437 0.050211 0.282925
0.567093 0.050211 0.282925
0.742213 0.050211 0.282925
0.863539 0.050211 0.282925
0.932924 0.050211 0.282925
0.968324 0.050211 0.282925
0.053151 0.099302 0.282925
0.109828 0.099302 0.282925
0.213325 0.099302 0.282925
0.373437 0.099302 0.282925
0.567093 0.099302 0.282925
0.742213 0.099302 0.282925
0.863539 0.099302 0.282925
0.932924 0.099302 0.282925
0.968324 0.099302 0.282925
0.053151 0.186943 0.282925
0.109828 0.186943 0.282925
0.213325 0.186943 0.282925
0.373437 0.186943 0.282925
0.567093 0.186943 0.282925
0.742213 0.186943 0.282925
0.863539 0.186943 0.282925
0.932924 0.186943 0.282925
0.968324 0.186943 0.282925
0.053151 0.324098 0.282925
0.109828 0.324098 0.282925
0.213325 0.324098 0.282925
0.373437 0.324098 0.282925
0.567093 0.324098 0.282925
0.742213 0.324098 0.282925
0.863539 0.324098 0.282925
0.932924 0.324098 0.282925
0.968324 0.324098 0.282925
0.053151 0.500000 0.282925
0.109828 0.500000 0.282925
0.213325 0.500000 0.282925
0.373437 0.500000 0.282925
0.567093 0.500000 0.282925
0.742213 0.500000 0.282925
0.863539 0.500000 0.282925
0.932924 0.500000 0.282925
0.968324 0.500000 0.282925
0.053151 0.675902 0.282925
0.109828 0.675902 0.282925
0.213325 0.675902 0.282925
0.373437 0.675902 0.282925
0.567093 0.675902 0.282925
0.742213 0.675902 0.282925
0.863539 0.675902 0.282925
0.932924 0.675902 0.282925
0.968324 0.675902 0.282925
0.053151 0.813057 0.282925
0.109828 0.813057 0.282925
0.213325 0.813057 0.282925
0.373437 0.813057 0.282925
0.567093 0.813057 0.282925
0.742213 0.813057 0.282925
0.863539 0.813057 0.282925
0.932924 0.813057 0.282925
0.968324 0.813057 0.282925
0.053151 0.900698 0.282925
0.109828 0.900698 0.282925
0.213325 0.900698 0.282925
0.373437 0.900698 0.282925
0.567093 0.900698 0.282925
0.742213 0.900698 0.282925
0.863539 0.900698 0.282925
0.932924 0.900698 0.282925
0.968324 0.900698 0.282925
0.053151 0.949789 0.282925
0.109828 0.949789 0.282925
0.213325 0.949789 0.282925
0.373437 0.949789 0.282925
0.567093 0.949789 0.282925
0.742213 0.949789 0.282925
0.863539 0.949789 0.282925
0.932924 0.949789 0.282925
0.968324 0.949789 0.282925
0.053151 0.050211 0.440286
0.109828 0.050211 0.440286
0.213325 0.050211 0.440286
0.373437 0.050211 0.440286
0.567093 0.050211 0.440286
0.742213 0.050211 0.440286
0.863539 0.050211 0.440286
0.932924 0.050211 0.440286
0.968324 0.050211 0.440286
0.053151 0.099302 0.440286
0.109828 0.099302 0.440286
0.213325 0.099302 0.440286
0.373437 0.099302 0.440286
0.567093 0.099302 0.440286
0.742213 0.099302 0.440286
0.863539 0.099302 0.440286
0.932924 0.099302 0.440286
0.968324 0.099302 0.440286
0.053151 0.186943 0.440286
0.109828 0.186943 0.440286
0.213325 0.186943 0.440286
0.373437 0.186943 0.440286
0.567093 0.186943 0.440286
0.742213 0.186943 0.440286
0.863539 0.186943 0.440286
0.932924 0.186943 0.440286
0.968324 0.186943 0.440286
0.053151 0.324098 0.440286
0.109828 0.324098 0.440286
0.213325 0.324098 0.440286
0.373437 0.324098 0.440286
0.567093 0.324098 0.440286
0.742213 0.324098 0.440286
0.863539 0.324098 0.440286
0.932924 0.324098 0.440286
0.968324 0.324098 0.440286
0.053151 0.500000 0.440286
0.109828 0.500000 0.440286
0.213325 0.500000 0.440286
0.373437 0.500000 0.440286
0.567093 0.500000 0.440286
0.742213 0.500000 0.440286
0.863539 0.500000 0.440286
0.932924 0.500000 0.440286
0.968324 0.500000 0.440286
0.053151 0.675902 0.440286
0.109828 0.675902 0.440286
0.213325 0.675902 0.440286
0.373437 0.675902 0.440286
0.567093 0.675902 0.440286
0.742213 0.675902 0.440286
0.863539 0.675902 0.440286
0.932924 0.675902 0.440286
0.968324 0.675902 0.440286
0.053151 0.813057 0.440286
0.109828 0.813057 0.440286
0.213325 0.813057 0.440286
0.373437 0.813057 0.440286
0.567093 0.813057 0.440286
0.742213 0.813057 0.440286
0.863539 0.813057 0.440286
0.932924 0.813057 0.440286
0.968324 0.813057 0.440286
0.053151 0.900698 0.440286
0.109828 0.900698 0.440286
0.213325 0.900698 0.440286
0.373437 0.900698 0.440286
0.567093 0.900698 0.440286
0.742213 0.900698 0.440286
0.863539 0.900698 0.440286
0.932924 0.900698 0.440286
0.968324 0.900698 0.440286
0.053151 0.949789 0.440286
0.109828 0.949789 0.440286
0.213325 0.949789 0.440286
0.373437 0.949789 0.440286
0.567093 0.949789 0.440286
0.742213 0.949789 0.440286
0.863539 0.949789 0.440286
0.932924 0.949789 0.440286
0.968324 0.949789 0.440286
0.053151 0.050211 0.610639
0.109828 0.050211 0.610639
0.213325 0.050211 0.610639
0.373437 0.050211 0.610639
0.567093 0.050211 0.610639
0.742213 0.050211 0.610639
0.863539 0.050211 0.610639
0.932924 0.050211 0.610639
0.968324 0.050211 0.610639
0.053151 0.099302 0.610639
0.109828 0.099302 0.610639
0.213325 0.099302 0.610639
0.373437 0.099302 0.610639
0.567093 0.099302 0.610639
0.742213 0.099302 0.610639
0.863539 0.099302 0.610639
0.932924 0.099302 0.610639
0.968324 0.099302 0.610639
0.053151 0.186943 0.610639
0.109828 0.186943 0.610639
0.213325 0.186943 0.610639
0.373437 0.186943 0.610639
0.567093 0.186943 0.610639
0.742213 0.186943 0.610639
0.863539 0.186943 0.610639
0.932924 0.186943 0.610639
0.968324 0.186943 0.610639
0.053151 0.324098 0.610639
0.109828 0.324098 0.610639
0.213325 0.324098 0.610639
0.373437 0.324098 0.610639
0.567093 0.324098 0.610639
0.742213 0.324098 0.610639
0.863539 0.324098 0.610639
0.932924 0.324098 0.610639
0.968324 0.324098 0.610639
0.053151 0.500000 0.610639
0.109828 0.500000 0.610639
0.213325 0.500000 0.610639
0.373437 0.500000 0.610639
0.567093 0.500000 0.610639
0.742213 0.500000 0.610639
0.863539 0.500000 0.610639
0.932924 0.500000 0.610639
0.968324 0.500000 0.610639
0.053151 0.675902 0.610639
0.109828 0.675902 0.610639
0.213325 0.675902 0.610639
0.373437 0.675902 0.610639
0.567093 0.675902 0.610639
0.742213 0.675902 0.610639
0.863539 0.675902 0.610639
0.932924 0.675902 0.610639
0.968324 0.675902 0.610639
0.053151 0.813057 0.610639
0.109828 0.813057 0.610639
0.213325 0.813057 0.610639
0.373437 0.813057 0.610639
0.567093 0.813057 0.610639
0.742213 0.813057 0.610639
0.863539 0.813057 0.610639
0.932924 0.813057 0.610639
0.968324 0.813057 0.610639
0.053151 0.900698 0.610639
0.109828 0.900698 0.610639
0.213325 0.900698 0.610639
0.373437 0.900698 0.610639
0.567093 0.900698 0.610639
0.742213 0.900698 0.610639
0.863539 0.900698 0.610639
0.932924 0.900698 0.610639
0.968324 0.900698 0.610639
0.053151 0.949789 0.610639
0.109828 0.949789 0.610639
0.213325 0.949789 0.610639
0.373437 0.949789 0.610639
0.567093 0.949789 0.610639
0.742213 0.949789 0.610639
0.863539 0.949789 0.610639
0.932924 0.949789 0.610639
0.968324 0.949789 0.610639
0.053151 0.050211 0.757680
0.109828 0.050211 0.757680
0.213325 0.050211 0.757680
0.373437 0.050211 0.757680
0.567093 0.050211 0.757680
0.742213 0.050211 0.757680
0.863539 0.050211 0.757680
0.932924 0.050211 0.757680
0.968324 0.050211 0.757680
0.053151 0.099302 0.757680
0.109828 0.099302 0.757680
0.213325 0.099302 0.757680
0.373437 0.099302 0.757680
0.567093 0.099302 0.757680
0.742213 0.099302 0.757680
0.863539 0.099302 0.757680
0.932924 0.099302 0.757680
0.968324 0.099302 0.757680
0.053151 0.186943 0.757680
0.109828 0.186943 0.757680
0.213325 0.186943 0.757680
0.373437 0.186943 0.757680
0.567093 0.186943 0.757680
0.742213 0.186943 0.757680
0.863539 0.186943 0.757680
0.932924 0.186943 0.757680
0.968324 0.186943 0.757680
0.053151 0.324098 0.757680
0.109828 0.324098 0.757680
0.213325 0.324098 0.757680
0.373437 0.324098 0.757680
0.567093 0.324098 0.757680
0.742213 0.324098 0.757680
0.863539 0.324098 0.757680
0.932924 0.324098 0.757680
0.968324 0.324098 0.757680
0.053151 0.500000 0.757680
0.109828 0.500000 0.757680
0.213325 0.500000 0.757680
0.373437 0.500000 0.757680
0.567093 0.500000 0.757680
0.742213 0.500000 0.757680
0.863539 0.500000 0.757680
0.932924 0.500000 0.757680
0.968324 0.500000 0.757680
0.053151 0.675902 0.757680
0.109828 0.675902 0.757680
0.213325 0.675902 0.757680
0.373437 0.675902 0.757680
0.567093 0.675902 0.757680
0.742213 0.675902 0.757680
0.863539 0.675902 0.757680
0.932924 0.675902 0.757680
0.968324 0.675902 0.757680
0.053151 0.813057 0.757680
0.109828 0.813057 0.757680
0.213325 0.813057 0.757680
0.373437 0.813057 0.757680
0.567093 0.813057 0.757680
0.742213 0.813057 0.757680
0.863539 0.813057 0.757680
0.932924 0.813057 0.757680
0.968324 0.813057 0.757680
0.053151 0.900698 0.757680
0.109828 0.900698 0.757680
0.213325 0.900698 0.757680
0.373437 0.900698 0.757680
0.567093 0.900698 0.757680
0.742213 0.900698 0.757680
0.863539 0.900698 0.757680
0.932924 0.900698 0.757680
0.968324 0.900698 0.757680
0.053151 0.949789 0.757680
0.109828 0.949789 0.757680
0.213325 0.949789 0.757680
0.373437 0.949789 0.757680
0.567093 0.949789 0.757680
0.742213 0.949789 0.757680
0.863539 0.949789 0.757680
0.932924 0.949789 0.757680
0.968324 0.949789 0.757680
0.053151 0.050211 0.861762
0.109828 0.050211 0.861762
0.213325 0.050211 0.861762
0.373437 0.050211 0.861762
0.567093 0.050211 0.861762
0.742213 0.050211 0.861762
0.863539 0.050211 0.861762
0.932924 0.050211 0.861762
0.968324 0.050211 0.861762
0.053151 0.099302 0.861762
0.109828 0.099302 0.861762
0.213325 0.099302 0.861762
0.373437 0.099302 0.861762
0.567093 0.099302 0.861762
0.742213 0.099302 0.861762
0.863539 0.099302 0.861762
0.932924 0.099302 0.861762
0.968324 0.099302 0.861762
0.053151 0.186943 0.861762
0.109828 0.186943 0.861762
0.213325 0.186943 0.861762
0.373437 0.186943 0.861762
0.567093 0.186943 0.861762
0.742213 0.186943 0.861762
0.863539 0.186943 0.861762
0.932924 0.186943 0.861762
0.968324 0.186943 0.861762
0.053151 0.324098 0.861762
0.109828 0.324098 0.861762
0.213325 0.324098 0.861762
0.373437 0.324098 0.861762
0.567093 0.324098 0.861762
0.742213 0.324098 0.861762
0.863539 0.324098 0.861762
0.932924 0.324098 0.861762
0.968324 0.324098 0.861762
0.053151 0.500000 0.861762
0.109828 0.500000 0.861762
0.213325 0.500000 0.861762
0.373437 0.500000 0.861762
0.567093 0.500000 0.861762
0.742213 0.500000 0.861762
0.863539 0.500000 0.861762
0.932924 0.500000 0.861762
0.968324 0.500000 0.861762
0.053151 0.675902 0.861762
0.109828 0.675902 0.861762
0.213325 0.675902 0.861762
0.373437 0.675902 0.861762
0.567093 0.675902 0.861762
0.742213 0.675902 0.861762
0.863539 0.675902 0.861762
0.932924 0.675902 0.861762
0.968324 0.675902 0.861762
0.053151 0.813057 0.861762
0.109828 0.813057 0.861762
0.213325 0.813057 0.861762
0.373437 0.813057 0.861762
0.567093 0.813057 0.861762
0.742213 0.813057 0.861762
0.863539 0.813057 0.861762
0.932924 0.813057 0.861762
0.968324 0.813057 0.861762
0.053151 0.900698 0.861762
0.109828 0.900698 0.861762
0.213325 0.900698 0.861762
0.373437 0.900698 0.861762
0.567093 0.900698 0.861762
0.742213 0.900698 0.861762
0.863539 0.900698 0.861762
0.932924 0.900698 0.861762
0.968324 0.900698 0.861762
0.053151 0.949789 0.861762
0.109828 0.949789 0.861762
0.213325 0.949789 0.861762
0.373437 0.949789 0.861762
0.567093 0.949789 0.861762
0.742213 0.949789 0.861762
0.863539 0.949789 0.861762
0.932924 0.949789 0.861762
0.968324 0.949789 0.861762
0.053151 0.050211 0.925532
0.109828 0.050211 0.925532
0.213325 0.050211 0.925532
0.373437 0.050211 0.925532
0.567093 0.050211 0.925532
0.742213 0.050211 0.925532
0.863539 0.050211 0.925532
0.932924 0.050211 0.925532
0.968324 0.050211 0.925532
0.053151 0.099302 0.925532
0.109828 0.099302 0.925532
0.213325 0.099302 0.925532
0.373437 0.099302 0.925532
0.567093 0.099302 0.925532
0.742213 0.099302 0.925532
0.863539 0.099302 0.925532
0.932924 0.099302 0.925532
0.968324 0.099302 0.925532
0.053151 0.186943 0.925532
0.109828 0.186943 0.925532
0.213325 0.186943 0.925532
0.373437 0.186943 0.925532
0.567093 0.186943 0.925532
0.742213 0.186943 0.925532
0.863539 0.186943 0.925532
0.932924 0.186943 0.925532
0.968324 0.186943 0.925532
0.053151 0.324098 0.925532
0.109828 0.324098 0.925532
0.213325 0.324098 0.925532
0.373437 0.324098 0.925532
0.567093 0.324098 0.925532
0.742213 0.324098 0.925532
0.863539 0.324098 0.925532
0.932924 0.324098 0.925532
0.968324 0.324098 0.925532
0.053151 0.500000 0.925532
0.109828 0.500000 0.925532
0.213325 0.500000 0.925532
0.373437 0.500000 0.925532
0.567093 0.500000 0.925532
0.742213 0.500000 0.925532
0.863539 0.500000 0.925532
0.932924 0.500000 0.925532
0.968324 0.500000 0.925532
0.053151 0.675902 0.925532
0.109828 0.675902 0.925532
0.213325 0.675902 0.925532
0.373437 0.675902 0.925532
0.567093 0.675902 0.925532
0.742213 0.675902 0.925532
0.863539 0.675902 0.925532
0.932924 0.675902 0.925532
0.968324 0.675902 0.925532
0.053151 0.813057 0.925532
0.109828 0.813057 0.925532
0.213325 0.813057 0.925532
0.373437 0.813057 0.925532
0.567093 0.813057 0.925532
0.742213 0.813057 0.925532
0.863539 0.813057 0.925532
0.932924 0.813057 0.925532
0.968324 0.813057 0.925532
0.053151 0.900698 0.925532
0.109828 0.900698 0.925532
0.213325 0.900698 0.925532
0.373437 0.900698 0.925532
0.567093 0.900698 0.925532
0.742213 0.900698 0.925532
0.863539 0.900698 0.925532
0.932924 0.900698 0.925532
0.968324 0.900698 0.925532
0.053151 0.949789 0.925532
0.109828 0.949789 0.925532
0.213325 0.949789 0.925532
0.373437 0.949789 0.925532
0.567093 0.949789 0.925532
0.742213 0.949789 0.925532
0.863539 0.949789 0.925532
0.932924 0.949789 0.925532
0.968324 0.949789 0.925532
