presets/luts/warm_film.cube
TITLE "Warm Film Look"
LUT_3D_SIZE 5
0.053151 0.050211 0.047426
0.213325 0.050211 0.047426
0.567093 0.050211 0.047426
0.863539 0.050211 0.047426
0.968324 0.050211 0.047426
0.053151 0.186943 0.047426
0.213325 0.186943 0.047426
0.567093 0.186943 0.047426
0.863539 0.186943 0.047426
0.968324 0.186943 0.047426
0.053151 0.500000 0.047426
0.213325 0.500000 0.047426
0.567093 0.500000 0.047426
0.863539 0.500000 0.047426
0.968324 0.500000 0.047426
0.053151 0.813057 0.047426
0.213325 0.813057 0.047426
0.567093 0.813057 0.047426
0.863539 0.813057 0.047426
0.968324 0.813057 0.047426
0.053151 0.949789 0.047426
0.213325 0.949789 0.047426
0.567093 0.949789 0.047426
0.863539 0.949789 0.047426
0.968324 0.949789 0.047426
0.053151 0.050211 0.165205
0.213325 0.050211 0.165205
0.567093 0.050211 0.165205
0.863539 0.050211 0.165205
0.968324 0.050211 0.165205
0.053151 0.186943 0.165205
0.213325 0.186943 0.165205
0.567093 0.186943 0.165205
0.863539 0.186943 0.165205
0.968324 0.186943 0.165205
0.053151 0.500000 0.165205
0.213325 0.500000 0.165205
0.567093 0.500000 0.165205
0.863539 0.500000 0.165205
0.968324 0.500000 0.165205
0.053151 0.813057 0.165205
0.213325 0.813057 0.165205
0.567093 0.813057 0.165205
0.863539 0.813057 0.165205
0.968324 0.813057 0.165205
0.053151 0.949789 0.165205
0.213325 0.949789 0.165205
0.567093 0.949789 0.165205
0.863539 0.949789 0.165205
0.968324 0.949789 0.165205
0.053151 0.050211 0.440286
0.213325 0.050211 0.440286
0.567093 0.050211 0.440286
0.863539 0.050211 0.440286
0.968324 0.050211 0.440286
0.053151 0.186943 0.440286
0.213325 0.186943 0.440286
0.567093 0.186943 0.440286
0.863539 0.186943 0.440286
0.968324 0.186943 0.440286
0.053151 0.500000 0.440286
0.213325 0.500000 0.440286
0.567093 0.500000 0.440286
0.863539 0.500000 0.440286
0.968324 0.500000 0.440286
0.053151 0.813057 0.440286
0.213325 0.813057 0.440286
0.567093 0.813057 0.440286
0.863539 0.813057 0.440286
0.968324 0.813057 0.440286
0.053151 0.949789 0.440286
0.213325 0.949789 0.440286
0.567093 0.949789 0.440286
0.863539 0.949789 0.440286
0.968324 0.949789 0.440286
0.053151 0.050211 0.757680
0.213325 0.050211 0.757680
0.567093 0.050211 0.757680
0.863539 0.050211 0.757680
0.968324 0.050211 0.757680
0.053151 0.186943 0.757680
0.213325 0.186943 0.757680
0.567093 0.186943 0.757680
0.863539 0.186943 0.757680
0.968324 0.186943 0.757680
0.053151 0.500000 0.757680
0.213325 0.500000 0.757680
0.567093 0.500000 0.757680
0.863539 0.500000 0.757680
0.968324 0.500000 0.757680
0.053151 0.813057 0.757680
0.213325 0.813057 0.757680
0.567093 0.813057 0.757680
0.863539 0.813057 0.757680
0.968324 0.813057 0.757680
0.053151 0.949789 0.757680
0.213325 0.949789 0.757680
0.567093 0.949789 0.757680
0.863539 0.949789 0.757680
0.968324 0.949789 0.757680
0.053151 0.050211 0.925532
0.213325 0.050211 0.925532
0.567093 0.050211 0.925532
0.863539 0.050211 0.925532
0.968324 0.050211 0.925532
0.053151 0.186943 0.925532
0.213325 0.186943 0.925532
0.567093 0.186943 0.925532
0.863539 0.186943 0.925532
0.968324 0.186943 0.925532
0.053151 0.500000 0.925532
0.213325 0.500000 0.925532
0.567093 0.500000 0.925532
0.863539 0.500000 0.925532
0.968324 0.500000 0.925532
0.053151 0.813057 0.925532
0.213325 0.813057 0.925532
0.567093 0.813057 0.925532
0.863539 0.813057 0.925532
0.968324 0.813057 0.925532
0.053151 0.949789 0.925532
0.213325 0.949789 0.925532
0.567093 0.949789 0.925532
0.863539 0.949789 0.925532
0.968324 0.949789 0.925532
