presets/luts/warm_film.cube
TITLE "Warm Film Look"
LUT_3D_SIZE 33
0.053151 0.050211 0.047426
0.063976 0.050211 0.047426
0.076828 0.050211 0.047426
0.092007 0.050211 0.047426
0.109828 0.050211 0.047426
0.130604 0.050211 0.047426
0.154629 0.050211 0.047426
0.182146 0.050211 0.047426
0.213325 0.050211 0.047426
0.248221 0.050211 0.047426
0.286744 0.050211 0.047426
0.328633 0.050211 0.047426
0.373437 0.050211 0.047426
0.420523 0.050211 0.047426
0.469102 0.050211 0.047426
0.518273 0.050211 0.047426
0.567093 0.050211 0.047426
0.614644 0.050211 0.047426
0.660102 0.050211 0.047426
0.702791 0.050211 0.047426
0.742213 0.050211 0.047426
0.778056 0.050211 0.047426
0.810191 0.050211 0.047426
0.838637 0.050211 0.047426
0.863539 0.050211 0.047426
0.885124 0.050211 0.047426
0.903676 0.050211 0.047426
0.919504 0.050211 0.047426
0.932924 0.050211 0.047426
0.944243 0.050211 0.047426
0.953746 0.050211 0.047426
0.961695 0.050211 0.047426
0.968324 0.050211 0.047426
0.053151 0.059735 0.047426
0.063976 0.059735 0.047426
0.076828 0.059735 0.047426
0.092007 0.059735 0.047426
0.109828 0.059735 0.047426
0.130604 0.059735 0.047426
0.154629 0.059735 0.047426
0.182146 0.059735 0.047426
0.213325 0.059735 0.047426
0.248221 0.059735 0.047426
0.286744 0.059735 0.047426
0.328633 0.059735 0.047426
0.373437 0.059735 0.047426
0.420523 0.059735 0.047426
0.469102 0.059735 0.047426
0.518273 0.059735 0.047426
0.567093 0.059735 0.047426
0.614644 0.059735 0.047426
0.660102 0.059735 0.047426
0.702791 0.059735 0.047426
0.742213 0.059735 0.047426
0.778056 0.059735 0.047426
0.810191 0.059735 0.047426
0.838637 0.059735 0.047426
0.863539 0.059735 0.047426
0.885124 0.059735 0.047426
0.903676 0.059735 0.047426
0.919504 0.059735 0.047426
0.932924 0.059735 0.047426
0.944243 0.059735 0.047426
0.953746 0.059735 0.047426
0.961695 0.059735 0.047426
0.968324 0.059735 0.047426
0.053151 0.070929 0.047426
0.063976 0.070929 0.047426
0.076828 0.070929 0.047426
0.092007 0.070929 0.047426
0.109828 0.070929 0.047426
0.130604 0.070929 0.047426
0.154629 0.070929 0.047426
0.182146 0.070929 0.047426
0.213325 0.070929 0.047426
0.248221 0.070929 0.047426
0.286744 0.070929 0.047426
0.328633 0.070929 0.047426
0.373437 0.070929 0.047426
0.420523 0.070929 0.047426
0.469102 0.070929 0.047426
0.518273 0.070929 0.047426
0.567093 0.070929 0.047426
0.614644 0.070929 0.047426
0.660102 0.070929 0.047426
0.702791 0.070929 0.047426
0.742213 0.070929 0.047426
0.778056 0.070929 0.047426
0.810191 0.070929 0.047426
0.838637 0.070929 0.047426
0.863539 0.070929 0.047426
0.885124 0.070929 0.047426
0.903676 0.070929 0.047426
0.919504 0.070929 0.047426
0.932924 0.070929 0.047426
0.944243 0.070929 0.047426
0.953746 0.070929 0.047426
0.961695 0.070929 0.047426
0.968324 0.070929 0.047426
0.053151 0.084035 0.047426
0.063976 0.084035 0.047426
0.076828 0.084035 0.047426
0.092007 0.084035 0.047426
0.109828 0.084035 0.047426
0.130604 0.084035 0.047426
0.154629 0.084035 0.047426
0.182146 0.084035 0.047426
0.213325 0.084035 0.047426
0.248221 0.084035 0.047426
0.286744 0.084035 0.047426
0.328633 0.084035 0.047426
0.373437 0.084035 0.047426
0.420523 0.084035 0.047426
0.469102 0.084035 0.047426
0.518273 0.084035 0.047426
0.567093 0.084035 0.047426
0.614644 0.084035 0.047426
0.660102 0.084035 0.047426
0.702791 0.084035 0.047426
0.742213 0.084035 0.047426
0.778056 0.084035 0.047426
0.810191 0.084035 0.047426
0.838637 0.084035 0.047426
0.863539 0.084035 0.047426
0.885124 0.084035 0.047426
0.903676 0.084035 0.047426
0.919504 0.084035 0.047426
0.932924 0.084035 0.047426
0.944243 0.084035 0.047426
0.953746 0.084035 0.047426
0.961695 0.084035 0.047426
0.968324 0.084035 0.047426
0.053151 0.099302 0.047426
0.063976 0.099302 0.047426
0.076828 0.099302 0.047426
0.092007 0.099302 0.047426
0.109828 0.099302 0.047426
0.130604 0.099302 0.047426
0.154629 0.099302 0.047426
0.182146 0.099302 0.047426
0.213325 0.099302 0.047426
0.248221 0.099302 0.047426
0.286744 0.099302 0.047426
0.328633 0.099302 0.047426
0.373437 0.099302 0.047426
0.420523 0.099302 0.047426
0.469102 0.099302 0.047426
0.518273 0.099302 0.047426
0.567093 0.099302 0.047426
0.614644 0.099302 0.047426
0.660102 0.099302 0.047426
0.702791 0.099302 0.047426
0.742213 0.099302 0.047426
0.778056 0.099302 0.047426
0.810191 0.099302 0.047426
0.838637 0.099302 0.047426
0.863539 0.099302 0.047426
0.885124 0.099302 0.047426
0.903676 0.099302 0.047426
0.919504 0.099302 0.047426
0.932924 0.099302 0.047426
0.944243 0.099302 0.047426
0.953746 0.099302 0.047426
0.961695 0.099302 0.047426
0.968324 0.099302 0.047426
0.053151 0.116990 0.047426
0.063976 0.116990 0.047426
0.076828 0.116990 0.047426
0.092007 0.116990 0.047426
0.109828 0.116990 0.047426
0.130604 0.116990 0.047426
0.154629 0.116990 0.047426
0.182146 0.116990 0.047426
0.213325 0.116990 0.047426
0.248221 0.116990 0.047426
0.286744 0.116990 0.047426
0.328633 0.116990 0.047426
0.373437 0.116990 0.047426
0.420523 0.116990 0.047426
0.469102 0.116990 0.047426
0.518273 0.116990 0.047426
0.567093 0.116990 0.047426
0.614644 0.116990 0.047426
0.660102 0.116990 0.047426
0.702791 0.116990 0.047426
0.742213 0.116990 0.047426
0.778056 0.116990 0.047426
0.810191 0.116990 0.047426
0.838637 0.116990 0.047426
0.863539 0.116990 0.047426
0.885124 0.116990 0.047426
0.903676 0.116990 0.047426
0.919504 0.116990 0.047426
0.932924 0.116990 0.047426
0.944243 0.116990 0.047426
0.953746 0.116990 0.047426
0.961695 0.116990 0.047426
0.968324 0.116990 0.047426
0.053151 0.137347 0.047426
0.063976 0.137347 0.047426
0.076828 0.137347 0.047426
0.092007 0.137347 0.047426
0.109828 0.137347 0.047426
0.130604 0.137347 0.047426
0.154629 0.137347 0.047426
0.182146 0.137347 0.047426
0.213325 0.137347 0.047426
0.248221 0.137347 0.047426
0.286744 0.137347 0.047426
0.328633 0.137347 0.047426
0.373437 0.137347 0.047426
0.420523 0.137347 0.047426
0.469102 0.137347 0.047426
0.518273 0.137347 0.047426
0.567093 0.137347 0.047426
0.614644 0.137347 0.047426
0.660102 0.137347 0.047426
0.702791 0.137347 0.047426
0.742213 0.137347 0.047426
0.778056 0.137347 0.047426
0.810191 0.137347 0.047426
0.838637 0.137347 0.047426
0.863539 0.137347 0.047426
0.885124 0.137347 0.047426
0.903676 0.137347 0.047426
0.919504 0.137347 0.047426
0.932924 0.137347 0.047426
0.944243 0.137347 0.047426
0.953746 0.137347 0.047426
0.961695 0.137347 0.047426
0.968324 0.137347 0.047426
0.053151 0.160603 0.047426
0.063976 0.160603 0.047426
0.076828 0.160603 0.047426
0.092007 0.160603 0.047426
0.109828 0.160603 0.047426
0.130604 0.160603 0.047426
0.154629 0.160603 0.047426
0.182146 0.160603 0.047426
0.213325 0.160603 0.047426
0.248221 0.160603 0.047426
0.286744 0.160603 0.047426
0.328633 0.160603 0.047426
0.373437 0.160603 0.047426
0.420523 0.160603 0.047426
0.469102 0.160603 0.047426
0.518273 0.160603 0.047426
0.567093 0.160603 0.047426
0.614644 0.160603 0.047426
0.660102 0.160603 0.047426
0.702791 0.160603 0.047426
0.742213 0.160603 0.047426
0.778056 0.160603 0.047426
0.810191 0.160603 0.047426
0.838637 0.160603 0.047426
0.863539 0.160603 0.047426
0.885124 0.160603 0.047426
0.903676 0.160603 0.047426
0.919504 0.160603 0.047426
0.932924 0.160603 0.047426
0.944243 0.160603 0.047426
0.953746 0.160603 0.047426
0.961695 0.160603 0.047426
0.968324 0.160603 0.047426
0.053151 0.186943 0.047426
0.063976 0.186943 0.047426
0.076828 0.186943 0.047426
0.092007 0.186943 0.047426
0.109828 0.186943 0.047426
0.130604 0.186943 0.047426
0.154629 0.186943 0.047426
0.182146 0.186943 0.047426
0.213325 0.186943 0.047426
0.248221 0.186943 0.047426
0.286744 0.186943 0.047426
0.328633 0.186943 0.047426
0.373437 0.186943 0.047426
0.420523 0.186943 0.047426
0.469102 0.186943 0.047426
0.518273 0.186943 0.047426
0.567093 0.186943 0.047426
0.614644 0.186943 0.047426
0.660102 0.186943 0.047426
0.702791 0.186943 0.047426
0.742213 0.186943 0.047426
0.778056 0.186943 0.047426
0.810191 0.186943 0.047426
0.838637 0.186943 0.047426
0.863539 0.186943 0.047426
0.885124 0.186943 0.047426
0.903676 0.186943 0.047426
0.919504 0.186943 0.047426
0.932924 0.186943 0.047426
0.944243 0.186943 0.047426
0.953746 0.186943 0.047426
0.961695 0.186943 0.047426
0.968324 0.186943 0.047426
0.053151 0.216488 0.047426
0.063976 0.216488 0.047426
0.076828 0.216488 0.047426
0.092007 0.216488 0.047426
0.109828 0.216488 0.047426
0.130604 0.216488 0.047426
0.154629 0.216488 0.047426
0.182146 0.216488 0.047426
0.213325 0.216488 0.047426
0.248221 0.216488 0.047426
0.286744 0.216488 0.047426
0.328633 0.216488 0.047426
0.373437 0.216488 0.047426
0.420523 0.216488 0.047426
0.469102 0.216488 0.047426
0.518273 0.216488 0.047426
0.567093 0.216488 0.047426
0.614644 0.216488 0.047426
0.660102 0.216488 0.047426
0.702791 0.216488 0.047426
0.742213 0.216488 0.047426
0.778056 0.216488 0.047426
0.810191 0.216488 0.047426
0.838637 0.216488 0.047426
0.863539 0.216488 0.047426
0.885124 0.216488 0.047426
0.903676 0.216488 0.047426
0.919504 0.216488 0.047426
0.932924 0.216488 0.047426
0.944243 0.216488 0.047426
0.953746 0.216488 0.047426
0.961695 0.216488 0.047426
0.968324 0.216488 0.047426
0.053151 0.249272 0.047426
0.063976 0.249272 0.047426
0.076828 0.249272 0.047426
0.092007 0.249272 0.047426
0.109828 0.249272 0.047426
0.130604 0.249272 0.047426
0.154629 0.249272 0.047426
0.182146 0.249272 0.047426
0.213325 0.249272 0.047426
0.248221 0.249272 0.047426
0.286744 0.249272 0.047426
0.328633 0.249272 0.047426
0.373437 0.249272 0.047426
0.420523 0.249272 0.047426
0.469102 0.249272 0.047426
0.518273 0.249272 0.047426
0.567093 0.249272 0.047426
0.614644 0.249272 0.047426
0.660102 0.249272 0.047426
0.702791 0.249272 0.047426
0.742213 0.249272 0.047426
0.778056 0.249272 0.047426
0.810191 0.249272 0.047426
0.838637 0.249272 0.047426
0.863539 0.249272 0.047426
0.885124 0.249272 0.047426
0.903676 0.249272 0.047426
0.919504 0.249272 0.047426
0.932924 0.249272 0.047426
0.944243 0.249272 0.047426
0.953746 0.249272 0.047426
0.961695 0.249272 0.047426
0.968324 0.249272 0.047426
0.053151 0.285213 0.047426
0.063976 0.285213 0.047426
0.076828 0.285213 0.047426
0.092007 0.285213 0.047426
0.109828 0.285213 0.047426
0.130604 0.285213 0.047426
0.154629 0.285213 0.047426
0.182146 0.285213 0.047426
0.213325 0.285213 0.047426
0.248221 0.285213 0.047426
0.286744 0.285213 0.047426
0.328633 0.285213 0.047426
0.373437 0.285213 0.047426
0.420523 0.285213 0.047426
0.469102 0.285213 0.047426
0.518273 0.285213 0.047426
0.567093 0.285213 0.047426
0.614644 0.285213 0.047426
0.660102 0.285213 0.047426
0.702791 0.285213 0.047426
0.742213 0.285213 0.047426
0.778056 0.285213 0.047426
0.810191 0.285213 0.047426
0.838637 0.285213 0.047426
0.863539 0.285213 0.047426
0.885124 0.285213 0.047426
0.903676 0.285213 0.047426
0.919504 0.285213 0.047426
0.932924 0.285213 0.047426
0.944243 0.285213 0.047426
0.953746 0.285213 0.047426
0.961695 0.285213 0.047426
0.968324 0.285213 0.047426
0.053151 0.324098 0.047426
0.063976 0.324098 0.047426
0.076828 0.324098 0.047426
0.092007 0.324098 0.047426
0.109828 0.324098 0.047426
0.130604 0.324098 0.047426
0.154629 0.324098 0.047426
0.182146 0.324098 0.047426
0.213325 0.324098 0.047426
0.248221 0.324098 0.047426
0.286744 0.324098 0.047426
0.328633 0.324098 0.047426
0.373437 0.324098 0.047426
0.420523 0.324098 0.047426
0.469102 0.324098 0.047426
0.518273 0.324098 0.047426
0.567093 0.324098 0.047426
0.614644 0.324098 0.047426
0.660102 0.324098 0.047426
0.702791 0.324098 0.047426
0.742213 0.324098 0.047426
0.778056 0.324098 0.047426
0.810191 0.324098 0.047426
0.838637 0.324098 0.047426
0.863539 0.324098 0.047426
0.885124 0.324098 0.047426
0.903676 0.324098 0.047426
0.919504 0.324098 0.047426
0.932924 0.324098 0.047426
0.944243 0.324098 0.047426
0.953746 0.324098 0.047426
0.961695 0.324098 0.047426
0.968324 0.324098 0.047426
0.053151 0.365574 0.047426
0.063976 0.365574 0.047426
0.076828 0.365574 0.047426
0.092007 0.365574 0.047426
0.109828 0.365574 0.047426
0.130604 0.365574 0.047426
0.154629 0.365574 0.047426
0.182146 0.365574 0.047426
0.213325 0.365574 0.047426
0.248221 0.365574 0.047426
0.286744 0.365574 0.047426
0.328633 0.365574 0.047426
0.373437 0.365574 0.047426
0.420523 0.365574 0.047426
0.469102 0.365574 0.047426
0.518273 0.365574 0.047426
0.567093 0.365574 0.047426
0.614644 0.365574 0.047426
0.660102 0.365574 0.047426
0.702791 0.365574 0.047426
0.742213 0.365574 0.047426
0.778056 0.365574 0.047426
0.810191 0.365574 0.047426
0.838637 0.365574 0.047426
0.863539 0.365574 0.047426
0.885124 0.365574 0.047426
0.903676 0.365574 0.047426
0.919504 0.365574 0.047426
0.932924 0.365574 0.047426
0.944243 0.365574 0.047426
0.953746 0.365574 0.047426
0.961695 0.365574 0.047426
0.968324 0.365574 0.047426
0.053151 0.409145 0.047426
0.063976 0.409145 0.047426
0.076828 0.409145 0.047426
0.092007 0.409145 0.047426
0.109828 0.409145 0.047426
0.130604 0.409145 0.047426
0.154629 0.409145 0.047426
0.182146 0.409145 0.047426
0.213325 0.409145 0.047426
0.248221 0.409145 0.047426
0.286744 0.409145 0.047426
0.328633 0.409145 0.047426
0.373437 0.409145 0.047426
0.420523 0.409145 0.047426
0.469102 0.409145 0.047426
0.518273 0.409145 0.047426
0.567093 0.409145 0.047426
0.614644 0.409145 0.047426
0.660102 0.409145 0.047426
0.702791 0.409145 0.047426
0.742213 0.409145 0.047426
0.778056 0.409145 0.047426
0.810191 0.409145 0.047426
0.838637 0.409145 0.047426
0.863539 0.409145 0.047426
0.885124 0.409145 0.047426
0.903676 0.409145 0.047426
0.919504 0.409145 0.047426
0.932924 0.409145 0.047426
0.944243 0.409145 0.047426
0.953746 0.409145 0.047426
0.961695 0.409145 0.047426
0.968324 0.409145 0.047426
0.053151 0.454191 0.047426
0.063976 0.454191 0.047426
0.076828 0.454191 0.047426
0.092007 0.454191 0.047426
0.109828 0.454191 0.047426
0.130604 0.454191 0.047426
0.154629 0.454191 0.047426
0.182146 0.454191 0.047426
0.213325 0.454191 0.047426
0.248221 0.454191 0.047426
0.286744 0.454191 0.047426
0.328633 0.454191 0.047426
0.373437 0.454191 0.047426
0.420523 0.454191 0.047426
0.469102 0.454191 0.047426
0.518273 0.454191 0.047426
0.567093 0.454191 0.047426
0.614644 0.454191 0.047426
0.660102 0.454191 0.047426
0.702791 0.454191 0.047426
0.742213 0.454191 0.047426
0.778056 0.454191 0.047426
0.810191 0.454191 0.047426
0.838637 0.454191 0.047426
0.863539 0.454191 0.047426
0.885124 0.454191 0.047426
0.903676 0.454191 0.047426
0.919504 0.454191 0.047426
0.932924 0.454191 0.047426
0.944243 0.454191 0.047426
0.953746 0.454191 0.047426
0.961695 0.454191 0.047426
0.968324 0.454191 0.047426
0.053151 0.500000 0.047426
0.063976 0.500000 0.047426
0.076828 0.500000 0.047426
0.092007 0.500000 0.047426
0.109828 0.500000 0.047426
0.130604 0.500000 0.047426
0.154629 0.500000 0.047426
0.182146 0.500000 0.047426
0.213325 0.500000 0.047426
0.248221 0.500000 0.047426
0.286744 0.500000 0.047426
0.328633 0.500000 0.047426
0.373437 0.500000 0.047426
0.420523 0.500000 0.047426
0.469102 0.500000 0.047426
0.518273 0.500000 0.047426
0.567093 0.500000 0.047426
0.614644 0.500000 0.047426
0.660102 0.500000 0.047426
0.702791 0.500000 0.047426
0.742213 0.500000 0.047426
0.778056 0.500000 0.047426
0.810191 0.500000 0.047426
0.838637 0.500000 0.047426
0.863539 0.500000 0.047426
0.885124 0.500000 0.047426
0.903676 0.500000 0.047426
0.919504 0.500000 0.047426
0.932924 0.500000 0.047426
0.944243 0.500000 0.047426
0.953746 0.500000 0.047426
0.961695 0.500000 0.047426
0.968324 0.500000 0.047426
0.053151 0.545809 0.047426
0.063976 0.545809 0.047426
0.076828 0.545809 0.047426
0.092007 0.545809 0.047426
0.109828 0.545809 0.047426
0.130604 0.545809 0.047426
0.154629 0.545809 0.047426
0.182146 0.545809 0.047426
0.213325 0.545809 0.047426
0.248221 0.545809 0.047426
0.286744 0.545809 0.047426
0.328633 0.545809 0.047426
0.373437 0.545809 0.047426
0.420523 0.545809 0.047426
0.469102 0.545809 0.047426
0.518273 0.545809 0.047426
0.567093 0.545809 0.047426
0.614644 0.545809 0.047426
0.660102 0.545809 0.047426
0.702791 0.545809 0.047426
0.742213 0.545809 0.047426
0.778056 0.545809 0.047426
0.810191 0.545809 0.047426
0.838637 0.545809 0.047426
0.863539 0.545809 0.047426
0.885124 0.545809 0.047426
0.903676 0.545809 0.047426
0.919504 0.545809 0.047426
0.932924 0.545809 0.047426
0.944243 0.545809 0.047426
0.953746 0.545809 0.047426
0.961695 0.545809 0.047426
0.968324 0.545809 0.047426
0.053151 0.590855 0.047426
0.063976 0.590855 0.047426
0.076828 0.590855 0.047426
0.092007 0.590855 0.047426
0.109828 0.590855 0.047426
0.130604 0.590855 0.047426
0.154629 0.590855 0.047426
0.182146 0.590855 0.047426
0.213325 0.590855 0.047426
0.248221 0.590855 0.047426
0.286744 0.590855 0.047426
0.328633 0.590855 0.047426
0.373437 0.590855 0.047426
0.420523 0.590855 0.047426
0.469102 0.590855 0.047426
0.518273 0.590855 0.047426
0.567093 0.590855 0.047426
0.614644 0.590855 0.047426
0.660102 0.590855 0.047426
0.702791 0.590855 0.047426
0.742213 0.590855 0.047426
0.778056 0.590855 0.047426
0.810191 0.590855 0.047426
0.838637 0.590855 0.047426
0.863539 0.590855 0.047426
0.885124 0.590855 0.047426
0.903676 0.590855 0.047426
0.919504 0.590855 0.047426
0.932924 0.590855 0.047426
0.944243 0.590855 0.047426
0.953746 0.590855 0.047426
0.961695 0.590855 0.047426
0.968324 0.590855 0.047426
0.053151 0.634426 0.047426
0.063976 0.634426 0.047426
0.076828 0.634426 0.047426
0.092007 0.634426 0.047426
0.109828 0.634426 0.047426
0.130604 0.634426 0.047426
0.154629 0.634426 0.047426
0.182146 0.634426 0.047426
0.213325 0.634426 0.047426
0.248221 0.634426 0.047426
0.286744 0.634426 0.047426
0.328633 0.634426 0.047426
0.373437 0.634426 0.047426
0.420523 0.634426 0.047426
0.469102 0.634426 0.047426
0.518273 0.634426 0.047426
0.567093 0.634426 0.047426
0.614644 0.634426 0.047426
0.660102 0.634426 0.047426
0.702791 0.634426 0.047426
0.742213 0.634426 0.047426
0.778056 0.634426 0.047426
0.810191 0.634426 0.047426
0.838637 0.634426 0.047426
0.863539 0.634426 0.047426
0.885124 0.634426 0.047426
0.903676 0.634426 0.047426
0.919504 0.634426 0.047426
0.932924 0.634426 0.047426
0.944243 0.634426 0.047426
0.953746 0.634426 0.047426
0.961695 0.634426 0.047426
0.968324 0.634426 0.047426
0.053151 0.675902 0.047426
0.063976 0.675902 0.047426
0.076828 0.675902 0.047426
0.092007 0.675902 0.047426
0.109828 0.675902 0.047426
0.130604 0.675902 0.047426
0.154629 0.675902 0.047426
0.182146 0.675902 0.047426
0.213325 0.675902 0.047426
0.248221 0.675902 0.047426
0.286744 0.675902 0.047426
0.328633 0.675902 0.047426
0.373437 0.675902 0.047426
0.420523 0.675902 0.047426
0.469102 0.675902 0.047426
0.518273 0.675902 0.047426
0.567093 0.675902 0.047426
0.614644 0.675902 0.047426
0.660102 0.675902 0.047426
0.702791 0.675902 0.047426
0.742213 0.675902 0.047426
0.778056 0.675902 0.047426
0.810191 0.675902 0.047426
0.838637 0.675902 0.047426
0.863539 0.675902 0.047426
0.885124 0.675902 0.047426
0.903676 0.675902 0.047426
0.919504 0.675902 0.047426
0.932924 0.675902 0.047426
0.944243 0.675902 0.047426
0.953746 0.675902 0.047426
0.961695 0.675902 0.047426
0.968324 0.675902 0.047426
0.053151 0.714787 0.047426
0.063976 0.714787 0.047426
0.076828 0.714787 0.047426
0.092007 0.714787 0.047426
0.109828 0.714787 0.047426
0.130604 0.714787 0.047426
0.154629 0.714787 0.047426
0.182146 0.714787 0.047426
0.213325 0.714787 0.047426
0.248221 0.714787 0.047426
0.286744 0.714787 0.047426
0.328633 0.714787 0.047426
0.373437 0.714787 0.047426
0.420523 0.714787 0.047426
0.469102 0.714787 0.047426
0.518273 0.714787 0.047426
0.567093 0.714787 0.047426
0.614644 0.714787 0.047426
0.660102 0.714787 0.047426
0.702791 0.714787 0.047426
0.742213 0.714787 0.047426
0.778056 0.714787 0.047426
0.810191 0.714787 0.047426
0.838637 0.714787 0.047426
0.863539 0.714787 0.047426
0.885124 0.714787 0.047426
0.903676 0.714787 0.047426
0.919504 0.714787 0.047426
0.932924 0.714787 0.047426
0.944243 0.714787 0.047426
0.953746 0.714787 0.047426
0.961695 0.714787 0.047426
0.968324 0.714787 0.047426
0.053151 0.750728 0.047426
0.063976 0.750728 0.047426
0.076828 0.750728 0.047426
0.092007 0.750728 0.047426
0.109828 0.750728 0.047426
0.130604 0.750728 0.047426
0.154629 0.750728 0.047426
0.182146 0.750728 0.047426
0.213325 0.750728 0.047426
0.248221 0.750728 0.047426
0.286744 0.750728 0.047426
0.328633 0.750728 0.047426
0.373437 0.750728 0.047426
0.420523 0.750728 0.047426
0.469102 0.750728 0.047426
0.518273 0.750728 0.047426
0.567093 0.750728 0.047426
0.614644 0.750728 0.047426
0.660102 0.750728 0.047426
0.702791 0.750728 0.047426
0.742213 0.750728 0.047426
0.778056 0.750728 0.047426
0.810191 0.750728 0.047426
0.838637 0.750728 0.047426
0.863539 0.750728 0.047426
0.885124 0.750728 0.047426
0.903676 0.750728 0.047426
0.919504 0.750728 0.047426
0.932924 0.750728 0.047426
0.944243 0.750728 0.047426
0.953746 0.750728 0.047426
0.961695 0.750728 0.047426
0.968324 0.750728 0.047426
0.053151 0.783512 0.047426
0.063976 0.783512 0.047426
0.076828 0.783512 0.047426
0.092007 0.783512 0.047426
0.109828 0.783512 0.047426
0.130604 0.783512 0.047426
0.154629 0.783512 0.047426
0.182146 0.783512 0.047426
0.213325 0.783512 0.047426
0.248221 0.783512 0.047426
0.286744 0.783512 0.047426
0.328633 0.783512 0.047426
0.373437 0.783512 0.047426
0.420523 0.783512 0.047426
0.469102 0.783512 0.047426
0.518273 0.783512 0.047426
0.567093 0.783512 0.047426
0.614644 0.783512 0.047426
0.660102 0.783512 0.047426
0.702791 0.783512 0.047426
0.742213 0.783512 0.047426
0.778056 0.783512 0.047426
0.810191 0.783512 0.047426
0.838637 0.783512 0.047426
0.863539 0.783512 0.047426
0.885124 0.783512 0.047426
0.903676 0.783512 0.047426
0.919504 0.783512 0.047426
0.932924 0.783512 0.047426
0.944243 0.783512 0.047426
0.953746 0.783512 0.047426
0.961695 0.783512 0.047426
0.968324 0.783512 0.047426
0.053151 0.813057 0.047426
0.063976 0.813057 0.047426
0.076828 0.813057 0.047426
0.092007 0.813057 0.047426
0.109828 0.813057 0.047426
0.130604 0.813057 0.047426
0.154629 0.813057 0.047426
0.182146 0.813057 0.047426
0.213325 0.813057 0.047426
0.248221 0.813057 0.047426
0.286744 0.813057 0.047426
0.328633 0.813057 0.047426
0.373437 0.813057 0.047426
0.420523 0.813057 0.047426
0.469102 0.813057 0.047426
0.518273 0.813057 0.047426
0.567093 0.813057 0.047426
0.614644 0.813057 0.047426
0.660102 0.813057 0.047426
0.702791 0.813057 0.047426
0.742213 0.813057 0.047426
0.778056 0.813057 0.047426
0.810191 0.813057 0.047426
0.838637 0.813057 0.047426
0.863539 0.813057 0.047426
0.885124 0.813057 0.047426
0.903676 0.813057 0.047426
0.919504 0.813057 0.047426
0.932924 0.813057 0.047426
0.944243 0.813057 0.047426
0.953746 0.813057 0.047426
0.961695 0.813057 0.047426
0.968324 0.813057 0.047426
0.053151 0.839397 0.047426
0.063976 0.839397 0.047426
0.076828 0.839397 0.047426
0.092007 0.839397 0.047426
0.109828 0.839397 0.047426
0.130604 0.839397 0.047426
0.154629 0.839397 0.047426
0.182146 0.839397 0.047426
0.213325 0.839397 0.047426
0.248221 0.839397 0.047426
0.286744 0.839397 0.047426
0.328633 0.839397 0.047426
0.373437 0.839397 0.047426
0.420523 0.839397 0.047426
0.469102 0.839397 0.047426
0.518273 0.839397 0.047426
0.567093 0.839397 0.047426
0.614644 0.839397 0.047426
0.660102 0.839397 0.047426
0.702791 0.839397 0.047426
0.742213 0.839397 0.047426
0.778056 0.839397 0.047426
0.810191 0.839397 0.047426
0.838637 0.839397 0.047426
0.863539 0.839397 0.047426
0.885124 0.839397 0.047426
0.903676 0.839397 0.047426
0.919504 0.839397 0.047426
0.932924 0.839397 0.047426
0.944243 0.839397 0.047426
0.953746 0.839397 0.047426
0.961695 0.839397 0.047426
0.968324 0.839397 0.047426
0.053151 0.862653 0.047426
0.063976 0.862653 0.047426
0.076828 0.862653 0.047426
0.092007 0.862653 0.047426
0.109828 0.862653 0.047426
0.130604 0.862653 0.047426
0.154629 0.862653 0.047426
0.182146 0.862653 0.047426
0.213325 0.862653 0.047426
0.248221 0.862653 0.047426
0.286744 0.862653 0.047426
0.328633 0.862653 0.047426
0.373437 0.862653 0.047426
0.420523 0.862653 0.047426
0.469102 0.862653 0.047426
0.518273 0.862653 0.047426
0.567093 0.862653 0.047426
0.614644 0.862653 0.047426
0.660102 0.862653 0.047426
0.702791 0.862653 0.047426
0.742213 0.862653 0.047426
0.778056 0.862653 0.047426
0.810191 0.862653 0.047426
0.838637 0.862653 0.047426
0.863539 0.862653 0.047426
0.885124 0.862653 0.047426
0.903676 0.862653 0.047426
0.919504 0.862653 0.047426
0.932924 0.862653 0.047426
